;FLAVOR:UltiGCode
;TIME:3576
;MATERIAL:14497
;MATERIAL2:0
;NOZZLE_DIAMETER:0.460000
;NOZZLE_DIAMETER2:0.460000

;Layer count: 204
;LAYER:0
M107
G0 F9000 X107.524 Y102.693 Z0.300
;TYPE:SKIRT
G1 F1800 X105.959 Y104.431 E0.31573
G1 X104.789 Y106.457 E0.63158
G1 X104.069 Y108.675 E0.94639
G1 X103.824 Y111.000 E1.26200
G1 X104.068 Y113.322 E1.57720
G1 X104.791 Y115.548 E1.89316
G1 X105.958 Y117.569 E2.20821
G1 X107.509 Y119.292 E2.52118
G1 X109.401 Y120.670 E2.83716
G1 X111.552 Y121.630 E3.15516
G1 X113.817 Y122.111 E3.46775
G1 X116.171 Y122.114 E3.78554
G1 X118.441 Y121.632 E4.09882
G1 X120.589 Y120.678 E4.41612
G1 X122.461 Y119.318 E4.72849
G1 X124.032 Y117.578 E5.04497
G1 X125.213 Y115.536 E5.36342
G1 X125.931 Y113.326 E5.67712
G1 X126.176 Y111.000 E5.99287
G1 X125.931 Y108.675 E6.30848
G1 X125.211 Y106.457 E6.62329
G1 X124.041 Y104.431 E6.93914
G1 X122.476 Y102.693 E7.25487
G1 X120.589 Y101.321 E7.56983
G1 X118.452 Y100.370 E7.88561
G1 X116.170 Y99.885 E8.20056
G1 X113.830 Y99.885 E8.51646
G1 X111.548 Y100.370 E8.83141
G1 X109.411 Y101.321 E9.14718
G1 X107.524 Y102.693 E9.46214
G0 F9000 X107.220 Y102.357
G1 F1800 X105.593 Y104.164 E9.79040
G1 X104.376 Y106.272 E10.11900
G1 X103.626 Y108.583 E10.44700
G1 X103.371 Y111.000 E10.77511
G1 X103.625 Y113.415 E11.10293
G1 X104.376 Y115.728 E11.43124
G1 X105.593 Y117.836 E11.75984
G1 X107.206 Y119.627 E12.08522
G1 X109.177 Y121.063 E12.41444
G1 X111.414 Y122.061 E12.74513
G1 X113.766 Y122.561 E13.06974
G1 X116.222 Y122.564 E13.40130
G1 X118.577 Y122.064 E13.72631
G1 X120.817 Y121.070 E14.05715
G1 X122.764 Y119.654 E14.38216
G1 X124.398 Y117.844 E14.71135
G1 X125.626 Y115.722 E15.04233
G1 X126.374 Y113.418 E15.36935
G1 X126.629 Y110.999 E15.69772
G1 X126.374 Y108.583 E16.02570
G1 X125.624 Y106.272 E16.35370
G1 X124.407 Y104.164 E16.68230
G1 X122.780 Y102.357 E17.01056
G1 X120.815 Y100.929 E17.33848
G1 X118.594 Y99.940 E17.66670
G1 X116.217 Y99.435 E17.99476
G1 X113.783 Y99.435 E18.32335
G1 X111.406 Y99.940 E18.65140
G1 X109.185 Y100.929 E18.97962
G1 X107.220 Y102.357 E19.30755
G0 F9000 X106.918 Y102.021
G1 F1800 X105.225 Y103.901 E19.64909
G1 X103.966 Y106.083 E19.98918
G1 X103.183 Y108.490 E20.33089
G1 X102.919 Y111.000 E20.67160
G1 X103.183 Y113.511 E21.01246
G1 X103.964 Y115.914 E21.35357
G1 X105.225 Y118.099 E21.69414
G1 X106.905 Y119.965 E22.03310
G1 X108.948 Y121.453 E22.37431
G1 X111.273 Y122.492 E22.71810
G1 X113.719 Y123.011 E23.05566
G1 X116.268 Y123.014 E23.39978
G1 X118.714 Y122.495 E23.73734
G1 X121.043 Y121.461 E24.08135
G1 X123.066 Y119.991 E24.41894
G1 X124.764 Y118.110 E24.76104
G1 X126.039 Y115.906 E25.10478
G1 X126.816 Y113.515 E25.44418
G1 X127.081 Y110.998 E25.78585
G1 X126.817 Y108.490 E26.12630
G1 X126.034 Y106.083 E26.46801
G1 X124.775 Y103.901 E26.80809
G1 X123.082 Y102.021 E27.14964
G1 X121.040 Y100.537 E27.49042
G1 X118.734 Y99.510 E27.83120
G1 X116.263 Y98.985 E28.17223
G1 X113.737 Y98.985 E28.51324
G1 X111.266 Y99.510 E28.85428
G1 X108.960 Y100.537 E29.19506
G1 X106.918 Y102.021 E29.53584
G0 F9000 X106.614 Y101.685
G1 F1800 X104.862 Y103.631 E29.88934
G1 X103.551 Y105.902 E30.24334
G1 X102.740 Y108.398 E30.59764
G1 X102.466 Y111.000 E30.95085
G1 X102.740 Y113.603 E31.30420
G1 X103.552 Y116.100 E31.65867
G1 X104.859 Y118.366 E32.01182
G1 X106.602 Y120.301 E32.36340
G1 X108.719 Y121.843 E32.71697
G1 X111.134 Y122.922 E33.07405
G1 X113.673 Y123.461 E33.42446
G1 X116.314 Y123.464 E33.78099
G1 X118.855 Y122.925 E34.13166
G1 X121.271 Y121.852 E34.48854
G1 X123.369 Y120.327 E34.83869
G1 X125.130 Y118.376 E35.19350
G1 X126.452 Y116.093 E35.54965
G1 X127.259 Y113.607 E35.90250
G1 X127.534 Y110.996 E36.25693
G1 X127.260 Y108.398 E36.60961
G1 X126.449 Y105.902 E36.96391
G1 X125.138 Y103.631 E37.31791
G1 X123.386 Y101.685 E37.67140
G1 X121.268 Y100.146 E38.02485
G1 X118.874 Y99.080 E38.37863
G1 X116.309 Y98.535 E38.73264
G1 X113.691 Y98.535 E39.08607
G1 X111.126 Y99.080 E39.44007
G1 X108.732 Y100.146 E39.79385
G1 X106.614 Y101.685 E40.14730
G0 F9000 X106.312 Y101.349
G1 F1800 X104.494 Y103.368 E40.51408
G1 X103.138 Y105.717 E40.88024
G1 X102.298 Y108.302 E41.24717
G1 X102.014 Y111.000 E41.61342
G1 X102.298 Y113.700 E41.97993
G1 X103.137 Y116.283 E42.34657
G1 X104.491 Y118.629 E42.71224
G1 X106.299 Y120.636 E43.07691
G1 X108.496 Y122.237 E43.44390
G1 X110.993 Y123.352 E43.81308
G1 X113.625 Y123.911 E44.17632
G1 X116.361 Y123.914 E44.54569
G1 X118.996 Y123.354 E44.90935
G1 X121.494 Y122.246 E45.27827
G1 X123.671 Y120.663 E45.64165
G1 X125.495 Y118.643 E46.00907
G1 X126.866 Y116.273 E46.37870
G1 X127.701 Y113.703 E46.74350
G1 X127.986 Y110.998 E47.11070
G1 X127.702 Y108.302 E47.47667
G1 X126.862 Y105.717 E47.84361
G1 X125.506 Y103.368 E48.20977
G1 X123.688 Y101.349 E48.57655
G1 X121.493 Y99.754 E48.94285
G1 X119.014 Y98.650 E49.30920
G1 X116.355 Y98.085 E49.67618
G1 X113.645 Y98.085 E50.04203
G1 X110.986 Y98.650 E50.40901
G1 X108.507 Y99.754 E50.77536
G1 X106.312 Y101.349 E51.14165
G0 F9000 X106.009 Y101.013
G1 F1800 X104.128 Y103.101 E51.52105
G1 X102.725 Y105.532 E51.89997
G1 X101.855 Y108.210 E52.28010
G1 X101.561 Y111.000 E52.65883
G1 X101.854 Y113.788 E53.03728
G1 X102.725 Y116.467 E53.41758
G1 X104.128 Y118.899 E53.79662
G1 X105.995 Y120.972 E54.17324
G1 X108.268 Y122.628 E54.55290
G1 X110.849 Y123.781 E54.93452
G1 X113.579 Y124.361 E55.31130
G1 X116.406 Y124.364 E55.69294
G1 X119.137 Y123.784 E56.06985
G1 X121.721 Y122.637 E56.45151
G1 X123.977 Y120.998 E56.82796
G1 X125.860 Y118.911 E57.20744
G1 X127.276 Y116.464 E57.58911
G1 X128.145 Y113.791 E57.96855
G1 X128.439 Y110.997 E58.34782
G1 X128.145 Y108.210 E58.72616
G1 X127.275 Y105.532 E59.10629
G1 X125.872 Y103.101 E59.48521
G1 X123.991 Y101.013 E59.86460
G1 X121.721 Y99.362 E60.24353
G1 X119.154 Y98.220 E60.62282
G1 X116.402 Y97.635 E61.00264
G1 X113.598 Y97.635 E61.38118
G1 X110.846 Y98.220 E61.76100
G1 X108.279 Y99.362 E62.14030
G1 X106.009 Y101.013 E62.51923
G0 F9000 X105.704 Y100.679
G1 F1800 X103.762 Y102.835 E62.91095
G1 X102.311 Y105.348 E63.30270
G1 X101.413 Y108.112 E63.69504
G1 X101.109 Y111.000 E64.08707
G1 X101.412 Y113.885 E64.47869
G1 X102.310 Y116.650 E64.87116
G1 X103.760 Y119.162 E65.26272
G1 X105.694 Y121.310 E65.65292
G1 X108.041 Y123.019 E66.04486
G1 X110.716 Y124.214 E66.44038
G1 X113.527 Y124.811 E66.82833
G1 X116.458 Y124.814 E67.22402
G1 X119.270 Y124.217 E67.61210
G1 X121.950 Y123.027 E68.00796
G1 X124.277 Y121.336 E68.39629
G1 X126.228 Y119.175 E68.78933
G1 X127.689 Y116.648 E69.18339
G1 X128.587 Y113.887 E69.57535
G1 X128.891 Y110.998 E69.96751
G1 X128.587 Y108.112 E70.35928
G1 X127.689 Y105.348 E70.75162
G1 X126.238 Y102.835 E71.14337
G1 X124.296 Y100.679 E71.53509
G1 X121.946 Y98.970 E71.92736
G1 X119.290 Y97.788 E72.31983
G1 X116.453 Y97.185 E72.71138
G1 X113.547 Y97.185 E73.10369
G1 X110.710 Y97.788 E73.49524
G1 X108.054 Y98.970 E73.88770
G1 X105.704 Y100.679 E74.27997
G0 F9000 X105.403 Y100.341
G1 F1800 X103.397 Y102.568 E74.68460
G1 X101.897 Y105.167 E75.08971
G1 X100.970 Y108.020 E75.49469
G1 X100.656 Y111.000 E75.89921
G1 X100.969 Y113.976 E76.30319
G1 X101.898 Y116.836 E76.70915
G1 X103.394 Y119.429 E77.11329
G1 X105.391 Y121.646 E77.51610
G1 X107.813 Y123.410 E77.92060
G1 X110.573 Y124.643 E78.32869
G1 X113.481 Y125.261 E78.73004
G1 X116.503 Y125.264 E79.13801
G1 X119.414 Y124.646 E79.53975
G1 X122.172 Y123.422 E79.94710
G1 X124.582 Y121.670 E80.34934
G1 X126.591 Y119.445 E80.75404
G1 X128.103 Y116.832 E81.16159
G1 X129.030 Y113.979 E81.56657
G1 X129.344 Y110.997 E81.97136
G1 X129.030 Y108.020 E82.37549
G1 X128.103 Y105.167 E82.78047
G1 X126.603 Y102.568 E83.18557
G1 X124.597 Y100.341 E83.59020
G1 X122.173 Y98.579 E83.99476
G1 X119.430 Y97.358 E84.40010
G1 X116.500 Y96.735 E84.80449
G1 X113.500 Y96.735 E85.20949
G1 X110.570 Y97.358 E85.61388
G1 X107.827 Y98.579 E86.01922
G1 X105.403 Y100.341 E86.42378
G0 F9000 X105.103 Y100.002
G1 F1800 X103.029 Y102.305 E86.84217
G1 X101.484 Y104.981 E87.25932
G1 X100.528 Y107.923 E87.67694
G1 X100.204 Y111.000 E88.09463
G1 X100.527 Y114.074 E88.51190
G1 X101.485 Y117.020 E88.93011
G1 X103.030 Y119.697 E89.34738
G1 X105.085 Y121.979 E89.76195
G1 X107.590 Y123.804 E90.18036
G1 X110.432 Y125.073 E90.60054
G1 X113.434 Y125.711 E91.01486
G1 X116.550 Y125.714 E91.43552
G1 X119.554 Y125.076 E91.85010
G1 X122.399 Y123.813 E92.27032
G1 X124.882 Y122.009 E92.68466
G1 X126.960 Y119.707 E93.10332
G1 X128.517 Y117.014 E93.52326
G1 X129.472 Y114.077 E93.94019
G1 X129.796 Y110.999 E94.35802
G1 X129.472 Y107.923 E94.77558
G1 X128.516 Y104.981 E95.19319
G1 X126.971 Y102.305 E95.61034
G1 X124.897 Y100.002 E96.02873
G1 X122.398 Y98.186 E96.44577
G1 X119.575 Y96.929 E96.86295
G1 X116.546 Y96.285 E97.28100
G1 X113.454 Y96.285 E97.69842
G1 X110.425 Y96.929 E98.11648
G1 X107.602 Y98.186 E98.53365
G1 X105.103 Y100.002 E98.95069
G0 F9000 X104.797 Y99.668
G1 F1800 X102.663 Y102.038 E99.38123
G1 X101.071 Y104.796 E99.81114
G1 X100.085 Y107.831 E100.24194
G1 X99.751 Y111.000 E100.67213
G1 X100.084 Y114.166 E101.10189
G1 X101.071 Y117.204 E101.53313
G1 X102.662 Y119.960 E101.96273
G1 X104.784 Y122.317 E102.39088
G1 X107.362 Y124.194 E102.82139
G1 X110.292 Y125.503 E103.25462
G1 X113.388 Y126.161 E103.68191
G1 X116.596 Y126.164 E104.11499
G1 X119.692 Y125.507 E104.54226
G1 X122.626 Y124.205 E104.97560
G1 X125.187 Y122.343 E105.40305
G1 X127.323 Y119.977 E105.83337
G1 X128.931 Y117.198 E106.26682
G1 X129.915 Y114.169 E106.69677
G1 X130.249 Y110.997 E107.12735
G1 X129.915 Y107.831 E107.55714
G1 X128.929 Y104.796 E107.98794
G1 X127.337 Y102.038 E108.41785
G1 X125.203 Y99.668 E108.84839
G1 X122.623 Y97.793 E109.27895
G1 X119.714 Y96.498 E109.70882
G1 X116.593 Y95.835 E110.13956
G1 X113.407 Y95.835 E110.56967
G1 X110.286 Y96.498 E111.00041
G1 X107.377 Y97.793 E111.43028
G1 X104.797 Y99.668 E111.86084
G0 F9000 X104.497 Y99.330
G1 F1800 X102.298 Y101.772 E112.30447
G1 X100.657 Y104.615 E112.74763
G1 X99.642 Y107.739 E113.19107
G1 X99.299 Y110.996 E113.63320
G1 X99.642 Y114.262 E114.07653
G1 X100.657 Y117.386 E114.51997
G1 X102.297 Y120.227 E114.96282
G1 X104.484 Y122.655 E115.40397
G1 X107.135 Y124.586 E115.84673
G1 X110.151 Y125.933 E116.29265
G1 X113.341 Y126.611 E116.73292
G1 X116.642 Y126.614 E117.17856
G1 X119.836 Y125.936 E117.61935
G1 X122.850 Y124.599 E118.06448
G1 X125.487 Y122.681 E118.50468
G1 X127.691 Y120.241 E118.94857
G1 X129.343 Y117.385 E119.39398
G1 X130.357 Y114.265 E119.83687
G1 X130.701 Y110.995 E120.28076
G1 X130.358 Y107.739 E120.72275
G1 X129.343 Y104.615 E121.16619
G1 X127.702 Y101.772 E121.60934
G1 X125.503 Y99.330 E122.05298
G1 X122.851 Y97.402 E122.49561
G1 X119.854 Y96.068 E122.93847
G1 X116.640 Y95.385 E123.38205
G1 X113.360 Y95.385 E123.82485
G1 X110.146 Y96.068 E124.26843
G1 X107.149 Y97.402 E124.71130
G1 X104.497 Y99.330 E125.15393
G0 F9000 X104.191 Y98.996
G1 F1800 X101.932 Y101.505 E125.60971
G1 X100.244 Y104.430 E126.06562
G1 X99.200 Y107.643 E126.52170
G1 X98.846 Y111.000 E126.97740
G1 X99.199 Y114.355 E127.43283
G1 X100.243 Y117.569 E127.88904
G1 X101.931 Y120.494 E128.34495
G1 X104.177 Y122.988 E128.79804
G1 X106.907 Y124.976 E129.25396
G1 X110.012 Y126.363 E129.71305
G1 X113.294 Y127.060 E130.16600
G1 X116.688 Y127.065 E130.62419
G1 X119.974 Y126.367 E131.07770
G1 X123.076 Y124.990 E131.53588
G1 X125.792 Y123.016 E131.98915
G1 X128.055 Y120.509 E132.44509
G1 X129.758 Y117.565 E132.90423
G1 X130.800 Y114.358 E133.35946
G1 X131.154 Y110.998 E133.81557
G1 X130.800 Y107.643 E134.27101
G1 X129.756 Y104.430 E134.72709
G1 X128.068 Y101.505 E135.18300
G1 X125.809 Y98.996 E135.63877
G1 X123.076 Y97.010 E136.09486
G1 X119.990 Y95.636 E136.55089
G1 X116.690 Y94.935 E137.00633
G1 X113.310 Y94.935 E137.46263
G1 X110.010 Y95.636 E137.91807
G1 X106.924 Y97.010 E138.37411
G1 X104.191 Y98.996 E138.83019
G0 F9000 X103.891 Y98.658
G1 F1800 X101.564 Y101.242 E139.29964
G1 X99.831 Y104.245 E139.76771
G1 X98.757 Y107.551 E140.23698
G1 X98.393 Y111.000 E140.70518
G1 X98.756 Y114.446 E141.17296
G1 X99.831 Y117.755 E141.64266
G1 X101.563 Y120.757 E142.11054
G1 X103.877 Y123.326 E142.57731
G1 X106.680 Y125.368 E143.04548
G1 X109.876 Y126.795 E143.51799
G1 X113.243 Y127.510 E143.98267
G1 X116.739 Y127.515 E144.45463
G1 X120.109 Y126.799 E144.91974
G1 X123.304 Y125.381 E145.39163
G1 X126.095 Y123.352 E145.85746
G1 X128.421 Y120.775 E146.32611
G1 X130.170 Y117.752 E146.79760
G1 X131.243 Y114.450 E147.26632
G1 X131.606 Y110.996 E147.73517
G1 X131.243 Y107.551 E148.20282
G1 X130.169 Y104.245 E148.67209
G1 X128.436 Y101.242 E149.14016
G1 X126.109 Y98.658 E149.60961
G1 X123.303 Y96.619 E150.07787
G1 X120.130 Y95.206 E150.54677
G1 X116.737 Y94.485 E151.01506
G1 X113.263 Y94.485 E151.48405
G1 X109.870 Y95.206 E151.95233
G1 X106.697 Y96.619 E152.42124
G1 X103.891 Y98.658 E152.88950
G0 F9000 X103.586 Y98.324
G1 F1800 X101.198 Y100.975 E153.37117
G1 X99.418 Y104.060 E153.85200
G1 X98.315 Y107.455 E154.33391
G1 X97.941 Y111.000 E154.81514
G1 X98.314 Y114.543 E155.29609
G1 X99.418 Y117.941 E155.77842
G1 X101.199 Y121.026 E156.25932
G1 X103.571 Y123.660 E156.73784
G1 X106.452 Y125.759 E157.21905
G1 X109.732 Y127.225 E157.70407
G1 X113.196 Y127.960 E158.18212
G1 X116.785 Y127.965 E158.66664
G1 X120.252 Y127.228 E159.14514
G1 X123.527 Y125.775 E159.62882
G1 X126.397 Y123.689 E160.10780
G1 X128.786 Y121.042 E160.58917
G1 X130.584 Y117.936 E161.07367
G1 X131.685 Y114.546 E161.55485
G1 X132.059 Y110.998 E162.03648
G1 X131.685 Y107.455 E162.51745
G1 X130.582 Y104.060 E162.99935
G1 X128.802 Y100.975 E163.48018
G1 X126.414 Y98.324 E163.96186
G1 X123.529 Y96.227 E164.44335
G1 X120.271 Y94.776 E164.92482
G1 X116.783 Y94.035 E165.40621
G1 X113.217 Y94.035 E165.88762
G1 X109.729 Y94.776 E166.36901
G1 X106.471 Y96.227 E166.85049
G1 X103.586 Y98.324 E167.33198
G0 F9000 X103.283 Y97.988
G1 F1800 X100.835 Y100.706 E167.82580
G1 X99.004 Y103.879 E168.32036
G1 X97.871 Y107.362 E168.81481
G1 X97.488 Y111.000 E169.30866
G1 X97.871 Y114.635 E169.80210
G1 X99.003 Y118.121 E170.29690
G1 X100.834 Y121.293 E170.79134
G1 X103.270 Y123.998 E171.28277
G1 X106.225 Y126.151 E171.77635
G1 X109.595 Y127.655 E172.27455
G1 X113.149 Y128.410 E172.76505
G1 X116.832 Y128.415 E173.26225
G1 X120.391 Y127.659 E173.75344
G1 X123.754 Y126.166 E174.25017
G1 X126.700 Y124.025 E174.74182
G1 X129.154 Y121.307 E175.23618
G1 X130.996 Y118.123 E175.73276
G1 X132.128 Y114.638 E176.22744
G1 X132.511 Y110.996 E176.72182
G1 X132.129 Y107.362 E177.21511
G1 X130.996 Y103.879 E177.70957
G1 X129.165 Y100.706 E178.20413
G1 X126.717 Y97.988 E178.69794
G1 X123.756 Y95.836 E179.19210
G1 X120.410 Y94.346 E179.68657
G1 X116.830 Y93.585 E180.18067
G1 X113.170 Y93.585 E180.67477
G1 X109.590 Y94.346 E181.16887
G1 X106.244 Y95.836 E181.66334
G1 X103.283 Y97.988 E182.15750
G0 F9000 X102.980 Y97.652
G1 F1800 X100.467 Y100.442 E182.66441
G1 X98.591 Y103.693 E183.17112
G1 X97.430 Y107.266 E183.67831
G1 X97.036 Y111.000 E184.18519
G1 X97.429 Y114.732 E184.69180
G1 X98.591 Y118.307 E185.19928
G1 X100.466 Y121.556 E185.70569
G1 X102.967 Y124.333 E186.21022
G1 X106.001 Y126.544 E186.71703
G1 X109.452 Y128.085 E187.22725
G1 X113.103 Y128.860 E187.73112
G1 X116.877 Y128.865 E188.24061
G1 X120.530 Y128.089 E188.74477
G1 X123.983 Y126.556 E189.25480
G1 X127.000 Y124.363 E189.75832
G1 X129.518 Y121.574 E190.26559
G1 X131.411 Y118.303 E190.77579
G1 X132.570 Y114.735 E191.28224
G1 X132.964 Y110.999 E191.78940
G1 X132.570 Y107.266 E192.29615
G1 X131.409 Y103.693 E192.80333
G1 X129.533 Y100.442 E193.31005
G1 X127.020 Y97.652 E193.81696
G1 X123.982 Y95.443 E194.32405
G1 X120.551 Y93.916 E194.83104
G1 X116.876 Y93.135 E195.33824
G1 X113.124 Y93.135 E195.84476
G1 X109.449 Y93.916 E196.35197
G1 X106.018 Y95.443 E196.85895
G1 X102.980 Y97.652 E197.36604
G0 F9000 X102.677 Y97.315
G1 F1800 X100.101 Y100.176 E197.88577
G1 X98.178 Y103.508 E198.40513
G1 X96.986 Y107.174 E198.92554
G1 X96.583 Y111.000 E199.44491
G1 X96.986 Y114.824 E199.96401
G1 X98.177 Y118.490 E200.48438
G1 X100.100 Y121.823 E201.00385
G1 X102.663 Y124.669 E201.52090
G1 X105.774 Y126.936 E202.04056
G1 X109.311 Y128.515 E202.56348
G1 X113.056 Y129.310 E203.08032
