;FLAVOR:UltiGCode
;TIME:3655
;MATERIAL:14827
;MATERIAL2:0
;NOZZLE_DIAMETER:0.460000
;NOZZLE_DIAMETER2:0.460000

;Layer count: 204
;LAYER:0
M107
G0 F9000 X107.524 Y104.193 Z0.300
;TYPE:SKIRT
G1 F1800 X105.959 Y105.931 E0.31573
G1 X104.789 Y107.957 E0.63158
G1 X104.069 Y110.175 E0.94639
G1 X103.824 Y112.500 E1.26200
G1 X104.068 Y114.822 E1.57720
G1 X104.785 Y117.028 E1.89034
G1 X105.950 Y119.052 E2.20561
G1 X107.515 Y120.796 E2.52195
G1 X109.415 Y122.180 E2.83928
G1 X111.544 Y123.128 E3.15391
G1 X113.813 Y123.610 E3.46706
G1 X116.172 Y123.614 E3.78552
G1 X118.434 Y123.133 E4.09772
G1 X120.593 Y122.175 E4.41659
G1 X122.476 Y120.807 E4.73080
G1 X124.028 Y119.084 E5.04385
G1 X125.200 Y117.060 E5.35960
G1 X125.932 Y114.814 E5.67850
G1 X126.176 Y112.500 E5.99262
G1 X125.931 Y110.175 E6.30824
G1 X125.211 Y107.957 E6.62305
G1 X124.041 Y105.931 E6.93889
G1 X122.476 Y104.193 E7.25462
G1 X120.590 Y102.823 E7.56932
G1 X118.450 Y101.870 E7.88557
G1 X116.170 Y101.385 E8.20026
G1 X113.830 Y101.385 E8.51616
G1 X111.548 Y101.870 E8.83111
G1 X109.410 Y102.822 E9.14706
G1 X107.524 Y104.193 E9.46183
G0 F9000 X107.220 Y103.857
G1 F1800 X105.593 Y105.664 E9.79009
G1 X104.376 Y107.772 E10.11869
G1 X103.626 Y110.083 E10.44670
G1 X103.371 Y112.500 E10.77480
G1 X103.625 Y114.914 E11.10249
G1 X104.372 Y117.213 E11.42883
G1 X105.582 Y119.316 E11.75637
G1 X107.211 Y121.130 E12.08551
G1 X109.191 Y122.573 E12.41627
G1 X111.408 Y123.560 E12.74388
G1 X113.762 Y124.060 E13.06876
G1 X116.223 Y124.064 E13.40100
G1 X118.571 Y123.565 E13.72506
G1 X120.821 Y122.566 E14.05740
G1 X122.780 Y121.143 E14.38427
G1 X124.392 Y119.352 E14.70957
G1 X125.614 Y117.242 E15.03874
G1 X126.375 Y114.910 E15.36990
G1 X126.629 Y112.497 E15.69746
G1 X126.374 Y110.083 E16.02516
G1 X125.624 Y107.772 E16.35316
G1 X124.407 Y105.664 E16.68177
G1 X122.780 Y103.857 E17.01002
G1 X120.819 Y102.432 E17.33727
G1 X118.589 Y101.439 E17.66682
G1 X116.217 Y100.935 E17.99419
G1 X113.783 Y100.935 E18.32278
G1 X111.408 Y101.440 E18.65057
G1 X109.183 Y102.431 E18.97939
G1 X107.220 Y103.857 E19.30694
G0 F9000 X106.918 Y103.521
G1 F1800 X105.225 Y105.401 E19.64849
G1 X103.966 Y107.583 E19.98857
G1 X103.183 Y109.990 E20.33028
G1 X102.919 Y112.500 E20.67100
G1 X103.183 Y115.011 E21.01185
G1 X103.958 Y117.396 E21.35040
G1 X105.217 Y119.584 E21.69119
G1 X106.908 Y121.466 E22.03275
G1 X108.963 Y122.964 E22.37606
G1 X111.268 Y123.990 E22.71667
G1 X113.715 Y124.510 E23.05439
G1 X116.269 Y124.514 E23.39918
G1 X118.711 Y123.995 E23.73622
G1 X121.045 Y122.960 E24.08090
G1 X123.082 Y121.479 E24.42089
G1 X124.760 Y119.616 E24.75937
G1 X126.027 Y117.427 E25.10082
G1 X126.817 Y115.003 E25.44500
G1 X127.081 Y112.501 E25.78465
G1 X126.817 Y109.990 E26.12550
G1 X126.034 Y107.583 E26.46721
G1 X124.775 Y105.401 E26.80729
G1 X123.082 Y103.521 E27.14884
G1 X121.041 Y102.038 E27.48943
G1 X118.732 Y101.010 E27.83064
G1 X116.263 Y100.485 E28.17141
G1 X113.737 Y100.485 E28.51242
G1 X111.265 Y101.010 E28.85358
G1 X108.959 Y102.038 E29.19442
G1 X106.918 Y103.521 E29.53501
G0 F9000 X106.614 Y103.185
G1 F1800 X104.862 Y105.131 E29.88851
G1 X103.551 Y107.402 E30.24251
G1 X102.740 Y109.898 E30.59681
G1 X102.466 Y112.500 E30.95002
G1 X102.740 Y115.103 E31.30337
G1 X103.544 Y117.578 E31.65468
G1 X104.852 Y119.852 E32.00883
G1 X106.604 Y121.802 E32.36273
G1 X108.735 Y123.355 E32.71870
G1 X111.127 Y124.420 E33.07218
G1 X113.669 Y124.960 E33.42301
G1 X116.315 Y124.964 E33.78022
G1 X118.850 Y124.425 E34.13010
G1 X121.274 Y123.350 E34.48807
G1 X123.386 Y121.815 E34.84054
G1 X125.124 Y119.884 E35.19127
G1 X126.439 Y117.614 E35.54543
G1 X127.260 Y115.098 E35.90271
G1 X127.534 Y112.499 E36.25552
G1 X127.260 Y109.898 E36.60860
G1 X126.449 Y107.402 E36.96290
G1 X125.138 Y105.131 E37.31690
G1 X123.386 Y103.185 E37.67040
G1 X121.269 Y101.647 E38.02365
G1 X118.875 Y100.580 E38.37749
G1 X116.309 Y100.035 E38.73163
G1 X113.691 Y100.035 E39.08506
G1 X111.121 Y100.581 E39.43975
G1 X108.735 Y101.644 E39.79238
G1 X106.614 Y103.185 E40.14631
G0 F9000 X106.312 Y102.849
G1 F1800 X104.494 Y104.868 E40.51309
G1 X103.138 Y107.217 E40.87925
G1 X102.298 Y109.802 E41.24619
G1 X102.014 Y112.500 E41.61243
G1 X102.298 Y115.199 E41.97881
G1 X103.131 Y117.763 E42.34276
G1 X104.484 Y120.115 E42.70906
G1 X106.300 Y122.136 E43.07586
G1 X108.512 Y123.749 E43.44545
G1 X110.986 Y124.850 E43.81102
G1 X113.621 Y125.410 E44.17469
G1 X116.361 Y125.414 E44.54459
G1 X118.993 Y124.855 E44.90783
G1 X121.496 Y123.744 E45.27753
G1 X123.688 Y122.151 E45.64334
G1 X125.492 Y120.148 E46.00725
G1 X126.852 Y117.799 E46.37368
G1 X127.702 Y115.192 E46.74386
G1 X127.986 Y112.499 E47.10943
G1 X127.702 Y109.802 E47.47554
G1 X126.862 Y107.217 E47.84248
G1 X125.506 Y104.868 E48.20864
G1 X123.688 Y102.849 E48.57542
G1 X121.495 Y101.255 E48.94141
G1 X119.016 Y100.150 E49.30782
G1 X116.355 Y99.585 E49.67506
G1 X113.645 Y99.585 E50.04091
G1 X110.981 Y100.151 E50.40858
G1 X108.510 Y101.252 E50.77378
G1 X106.312 Y102.849 E51.14057
G0 F9000 X106.009 Y102.513
G1 F1800 X104.128 Y104.601 E51.51996
G1 X102.725 Y107.032 E51.89888
G1 X101.855 Y109.710 E52.27901
G1 X101.561 Y112.500 E52.65774
G1 X101.855 Y115.291 E53.03661
G1 X102.717 Y117.946 E53.41345
G1 X104.118 Y120.380 E53.79259
G1 X105.999 Y122.474 E54.17259
G1 X108.284 Y124.139 E54.55427
G1 X110.845 Y125.280 E54.93276
G1 X113.575 Y125.860 E55.30954
G1 X116.407 Y125.864 E55.69186
G1 X119.132 Y125.285 E56.06795
G1 X121.723 Y124.136 E56.45058
G1 X123.991 Y122.487 E56.82914
G1 X125.857 Y120.416 E57.20547
G1 X127.266 Y117.982 E57.58515
G1 X128.146 Y115.286 E57.96800
G1 X128.439 Y112.500 E58.34619
G1 X128.145 Y109.710 E58.72492
G1 X127.275 Y107.032 E59.10505
G1 X125.872 Y104.601 E59.48397
G1 X123.991 Y102.513 E59.86336
G1 X121.723 Y100.865 E60.24184
G1 X119.155 Y99.720 E60.62142
G1 X116.402 Y99.135 E61.00137
G1 X113.598 Y99.135 E61.37991
G1 X110.841 Y99.721 E61.76042
G1 X108.282 Y100.861 E62.13862
G1 X106.009 Y102.513 E62.51796
G0 F9000 X105.704 Y102.179
G1 F1800 X103.762 Y104.335 E62.90968
G1 X102.311 Y106.848 E63.30143
G1 X101.413 Y109.612 E63.69377
G1 X101.109 Y112.500 E64.08580
G1 X101.413 Y115.388 E64.47784
G1 X102.304 Y118.130 E64.86706
G1 X103.751 Y120.646 E65.25889
G1 X105.695 Y122.810 E65.65159
G1 X108.056 Y124.530 E66.04594
G1 X110.710 Y125.712 E66.43816
G1 X113.523 Y126.310 E66.82640
G1 X116.458 Y126.314 E67.22262
G1 X119.267 Y125.718 E67.61028
G1 X121.949 Y124.527 E68.00645
G1 X124.296 Y122.821 E68.39815
G1 X126.223 Y120.682 E68.78682
G1 X127.679 Y118.167 E69.17913
G1 X128.587 Y115.385 E69.57420
G1 X128.891 Y112.500 E69.96583
G1 X128.587 Y109.612 E70.35787
G1 X127.689 Y106.848 E70.75021
G1 X126.238 Y104.335 E71.14195
G1 X124.296 Y102.179 E71.53368
G1 X121.946 Y100.471 E71.92587
G1 X119.292 Y99.288 E72.31814
G1 X116.453 Y98.685 E72.70996
G1 X113.547 Y98.685 E73.10227
G1 X110.705 Y99.289 E73.49451
G1 X108.057 Y100.469 E73.88587
G1 X105.704 Y102.179 E74.27855
G0 F9000 X105.403 Y101.841
G1 F1800 X103.397 Y104.068 E74.68318
G1 X101.897 Y106.667 E75.08829
G1 X100.970 Y109.520 E75.49327
G1 X100.656 Y112.500 E75.89779
G1 X100.970 Y115.480 E76.30232
G1 X101.890 Y118.313 E76.70444
G1 X103.385 Y120.911 E77.10909
G1 X105.391 Y123.145 E77.51442
G1 X107.831 Y124.923 E77.92200
G1 X110.569 Y126.142 E78.32661
G1 X113.477 Y126.760 E78.72796
G1 X116.504 Y126.764 E79.13660
G1 X119.406 Y126.148 E79.53710
G1 X122.175 Y124.920 E79.94603
G1 X124.597 Y123.159 E80.35029
G1 X126.589 Y120.947 E80.75215
G1 X128.093 Y118.350 E81.15729
G1 X129.031 Y115.475 E81.56555
G1 X129.344 Y112.500 E81.96939
G1 X129.030 Y109.520 E82.37392
G1 X128.103 Y106.667 E82.77890
G1 X126.603 Y104.068 E83.18401
G1 X124.597 Y101.841 E83.58864
G1 X122.175 Y100.080 E83.99290
G1 X119.432 Y98.858 E84.39829
G1 X116.500 Y98.235 E84.80294
G1 X113.500 Y98.235 E85.20794
G1 X110.565 Y98.859 E85.61303
G1 X107.829 Y100.078 E86.01739
G1 X105.403 Y101.841 E86.42224
G0 F9000 X105.103 Y101.502
G1 F1800 X103.029 Y103.805 E86.84064
G1 X101.484 Y106.481 E87.25779
G1 X100.528 Y109.423 E87.67540
G1 X100.204 Y112.500 E88.09309
G1 X100.528 Y115.576 E88.51065
G1 X101.477 Y118.498 E88.92540
G1 X103.019 Y121.177 E89.34270
G1 X105.087 Y123.480 E89.76056
G1 X107.607 Y125.316 E90.18147
G1 X110.425 Y126.572 E90.59798
G1 X113.430 Y127.210 E91.01270
G1 X116.551 Y127.214 E91.43403
G1 X119.549 Y126.577 E91.84780
G1 X122.402 Y125.312 E92.26911
G1 X124.900 Y123.496 E92.68604
G1 X126.952 Y121.217 E93.10004
G1 X128.505 Y118.535 E93.51843
G1 X129.472 Y115.573 E93.93907
G1 X129.796 Y112.500 E94.35623
G1 X129.472 Y109.423 E94.77392
G1 X128.516 Y106.481 E95.19153
G1 X126.971 Y103.805 E95.60868
G1 X124.897 Y101.502 E96.02708
G1 X122.402 Y99.689 E96.44344
G1 X119.572 Y98.428 E96.86170
G1 X116.546 Y97.785 E97.27933
G1 X113.454 Y97.785 E97.69675
G1 X110.425 Y98.429 E98.11480
G1 X107.601 Y99.686 E98.53210
G1 X105.103 Y101.502 E98.94903
G0 F9000 X104.797 Y101.168
G1 F1800 X102.663 Y103.538 E99.37957
G1 X101.071 Y106.296 E99.80948
G1 X100.085 Y109.331 E100.24028
G1 X99.751 Y112.500 E100.67047
G1 X100.085 Y115.668 E101.10052
G1 X101.063 Y118.680 E101.52804
G1 X102.654 Y121.445 E101.95869
G1 X104.784 Y123.816 E102.38897
G1 X107.379 Y125.707 E102.82244
G1 X110.285 Y127.002 E103.25194
G1 X113.383 Y127.660 E103.67950
G1 X116.596 Y127.664 E104.11326
G1 X119.689 Y127.007 E104.54013
G1 X122.628 Y125.703 E104.97420
G1 X125.203 Y123.832 E105.40390
G1 X127.321 Y121.479 E105.83128
G1 X128.917 Y118.722 E106.26135
G1 X129.916 Y115.663 E106.69577
G1 X130.249 Y112.498 E107.12541
G1 X129.915 Y109.331 E107.55532
G1 X128.929 Y106.296 E107.98613
G1 X127.337 Y103.538 E108.41604
G1 X125.203 Y101.168 E108.84657
G1 X122.625 Y99.295 E109.27676
G1 X119.713 Y97.998 E109.70711
G1 X116.593 Y97.335 E110.13772
G1 X113.407 Y97.335 E110.56783
G1 X110.285 Y97.998 E110.99870
G1 X107.376 Y99.294 E111.42862
G1 X104.797 Y101.168 E111.85900
G0 F9000 X104.497 Y100.830
G1 F1800 X102.298 Y103.272 E112.30263
G1 X100.657 Y106.115 E112.74578
G1 X99.642 Y109.239 E113.18922
G1 X99.298 Y112.500 E113.63190
G1 X99.641 Y115.760 E114.07443
G1 X100.650 Y118.865 E114.51518
G1 X102.286 Y121.708 E114.95800
G1 X104.480 Y124.151 E115.40128
G1 X107.154 Y126.100 E115.84798
G1 X110.145 Y127.432 E116.29000
G1 X113.336 Y128.110 E116.73040
G1 X116.643 Y128.114 E117.17685
G1 X119.827 Y127.438 E117.61627
G1 X122.854 Y126.095 E118.06333
G1 X125.503 Y124.170 E118.50539
G1 X127.686 Y121.746 E118.94578
G1 X129.332 Y118.903 E119.38927
G1 X130.359 Y115.758 E119.83591
G1 X130.702 Y112.498 E120.27844
G1 X130.358 Y109.239 E120.72085
G1 X129.343 Y106.115 E121.16429
G1 X127.702 Y103.272 E121.60744
G1 X125.503 Y100.830 E122.05107
G1 X122.853 Y98.904 E122.49333
G1 X119.852 Y97.568 E122.93680
G1 X116.640 Y96.885 E123.38011
G1 X113.360 Y96.885 E123.82291
G1 X110.145 Y97.568 E124.26662
G1 X107.148 Y98.903 E124.70954
G1 X104.497 Y100.830 E125.15199
G0 F9000 X104.191 Y100.496
G1 F1800 X101.932 Y103.005 E125.60776
G1 X100.244 Y105.930 E126.06368
G1 X99.200 Y109.143 E126.51975
G1 X98.846 Y112.500 E126.97546
G1 X99.200 Y115.857 E127.43117
G1 X100.236 Y119.048 E127.88409
G1 X101.919 Y121.973 E128.33966
G1 X104.179 Y124.488 E128.79613
G1 X106.926 Y126.491 E129.25509
G1 X110.005 Y127.862 E129.71010
G1 X113.290 Y128.560 E130.16348
G1 X116.688 Y128.564 E130.62221
G1 X119.971 Y127.867 E131.07529
G1 X123.080 Y126.487 E131.53450
G1 X125.808 Y124.504 E131.98979
G1 X128.054 Y122.011 E132.44279
G1 X129.744 Y119.091 E132.89825
G1 X130.801 Y115.852 E133.35821
G1 X131.154 Y112.499 E133.81337
G1 X130.800 Y109.143 E134.26894
G1 X129.756 Y105.930 E134.72502
G1 X128.068 Y103.005 E135.18093
G1 X125.809 Y100.496 E135.63671
G1 X123.079 Y98.512 E136.09230
G1 X119.990 Y97.136 E136.54882
G1 X116.690 Y96.435 E137.00426
G1 X113.310 Y96.435 E137.46056
G1 X110.007 Y97.137 E137.91643
G1 X106.924 Y98.510 E138.37204
G1 X104.191 Y100.496 E138.82812
G0 F9000 X103.891 Y100.158
G1 F1800 X101.564 Y102.742 E139.29756
G1 X99.831 Y105.745 E139.76563
G1 X98.757 Y109.051 E140.23490
G1 X98.393 Y112.500 E140.70310
G1 X98.756 Y115.948 E141.17116
G1 X99.823 Y119.233 E141.63744
G1 X101.553 Y122.239 E142.10566
G1 X103.875 Y124.824 E142.57475
G1 X106.698 Y126.882 E143.04637
G1 X109.869 Y128.294 E143.51498
G1 X113.238 Y129.010 E143.97995
G1 X116.740 Y129.015 E144.45272
G1 X120.104 Y128.300 E144.91701
G1 X123.306 Y126.879 E145.38993
G1 X126.109 Y124.842 E145.85771
G1 X128.418 Y122.278 E146.32352
G1 X130.159 Y119.271 E146.79259
G1 X131.244 Y115.946 E147.26476
G1 X131.607 Y112.500 E147.73255
G1 X131.243 Y109.051 E148.20075
G1 X130.169 Y105.745 E148.67002
G1 X128.436 Y102.742 E149.13809
G1 X126.109 Y100.158 E149.60753
G1 X123.307 Y98.122 E150.07511
G1 X120.130 Y96.706 E150.54468
G1 X116.737 Y95.985 E151.01296
G1 X113.263 Y95.985 E151.48195
G1 X109.867 Y96.706 E151.95063
G1 X106.697 Y98.119 E152.41917
G1 X103.891 Y100.158 E152.88743
G0 F9000 X103.586 Y99.824
G1 F1800 X101.198 Y102.475 E153.36911
G1 X99.418 Y105.560 E153.84993
G1 X98.315 Y108.955 E154.33184
G1 X97.941 Y112.500 E154.81307
G1 X98.315 Y116.045 E155.29430
G1 X99.409 Y119.415 E155.77263
G1 X101.188 Y122.507 E156.25420
G1 X103.568 Y125.157 E156.73506
G1 X106.474 Y127.274 E157.22043
G1 X109.729 Y128.724 E157.70148
G1 X113.192 Y129.459 E158.17940
G1 X116.785 Y129.465 E158.66446
G1 X120.245 Y128.730 E159.14198
G1 X123.529 Y127.273 E159.62699
G1 X126.414 Y125.176 E160.10849
G1 X128.784 Y122.544 E160.58663
G1 X130.569 Y119.461 E161.06756
G1 X131.686 Y116.041 E161.55326
G1 X132.059 Y112.500 E162.03394
G1 X131.685 Y108.955 E162.51517
G1 X130.582 Y105.560 E162.99708
G1 X128.802 Y102.475 E163.47791
G1 X126.414 Y99.824 E163.95958
G1 X123.530 Y97.728 E164.44088
G1 X120.271 Y96.276 E164.92254
G1 X116.783 Y95.535 E165.40393
G1 X113.217 Y95.535 E165.88534
G1 X109.727 Y96.277 E166.36702
G1 X106.472 Y97.727 E166.84807
G1 X103.586 Y99.824 E167.32967
G0 F9000 X103.283 Y99.488
G1 F1800 X100.835 Y102.206 E167.82349
G1 X99.004 Y105.379 E168.31805
G1 X97.871 Y108.862 E168.81251
G1 X97.488 Y112.500 E169.30635
G1 X97.871 Y116.137 E169.80006
G1 X98.995 Y119.598 E170.29132
G1 X100.822 Y122.772 E170.78572
G1 X103.267 Y125.494 E171.27967
G1 X106.246 Y127.665 E171.77730
G1 X109.589 Y129.154 E172.27135
G1 X113.145 Y129.909 E172.76211
G1 X116.832 Y129.915 E173.25986
G1 X120.386 Y129.160 E173.75035
G1 X123.758 Y127.663 E174.24842
G1 X126.717 Y125.512 E174.74227
G1 X129.149 Y122.812 E175.23284
G1 X130.983 Y119.643 E175.72713
G1 X132.129 Y116.135 E176.22534
G1 X132.511 Y112.496 E176.71931
G1 X132.129 Y108.862 E177.21260
G1 X130.996 Y105.379 E177.70706
G1 X129.165 Y102.206 E178.20162
G1 X126.717 Y99.488 E178.69543
G1 X123.759 Y97.337 E179.18918
G1 X120.410 Y95.846 E179.68408
G1 X116.830 Y95.085 E180.17818
G1 X113.170 Y95.085 E180.67228
G1 X109.587 Y95.846 E181.16677
G1 X106.244 Y97.336 E181.66088
G1 X103.283 Y99.488 E182.15503
G0 F9000 X102.980 Y99.152
G1 F1800 X100.467 Y101.942 E182.66194
G1 X98.591 Y105.193 E183.16866
G1 X97.430 Y108.766 E183.67584
G1 X97.036 Y112.500 E184.18273
G1 X97.429 Y116.234 E184.68960
G1 X98.582 Y119.783 E185.19337
G1 X100.454 Y123.035 E185.69993
G1 X102.966 Y125.832 E186.20745
G1 X106.018 Y128.056 E186.71726
G1 X109.449 Y129.584 E187.22430
G1 X113.098 Y130.359 E187.72791
G1 X116.877 Y130.365 E188.23807
G1 X120.527 Y129.590 E188.74181
G1 X123.981 Y128.057 E189.25196
G1 X127.020 Y125.848 E189.75916
G1 X129.517 Y123.076 E190.26282
G1 X131.397 Y119.828 E190.76945
G1 X132.570 Y116.234 E191.27983
G1 X132.964 Y112.500 E191.78672
G1 X132.570 Y108.766 E192.29361
G1 X131.409 Y105.193 E192.80079
G1 X129.533 Y101.942 E193.30751
G1 X127.020 Y99.152 E193.81442
G1 X123.985 Y96.946 E194.32094
G1 X120.551 Y95.416 E194.82846
G1 X116.876 Y94.635 E195.33567
G1 X113.124 Y94.635 E195.84219
G1 X109.446 Y95.416 E196.34979
G1 X106.019 Y96.943 E196.85628
G1 X102.980 Y99.152 E197.36348
G0 F9000 X102.677 Y98.815
G1 F1800 X100.101 Y101.676 E197.88320
G1 X98.178 Y105.008 E198.40256
G1 X96.986 Y108.674 E198.92298
G1 X96.583 Y112.500 E199.44234
G1 X96.986 Y116.326 E199.96171
G1 X98.168 Y119.965 E200.47824
G1 X100.089 Y123.303 E200.99817
G1 X102.660 Y126.165 E201.51754
G1 X105.793 Y128.449 E202.04096
G1 X109.309 Y130.014 E202.56051
