;FLAVOR:UltiGCode
;TIME:2548
;MATERIAL:2757
;MATERIAL2:0
;NOZZLE_DIAMETER:0.400000
;NOZZLE_DIAMETER2:0.400000

;Layer count: 79
;LAYER:0
M107
G0 F9000 X105.204 Y107.533 Z0.300
G0 X106.115 Y107.019
;TYPE:SKIRT
G1 F1200 X105.848 Y107.086 E0.03303
G1 X105.598 Y107.336 E0.07546
G1 X105.204 Y107.533 E0.12832
G1 X103.492 Y109.243 E0.41869
G1 X103.745 Y112.462 E0.80616
G1 X103.850 Y113.126 E0.88683
G1 X103.987 Y113.695 E0.95706
G1 X104.174 Y114.271 E1.02973
G1 X104.413 Y114.849 E1.10479
G1 X104.692 Y115.396 E1.17847
G1 X105.002 Y115.902 E1.24968
G1 X105.373 Y116.412 E1.32536
G1 X105.744 Y116.847 E1.39397
G1 X109.419 Y118.072 E1.85882
G1 X111.244 Y118.254 E2.07891
G1 X114.967 Y116.389 E2.57859
G1 X114.967 Y116.095 E2.61387
G1 X116.967 Y115.095 E2.88220
G1 X116.967 Y115.028 E2.89024
G1 X117.167 Y114.828 E2.92418
G1 X117.167 Y114.628 E2.94818
G1 X117.367 Y114.428 E2.98212
G1 X117.367 Y112.495 E3.21408
G1 X117.567 Y112.395 E3.24091
G1 X117.567 Y111.695 E3.32491
G1 X118.167 Y111.395 E3.40541
G1 X118.167 Y110.870 E3.46841
G1 X117.967 Y110.670 E3.50235
G1 X117.967 Y110.070 E3.57435
G1 X117.767 Y109.870 E3.60829
G1 X117.767 Y109.470 E3.65629
G1 X117.567 Y109.270 E3.69023
G1 X117.567 Y109.070 E3.71423
G1 X117.367 Y108.870 E3.74818
G1 X117.367 Y108.670 E3.77218
G1 X117.167 Y108.470 E3.80612
G1 X117.167 Y108.267 E3.83048
G1 X116.567 Y107.666 E3.93239
G1 X116.567 Y106.863 E4.02875
G1 X116.167 Y106.462 E4.09671
G1 X116.167 Y106.069 E4.14387
G1 X116.035 Y105.937 E4.16627
G1 X114.838 Y105.339 E4.32684
G1 X114.777 Y105.278 E4.33719
G1 X111.906 Y104.323 E4.70027
G1 X111.066 Y104.285 E4.80118
G1 X110.147 Y104.515 E4.91486
G1 X109.549 Y104.715 E4.99052
G1 X109.329 Y104.770 E5.01774
G1 X109.215 Y104.827 E5.03303
G1 X109.047 Y104.883 E5.05428
G1 X108.991 Y104.939 E5.06379
G1 X107.401 Y105.734 E5.27711
G1 X106.115 Y107.019 E5.49526
G0 F9000 X105.910 Y106.658
G1 F1200 X105.646 Y106.725 E5.52795
G1 X105.362 Y107.008 E5.57606
G1 X104.964 Y107.207 E5.62946
G1 X103.079 Y109.090 E5.94918
G1 X103.347 Y112.508 E6.36060
G1 X103.458 Y113.207 E6.44553
G1 X103.600 Y113.799 E6.51859
G1 X103.801 Y114.417 E6.59657
G1 X104.048 Y115.012 E6.67388
G1 X104.343 Y115.592 E6.75196
G1 X104.672 Y116.128 E6.82743
G1 X105.059 Y116.661 E6.90648
G1 X105.471 Y117.143 E6.98257
G1 X105.523 Y117.195 E6.99139
G1 X109.336 Y118.466 E7.47370
G1 X111.319 Y118.664 E7.71284
G1 X115.367 Y116.635 E8.25621
G1 X115.367 Y116.343 E8.29125
G1 X117.367 Y115.343 E8.55958
G1 X117.367 Y115.194 E8.57746
G1 X117.567 Y114.994 E8.61140
G1 X117.567 Y114.794 E8.63540
G1 X117.767 Y114.594 E8.66934
G1 X117.767 Y112.743 E8.89146
G1 X117.967 Y112.643 E8.91829
G1 X117.967 Y111.943 E9.00229
G1 X118.567 Y111.643 E9.08279
G1 X118.567 Y110.704 E9.19547
G1 X118.367 Y110.504 E9.22941
G1 X118.367 Y109.904 E9.30141
G1 X118.167 Y109.704 E9.33535
G1 X118.167 Y109.304 E9.38335
G1 X117.967 Y109.104 E9.41729
G1 X117.967 Y108.904 E9.44129
G1 X117.767 Y108.704 E9.47524
G1 X117.767 Y108.504 E9.49924
G1 X117.567 Y108.304 E9.53318
G1 X117.567 Y108.102 E9.55742
G1 X116.967 Y107.501 E9.65932
G1 X116.967 Y106.698 E9.75568
G1 X116.567 Y106.297 E9.82365
G1 X116.567 Y105.904 E9.87081
G1 X116.270 Y105.607 E9.92121
G1 X115.075 Y105.010 E10.08151
G1 X114.995 Y104.930 E10.09509
G1 X111.977 Y103.926 E10.47676
G1 X111.027 Y103.883 E10.59088
G1 X110.036 Y104.130 E10.71344
G1 X109.436 Y104.331 E10.78937
G1 X109.189 Y104.393 E10.81993
G1 X109.062 Y104.456 E10.83694
G1 X108.833 Y104.532 E10.86590
G1 X108.755 Y104.610 E10.87913
G1 X107.165 Y105.405 E11.09246
G1 X105.910 Y106.658 E11.30527
G0 F9000 X105.706 Y106.297
G1 F1200 X105.440 Y106.364 E11.33818
G1 X105.125 Y106.679 E11.39164
G1 X104.729 Y106.877 E11.44477
G1 X102.666 Y108.938 E11.79470
G1 X102.949 Y112.552 E12.22971
G1 X103.066 Y113.288 E12.31914
G1 X103.214 Y113.902 E12.39493
G1 X103.430 Y114.567 E12.47883
G1 X103.679 Y115.169 E12.55701
G1 X103.997 Y115.792 E12.64095
G1 X104.337 Y116.347 E12.71905
G1 X104.749 Y116.914 E12.80315
G1 X105.177 Y117.415 E12.88223
G1 X105.306 Y117.544 E12.90412
G1 X109.253 Y118.859 E13.40335
G1 X111.394 Y119.074 E13.66157
G1 X115.767 Y116.883 E14.24851
G1 X115.767 Y116.590 E14.28367
G1 X117.767 Y115.590 E14.55199
G1 X117.767 Y115.360 E14.57959
G1 X117.967 Y115.160 E14.61354
G1 X117.967 Y114.960 E14.63754
G1 X118.167 Y114.760 E14.67148
G1 X118.167 Y112.990 E14.88388
G1 X118.367 Y112.890 E14.91071
G1 X118.367 Y112.190 E14.99471
G1 X118.967 Y111.890 E15.07521
G1 X118.967 Y110.538 E15.23745
G1 X118.767 Y110.338 E15.27139
G1 X118.767 Y109.738 E15.34339
G1 X118.567 Y109.538 E15.37733
G1 X118.567 Y109.138 E15.42533
G1 X118.367 Y108.938 E15.45927
G1 X118.367 Y108.738 E15.48327
G1 X118.167 Y108.538 E15.51721
G1 X118.167 Y108.338 E15.54121
G1 X117.967 Y108.138 E15.57515
G1 X117.967 Y107.936 E15.59939
G1 X117.367 Y107.335 E15.70130
G1 X117.367 Y106.532 E15.79766
G1 X116.967 Y106.131 E15.86563
G1 X116.967 Y105.738 E15.91279
G1 X116.507 Y105.278 E15.99085
G1 X115.311 Y104.681 E16.15126
G1 X115.209 Y104.579 E16.16857
G1 X112.054 Y103.529 E16.56759
G1 X110.985 Y103.481 E16.69600
G1 X109.927 Y103.746 E16.82688
G1 X109.324 Y103.947 E16.90315
G1 X109.051 Y104.015 E16.93691
G1 X108.909 Y104.086 E16.95596
G1 X108.617 Y104.183 E16.99289
G1 X108.519 Y104.281 E17.00952
G1 X106.928 Y105.076 E17.22295
G1 X105.706 Y106.297 E17.43024
G0 F9000 X105.501 Y105.937
G1 F1200 X105.234 Y106.004 E17.46328
G1 X104.888 Y106.350 E17.52199
G1 X104.492 Y106.548 E17.57512
G1 X102.253 Y108.785 E17.95492
G1 X102.552 Y112.600 E18.41413
G1 X102.673 Y113.364 E18.50695
G1 X102.830 Y114.017 E18.58754
G1 X103.050 Y114.692 E18.67274
G1 X103.322 Y115.350 E18.75818
G1 X103.644 Y115.981 E18.84319
G1 X104.008 Y116.576 E18.92689
G1 X104.430 Y117.156 E19.01296
G1 X104.884 Y117.688 E19.09689
G1 X105.090 Y117.894 E19.13185
G1 X109.167 Y119.253 E19.64755
G1 X111.469 Y119.483 E19.92517
G1 X116.167 Y117.129 E20.55574
G1 X116.167 Y116.837 E20.59078
G1 X118.167 Y115.837 E20.85911
G1 X118.167 Y115.525 E20.89655
G1 X118.367 Y115.325 E20.93049
G1 X118.367 Y115.125 E20.95449
G1 X118.567 Y114.925 E20.98843
G1 X118.567 Y113.237 E21.19099
G1 X118.767 Y113.137 E21.21782
G1 X118.767 Y112.437 E21.30182
G1 X119.367 Y112.137 E21.38232
G1 X119.367 Y110.373 E21.59400
G1 X119.167 Y110.173 E21.62794
G1 X119.167 Y109.573 E21.69994
G1 X118.967 Y109.373 E21.73388
G1 X118.967 Y108.973 E21.78188
G1 X118.767 Y108.773 E21.81582
G1 X118.767 Y108.573 E21.83982
G1 X118.567 Y108.373 E21.87376
G1 X118.567 Y108.173 E21.89776
G1 X118.367 Y107.973 E21.93170
G1 X118.367 Y107.771 E21.95594
G1 X117.767 Y107.170 E22.05785
G1 X117.767 Y106.367 E22.15421
G1 X117.367 Y105.966 E22.22218
G1 X117.367 Y105.572 E22.26946
G1 X116.745 Y104.950 E22.37502
G1 X115.548 Y104.352 E22.53558
G1 X115.426 Y104.230 E22.55629
G1 X112.125 Y103.132 E22.97375
G1 X110.947 Y103.079 E23.11525
G1 X109.809 Y103.363 E23.25600
G1 X109.212 Y103.563 E23.33155
G1 X108.907 Y103.639 E23.36927
G1 X108.755 Y103.715 E23.38966
G1 X108.402 Y103.833 E23.43433
G1 X108.282 Y103.952 E23.45461
G1 X106.691 Y104.748 E23.66809
G1 X105.501 Y105.937 E23.86995
G0 F9000 X105.296 Y105.576
G1 F1200 X105.030 Y105.643 E23.90287
G1 X104.651 Y106.021 E23.96711
G1 X104.255 Y106.219 E24.02023
G1 X101.840 Y108.631 E24.42982
G1 X102.155 Y112.651 E24.91370
G1 X102.281 Y113.445 E25.01017
G1 X102.444 Y114.123 E25.09385
G1 X102.677 Y114.838 E25.18409
G1 X102.955 Y115.510 E25.27136
G1 X103.296 Y116.179 E25.36146
G1 X103.673 Y116.794 E25.44803
G1 X104.119 Y117.408 E25.53909
G1 X104.592 Y117.962 E25.62651
G1 X104.874 Y118.244 E25.67436
G1 X109.084 Y119.647 E26.20688
G1 X111.544 Y119.893 E26.50355
G1 X116.567 Y117.376 E27.17775
G1 X116.567 Y117.084 E27.21279
G1 X118.567 Y116.084 E27.48112
G1 X118.567 Y115.691 E27.52828
G1 X118.767 Y115.491 E27.56222
G1 X118.767 Y115.291 E27.58622
G1 X118.967 Y115.091 E27.62016
G1 X118.967 Y113.484 E27.81300
G1 X119.167 Y113.384 E27.83984
G1 X119.167 Y112.684 E27.92384
G1 X119.767 Y112.384 E28.00434
G1 X119.767 Y112.291 E28.01550
G1 X119.952 Y112.106 E28.04689
G1 X119.767 Y112.014 E28.07168
G1 X119.767 Y110.207 E28.28852
G1 X119.567 Y110.007 E28.32247
G1 X119.567 Y109.407 E28.39447
G1 X119.367 Y109.207 E28.42841
G1 X119.367 Y108.807 E28.47641
G1 X119.167 Y108.607 E28.51035
G1 X119.167 Y108.407 E28.53435
G1 X118.967 Y108.207 E28.56829
G1 X118.967 Y108.007 E28.59229
G1 X118.767 Y107.807 E28.62623
G1 X118.767 Y107.605 E28.65047
G1 X118.167 Y107.004 E28.75238
G1 X118.167 Y106.202 E28.84862
G1 X117.767 Y105.801 E28.91659
G1 X117.767 Y105.406 E28.96399
G1 X116.982 Y104.621 E29.09720
G1 X115.785 Y104.023 E29.25777
G1 X115.641 Y103.880 E29.28212
G1 X112.202 Y102.735 E29.71708
G1 X110.904 Y102.677 E29.87299
G1 X109.699 Y102.978 E30.02204
G1 X109.100 Y103.178 E30.09782
G1 X108.772 Y103.260 E30.13839
G1 X108.602 Y103.345 E30.16120
G1 X108.186 Y103.484 E30.21383
G1 X108.046 Y103.623 E30.23750
G1 X106.455 Y104.418 E30.45093
G1 X105.296 Y105.576 E30.64754
G0 F9000 X105.092 Y105.215
G1 F1200 X104.826 Y105.282 E30.68045
G1 X104.414 Y105.693 E30.75029
G1 X104.018 Y105.891 E30.80341
G1 X101.426 Y108.479 E31.24295
G1 X101.757 Y112.697 E31.75067
G1 X101.887 Y113.513 E31.84982
G1 X102.063 Y114.246 E31.94028
G1 X102.296 Y114.963 E32.03075
G1 X102.594 Y115.682 E32.12415
G1 X102.948 Y116.376 E32.21764
G1 X103.340 Y117.018 E32.30790
G1 X103.804 Y117.656 E32.40257
G1 X104.300 Y118.236 E32.49415
G1 X104.657 Y118.593 E32.55473
G1 X109.000 Y120.040 E33.10406
G1 X111.622 Y120.302 E33.42027
G1 X116.967 Y117.623 E34.13772
G1 X116.967 Y117.331 E34.17276
G1 X118.819 Y116.405 E34.42124
G1 X118.967 Y116.257 E34.44635
G1 X118.967 Y115.857 E34.49435
G1 X119.167 Y115.657 E34.52829
G1 X119.167 Y115.457 E34.55229
G1 X119.367 Y115.257 E34.58623
G1 X119.367 Y113.731 E34.76935
G1 X119.567 Y113.631 E34.79619
G1 X119.567 Y112.931 E34.88019
G1 X120.167 Y112.631 E34.96069
G1 X120.167 Y112.457 E34.98157
G1 X120.367 Y112.257 E35.01551
G1 X120.367 Y111.867 E35.06231
G1 X120.167 Y111.767 E35.08914
G1 X120.167 Y110.041 E35.29626
G1 X119.967 Y109.841 E35.33020
G1 X119.967 Y109.241 E35.40220
G1 X119.767 Y109.041 E35.43614
G1 X119.767 Y108.641 E35.48414
G1 X119.567 Y108.441 E35.51808
G1 X119.567 Y108.241 E35.54208
G1 X119.367 Y108.041 E35.57602
G1 X119.367 Y107.841 E35.60002
G1 X119.167 Y107.641 E35.63396
G1 X119.167 Y107.440 E35.65808
G1 X118.567 Y106.839 E35.75999
G1 X118.567 Y106.036 E35.85635
G1 X118.167 Y105.635 E35.92432
G1 X118.167 Y105.240 E35.97172
G1 X117.220 Y104.293 E36.13243
G1 X116.021 Y103.694 E36.29327
G1 X115.856 Y103.530 E36.32118
G1 X112.273 Y102.338 E36.77431
G1 X110.866 Y102.274 E36.94333
G1 X109.590 Y102.593 E37.10116
G1 X108.987 Y102.794 E37.17743
G1 X108.632 Y102.883 E37.22135
G1 X108.449 Y102.974 E37.24588
G1 X107.970 Y103.133 E37.30644
G1 X107.809 Y103.294 E37.33376
G1 X106.218 Y104.089 E37.54719
G1 X105.092 Y105.215 E37.73828
G0 F9000 X104.887 Y104.854
G1 F1200 X104.621 Y104.921 E37.77120
G1 X104.177 Y105.364 E37.84646
G1 X103.781 Y105.562 E37.89959
G1 X101.013 Y108.326 E38.36900
G1 X101.359 Y112.740 E38.90030
G1 X101.495 Y113.594 E39.00407
G1 X101.675 Y114.346 E39.09686
G1 X101.924 Y115.111 E39.19340
G1 X102.229 Y115.848 E39.28912
G1 X102.598 Y116.571 E39.38652
G1 X103.004 Y117.234 E39.47982
G1 X103.493 Y117.907 E39.57964
G1 X104.008 Y118.510 E39.67480
G1 X104.441 Y118.943 E39.74828
G1 X108.913 Y120.433 E40.31393
G1 X111.696 Y120.712 E40.64956
G1 X117.367 Y117.870 E41.41076
G1 X117.367 Y117.579 E41.44568
G1 X119.167 Y116.679 E41.68717
G1 X119.167 Y116.622 E41.69401
G1 X119.367 Y116.422 E41.72795
G1 X119.367 Y116.022 E41.77595
G1 X119.567 Y115.822 E41.80989
G1 X119.567 Y115.622 E41.83389
G1 X119.767 Y115.422 E41.86783
G1 X119.767 Y113.979 E42.04099
G1 X119.967 Y113.879 E42.06783
G1 X119.967 Y113.179 E42.15183
G1 X120.567 Y112.879 E42.23233
G1 X120.567 Y112.622 E42.26317
G1 X120.767 Y112.422 E42.29711
G1 X120.767 Y111.619 E42.39347
G1 X120.567 Y111.519 E42.42030
G1 X120.567 Y109.876 E42.61746
G1 X120.367 Y109.676 E42.65140
G1 X120.367 Y109.076 E42.72340
G1 X120.167 Y108.876 E42.75734
G1 X120.167 Y108.476 E42.80534
G1 X119.967 Y108.276 E42.83928
G1 X119.967 Y108.076 E42.86328
G1 X119.767 Y107.876 E42.89722
G1 X119.767 Y107.676 E42.92122
G1 X119.567 Y107.476 E42.95517
G1 X119.567 Y107.274 E42.97941
G1 X118.967 Y106.673 E43.08131
G1 X118.967 Y105.871 E43.17755
G1 X118.567 Y105.470 E43.24552
G1 X118.567 Y105.075 E43.29292
G1 X117.456 Y103.964 E43.48146
G1 X116.258 Y103.365 E43.64219
G1 X116.073 Y103.181 E43.67350
G1 X112.367 Y101.948 E44.14219
G1 X112.367 Y101.942 E44.14291
G1 X110.824 Y101.873 E44.32826
G1 X109.472 Y102.210 E44.49546
G1 X108.875 Y102.410 E44.57101
G1 X108.489 Y102.507 E44.61877
G1 X108.296 Y102.603 E44.64464
G1 X107.755 Y102.784 E44.71310
G1 X107.573 Y102.965 E44.74390
G1 X105.980 Y103.761 E44.95760
G1 X104.887 Y104.854 E45.14308
G0 F9000 X104.682 Y104.493
G1 F1200 X104.416 Y104.560 E45.17600
G1 X103.940 Y105.035 E45.25670
G1 X103.545 Y105.233 E45.30972
G1 X100.739 Y108.035 E45.78557
G1 X100.583 Y107.958 E45.80645
G1 X100.962 Y112.787 E46.38771
G1 X101.102 Y113.669 E46.49487
G1 X101.289 Y114.452 E46.59148
G1 X101.548 Y115.247 E46.69181
G1 X101.868 Y116.020 E46.79221
G1 X102.249 Y116.767 E46.89283
G1 X102.677 Y117.466 E46.99119
G1 X103.168 Y118.142 E47.09145
G1 X103.710 Y118.776 E47.19154
G1 X104.226 Y119.292 E47.27911
G1 X108.831 Y120.827 E47.86160
G1 X111.772 Y121.121 E48.21628
G1 X117.767 Y118.117 E49.02094
G1 X117.767 Y117.826 E49.05586
G1 X119.567 Y116.926 E49.29736
G1 X119.567 Y116.788 E49.31392
G1 X119.767 Y116.588 E49.34786
G1 X119.767 Y116.188 E49.39586
G1 X119.967 Y115.988 E49.42980
G1 X119.967 Y115.788 E49.45380
G1 X120.167 Y115.588 E49.48774
G1 X120.167 Y114.226 E49.65118
G1 X120.367 Y114.126 E49.67801
G1 X120.367 Y113.426 E49.76201
G1 X120.967 Y113.126 E49.84251
G1 X120.967 Y112.788 E49.88307
G1 X121.167 Y112.588 E49.91701
G1 X121.167 Y111.372 E50.06293
G1 X120.967 Y111.272 E50.08976
G1 X120.967 Y109.710 E50.27720
G1 X120.767 Y109.510 E50.31115
G1 X120.767 Y108.910 E50.38315
G1 X120.567 Y108.710 E50.41709
G1 X120.567 Y108.310 E50.46509
G1 X120.367 Y108.110 E50.49903
G1 X120.367 Y107.910 E50.52303
G1 X120.167 Y107.710 E50.55697
G1 X120.167 Y107.510 E50.58097
G1 X119.967 Y107.310 E50.61491
G1 X119.967 Y107.109 E50.63903
G1 X119.367 Y106.508 E50.74094
G1 X119.367 Y105.705 E50.83730
G1 X118.967 Y105.304 E50.90527
G1 X118.967 Y104.909 E50.95267
G1 X117.694 Y103.635 E51.16879
G1 X116.495 Y103.036 E51.32962
G1 X116.289 Y102.830 E51.36458
G1 X112.767 Y101.659 E51.80997
G1 X112.767 Y101.559 E51.82197
G1 X110.785 Y101.470 E52.06005
G1 X109.363 Y101.825 E52.23593
G1 X108.763 Y102.026 E52.31186
G1 X108.352 Y102.129 E52.36270
G1 X108.143 Y102.233 E52.39072
G1 X107.548 Y102.431 E52.46597
G1 X107.536 Y102.437 E52.46758
G1 X107.336 Y102.636 E52.50143
G1 X105.745 Y103.431 E52.71486
G1 X104.682 Y104.493 E52.89517
G0 F9000 X104.478 Y104.132
G1 F1200 X104.212 Y104.199 E52.92809
G1 X103.704 Y104.706 E53.01422
G1 X103.309 Y104.903 E53.06718
G1 X100.660 Y107.549 E53.51648
G1 X100.129 Y107.287 E53.58753
G1 X100.564 Y112.833 E54.25510
G1 X100.710 Y113.752 E54.36676
G1 X100.905 Y114.566 E54.46721
G1 X101.171 Y115.385 E54.57054
G1 X101.501 Y116.181 E54.67394
G1 X101.900 Y116.963 E54.77929
G1 X102.340 Y117.682 E54.88044
G1 X102.858 Y118.394 E54.98610
G1 X103.418 Y119.050 E55.08961
G1 X104.010 Y119.642 E55.19007
G1 X108.748 Y121.221 E55.78937
G1 X111.846 Y121.531 E56.16299
G1 X118.167 Y118.364 E57.01139
G1 X118.167 Y118.073 E57.04631
G1 X119.932 Y117.191 E57.28308
G1 X119.967 Y117.156 E57.28902
G1 X119.967 Y116.954 E57.31326
G1 X120.167 Y116.754 E57.34720
G1 X120.167 Y116.354 E57.39520
G1 X120.367 Y116.154 E57.42915
G1 X120.367 Y115.954 E57.45315
G1 X120.567 Y115.754 E57.48709
G1 X120.567 Y114.473 E57.64081
G1 X120.767 Y114.373 E57.66764
G1 X120.767 Y113.673 E57.75164
G1 X121.367 Y113.373 E57.83214
G1 X121.367 Y112.954 E57.88242
G1 X121.567 Y112.754 E57.91636
G1 X121.567 Y111.125 E58.11184
G1 X121.367 Y111.025 E58.13867
G1 X121.367 Y109.544 E58.31639
G1 X121.167 Y109.344 E58.35033
G1 X121.167 Y108.744 E58.42233
G1 X120.967 Y108.544 E58.45627
G1 X120.967 Y108.144 E58.50427
