;FLAVOR:UltiGCode
;TIME:194
;MATERIAL:263
;MATERIAL2:0
;NOZZLE_DIAMETER:0.400000
;NOZZLE_DIAMETER2:0.400000

;Layer count: 18
;LAYER:0
M107
G0 F9000 X99.950 Y99.950 Z0.300
;TYPE:SKIRT
G1 F1200 X108.685 Y99.950 E1.04820
G1 X123.050 Y99.952 E2.77200
G1 X123.050 Y123.050 E5.54376
G1 X99.950 Y123.050 E8.31576
G1 X99.950 Y99.950 E11.08776
G0 F9000 X100.350 Y100.350
G1 F1200 X108.685 Y100.350 E12.08796
G1 X122.650 Y100.352 E13.76376
G1 X122.650 Y122.650 E16.43952
G1 X100.350 Y122.650 E19.11552
G1 X100.350 Y100.350 E21.79152
G0 F9000 X100.750 Y100.750
G1 F1200 X108.685 Y100.750 E22.74372
G1 X122.250 Y100.752 E24.37152
G1 X122.250 Y122.250 E26.95128
G1 X100.750 Y122.250 E29.53128
G1 X100.750 Y100.750 E32.11128
G0 F9000 X101.150 Y101.150
G1 F1200 X108.685 Y101.150 E33.01548
G1 X121.850 Y101.152 E34.59528
G1 X121.850 Y121.850 E37.07904
G1 X101.150 Y121.850 E39.56304
G1 X101.150 Y101.150 E42.04704
G0 F9000 X101.550 Y101.550
G1 F1200 X121.450 Y101.552 E44.43504
G1 X121.450 Y121.450 E46.82280
G1 X101.550 Y121.450 E49.21080
G1 X101.550 Y101.550 E51.59880
G0 F9000 X101.950 Y101.950
G1 F1200 X121.050 Y101.952 E53.89080
G1 X121.050 Y121.050 E56.18256
G1 X101.950 Y121.050 E58.47456
G1 X101.950 Y101.950 E60.76656
G0 F9000 X102.350 Y102.350
G1 F1200 X120.650 Y102.352 E62.96256
G1 X120.650 Y120.650 E65.15832
G1 X102.350 Y120.650 E67.35432
G1 X102.350 Y102.350 E69.55032
G0 F9000 X102.750 Y102.750
G1 F1200 X120.250 Y102.752 E71.65032
G1 X120.250 Y120.250 E73.75008
G1 X102.750 Y120.250 E75.85008
G1 X102.750 Y102.750 E77.95008
G0 F9000 X103.150 Y103.150
G1 F1200 X119.850 Y103.152 E79.95408
G1 X119.850 Y119.850 E81.95784
G1 X103.150 Y119.850 E83.96184
G1 X103.150 Y103.150 E85.96584
G0 F9000 X103.550 Y103.550
G1 F1200 X119.450 Y103.552 E87.87384
G1 X119.450 Y119.450 E89.78160
G1 X103.550 Y119.450 E91.68960
G1 X103.550 Y103.550 E93.59760
G0 F9000 X103.950 Y103.950
G1 F1200 X119.050 Y103.952 E95.40960
G1 X119.050 Y119.050 E97.22136
G1 X103.950 Y119.050 E99.03336
G1 X103.950 Y103.950 E100.84536
G0 F9000 X104.350 Y104.350
G1 F1200 X118.650 Y104.352 E102.56136
G1 X118.650 Y118.650 E104.27712
G1 X104.350 Y118.650 E105.99312
G1 X104.350 Y104.350 E107.70912
G0 F9000 X104.750 Y104.750
G1 F1200 X118.250 Y104.751 E109.32912
G1 X118.250 Y118.250 E110.94900
G1 X104.750 Y118.250 E112.56900
G1 X104.750 Y104.750 E114.18900
G0 F9000 X105.150 Y105.150
G1 F1200 X117.850 Y105.151 E115.71300
G1 X117.850 Y117.850 E117.23688
G1 X105.150 Y117.850 E118.76088
G1 X105.150 Y105.150 E120.28488
G0 F9000 X105.550 Y105.550
G1 F1200 X117.450 Y105.551 E121.71288
G1 X117.450 Y117.450 E123.14076
G1 X105.550 Y117.450 E124.56876
G1 X105.550 Y105.550 E125.99676
G0 F9000 X105.950 Y105.950
G1 F1200 X117.050 Y105.951 E127.32876
G1 X117.050 Y117.050 E128.66064
G1 X105.950 Y117.050 E129.99264
G1 X105.950 Y105.950 E131.32464
G0 F9000 X106.350 Y106.350
G1 F1200 X116.650 Y106.351 E132.56064
G1 X116.650 Y116.650 E133.79652
G1 X106.350 Y116.650 E135.03252
G1 X106.350 Y106.350 E136.26852
G0 F9000 X106.750 Y106.750
G1 F1200 X116.250 Y106.751 E137.40852
G1 X116.250 Y116.250 E138.54840
G1 X106.750 Y116.250 E139.68840
G1 X106.750 Y106.750 E140.82840
G0 F9000 X107.150 Y107.150
G1 F1200 X115.850 Y107.151 E141.87240
G1 X115.850 Y115.850 E142.91628
G1 X107.150 Y115.850 E143.96028
G1 X107.150 Y107.150 E145.00428
G0 F9000 X107.550 Y107.550
G1 F1200 X115.450 Y107.551 E145.95228
G1 X115.450 Y115.450 E146.90016
G1 X107.550 Y115.450 E147.84816
G1 X107.550 Y107.550 E148.79616
G0 F9000 X108.160 Y108.250
G0 X108.750 Y108.750
;TYPE:WALL-INNER
G1 F1200 X114.250 Y108.751 E149.45616
G1 X114.250 Y114.250 E150.11604
G1 X108.750 Y114.250 E150.77604
G1 X108.750 Y108.750 E151.43604
G0 F9000 X108.350 Y108.350
G1 F1200 X114.650 Y108.351 E152.19204
G1 X114.650 Y114.650 E152.94792
G1 X108.350 Y114.650 E153.70392
G1 X108.350 Y108.350 E154.45992
G0 F9000 X107.950 Y107.950
;TYPE:WALL-OUTER
G1 F1200 X115.050 Y107.951 E155.31192
G1 X115.050 Y115.050 E156.16380
G1 X107.950 Y115.050 E157.01580
G1 X107.950 Y107.950 E157.86780
G0 F9000 X108.160 Y108.250
G0 X108.889 Y109.172
;TYPE:SKIN
G1 F900 X113.826 Y114.109 E158.70564
G0 F9000 X114.109 Y113.826
G1 F900 X109.173 Y108.890 E159.54330
G0 F9000 X109.738 Y108.890
G1 F900 X114.109 Y113.260 E160.28500
G0 F9000 X114.109 Y112.695
G1 F900 X110.304 Y108.890 E160.93073
G0 F9000 X110.870 Y108.890
G1 F900 X114.109 Y112.129 E161.48041
G0 F9000 X114.109 Y111.563
G1 F900 X111.435 Y108.890 E161.93412
G0 F9000 X112.002 Y108.890
G1 F900 X114.109 Y110.998 E162.29177
G0 F9000 X114.109 Y110.432
G1 F900 X112.567 Y108.890 E162.55346
G0 F9000 X113.133 Y108.890
G1 F900 X114.109 Y109.866 E162.71909
G0 F9000 X114.109 Y109.301
G1 F900 X113.699 Y108.890 E162.78875
G0 F9000 X108.889 Y109.738
G1 F900 X113.260 Y114.109 E163.53054
G0 F9000 X112.695 Y114.109
G1 F900 X108.889 Y110.303 E164.17644
G0 F9000 X108.889 Y110.869
G1 F900 X112.129 Y114.109 E164.72628
G0 F9000 X111.563 Y114.109
G1 F900 X108.889 Y111.435 E165.18008
G0 F9000 X108.889 Y112.000
G1 F900 X110.998 Y114.109 E165.53799
G0 F9000 X110.432 Y114.109
G1 F900 X108.889 Y112.566 E165.79984
G0 F9000 X108.889 Y113.132
G1 F900 X109.866 Y114.109 E165.96564
G0 F9000 X109.301 Y114.109
G1 F900 X108.889 Y113.697 E166.03556
;LAYER:1
M106 S127
G0 F9000 X108.747 Y114.253 Z0.400
;TYPE:WALL-INNER
G1 F1800 X108.747 Y108.747 E166.25525
G1 X114.253 Y108.748 E166.47494
G1 X114.253 Y114.253 E166.69459
G1 X108.747 Y114.253 E166.91428
G0 F9000 X108.348 Y114.652
G1 F1800 X108.348 Y108.348 E167.16581
G1 X114.652 Y108.349 E167.41734
G1 X114.652 Y114.652 E167.66883
G1 X108.348 Y114.652 E167.92036
G0 F9000 X107.949 Y115.051
;TYPE:WALL-OUTER
G1 F1320 X107.949 Y107.949 E168.20373
G1 X115.051 Y107.950 E168.48710
G1 X115.051 Y115.051 E168.77043
G1 X107.949 Y115.051 E169.05380
G0 F9000 X109.057 Y114.112
;TYPE:SKIN
G1 F900 X114.112 Y109.057 E169.33904
G0 F9000 X113.718 Y108.887
G1 F900 X108.886 Y113.719 E169.61169
G0 F9000 X108.886 Y113.154
G1 F900 X113.154 Y108.887 E169.85250
G0 F9000 X112.589 Y108.887
G1 F900 X108.886 Y112.590 E170.06145
G0 F9000 X108.886 Y112.026
G1 F900 X112.025 Y108.887 E170.23857
G0 F9000 X111.461 Y108.886
G1 F900 X108.886 Y111.461 E170.38387
G0 F9000 X108.886 Y110.897
G1 F900 X110.897 Y108.886 E170.49734
G0 F9000 X110.333 Y108.886
G1 F900 X108.886 Y110.333 E170.57899
G0 F9000 X108.886 Y109.769
G1 F900 X109.769 Y108.886 E170.62882
G0 F9000 X109.204 Y108.886
G1 F900 X108.886 Y109.204 E170.64676
G0 F9000 X109.621 Y114.112
G1 F900 X114.112 Y109.622 E170.90015
G0 F9000 X114.112 Y110.186
G1 F900 X110.185 Y114.112 E171.12171
G0 F9000 X110.749 Y114.112
G1 F900 X114.112 Y110.750 E171.31145
G0 F9000 X114.112 Y111.314
G1 F900 X111.314 Y114.112 E171.46933
G0 F9000 X111.878 Y114.112
G1 F900 X114.112 Y111.879 E171.59536
G0 F9000 X114.112 Y112.443
G1 F900 X112.442 Y114.112 E171.68957
G0 F9000 X113.006 Y114.112
G1 F900 X114.112 Y113.007 E171.75195
G0 F9000 X114.112 Y113.571
G1 F900 X113.571 Y114.112 E171.78247
;LAYER:2
M106 S255
G0 F9000 X114.253 Y114.253 Z0.500
;TYPE:WALL-INNER
G1 F2400 X108.747 Y114.253 E172.00216
G1 X108.747 Y108.747 E172.22185
G1 X114.253 Y108.748 E172.44154
G1 X114.253 Y114.253 E172.66119
G0 F9000 X114.652 Y114.652
G1 F2400 X108.348 Y114.652 E172.91272
G1 X108.348 Y108.348 E173.16425
G1 X114.652 Y108.349 E173.41578
G1 X114.652 Y114.652 E173.66727
G0 F9000 X115.051 Y115.051
;TYPE:WALL-OUTER
G1 F1500 X107.949 Y115.051 E173.95064
G1 X107.949 Y107.949 E174.23401
G1 X115.051 Y107.950 E174.51738
G1 X115.051 Y115.051 E174.80071
G0 F9000 X114.751 Y114.841
G0 X114.112 Y113.831
;TYPE:SKIN
G1 F900 X109.168 Y108.887 E175.07968
G0 F9000 X108.886 Y109.169
G1 F900 X113.829 Y114.112 E175.35860
G0 F9000 X113.265 Y114.112
G1 F900 X108.886 Y109.733 E175.60570
G0 F9000 X108.886 Y110.298
G1 F900 X112.700 Y114.112 E175.82091
G0 F9000 X112.136 Y114.112
G1 F900 X108.886 Y110.862 E176.00430
G0 F9000 X108.886 Y111.426
G1 F900 X111.572 Y114.112 E176.15586
G0 F9000 X111.007 Y114.112
G1 F900 X108.886 Y111.990 E176.27557
G0 F9000 X108.886 Y112.555
G1 F900 X110.443 Y114.112 E176.36343
G0 F9000 X109.879 Y114.112
G1 F900 X108.886 Y113.119 E176.41946
G0 F9000 X108.886 Y113.683
G1 F900 X109.315 Y114.112 E176.44367
G0 F9000 X114.112 Y113.267
G1 F900 X109.733 Y108.887 E176.69079
G0 F9000 X110.297 Y108.887
G1 F900 X114.112 Y112.702 E176.90606
G0 F9000 X114.112 Y112.138
G1 F900 X110.861 Y108.887 E177.08950
G0 F9000 X111.425 Y108.887
G1 F900 X114.112 Y111.574 E177.24112
G0 F9000 X114.112 Y111.010
G1 F900 X111.990 Y108.888 E177.36086
G0 F9000 X112.555 Y108.888
G1 F900 X114.112 Y110.445 E177.44872
G0 F9000 X114.112 Y109.881
G1 F900 X113.119 Y108.888 E177.50475
G0 F9000 X113.683 Y108.888
G1 F900 X114.112 Y109.317 E177.52896
;LAYER:3
G0 F9000 X114.253 Y108.748 Z0.600
;TYPE:WALL-INNER
G1 F3000 X114.253 Y114.253 E177.74861
G1 X108.747 Y114.253 E177.96830
G1 X108.747 Y108.747 E178.18799
G1 X114.253 Y108.748 E178.40768
G0 F9000 X114.652 Y108.349
G1 F3000 X114.652 Y114.652 E178.65917
G1 X108.348 Y114.652 E178.91070
G1 X108.348 Y108.348 E179.16223
G1 X114.652 Y108.349 E179.41376
G0 F9000 X115.051 Y107.950
;TYPE:WALL-OUTER
G1 F1620 X115.051 Y115.051 E179.69709
G1 X107.949 Y115.051 E179.98046
G1 X107.949 Y107.949 E180.26383
G1 X115.051 Y107.950 E180.54719
G0 F9000 X114.112 Y109.057
;TYPE:SKIN
G1 F900 X109.057 Y114.112 E180.83243
G0 F9000 X108.886 Y113.719
G1 F900 X113.718 Y108.887 E181.10509
G0 F9000 X113.154 Y108.887
G1 F900 X108.886 Y113.154 E181.34589
G0 F9000 X108.886 Y112.590
G1 F900 X112.589 Y108.887 E181.55484
G0 F9000 X112.025 Y108.887
G1 F900 X108.886 Y112.026 E181.73197
G0 F9000 X108.886 Y111.461
G1 F900 X111.461 Y108.886 E181.87727
G0 F9000 X110.897 Y108.886
G1 F900 X108.886 Y110.897 E181.99074
G0 F9000 X108.886 Y110.333
G1 F900 X110.333 Y108.886 E182.07239
G0 F9000 X109.769 Y108.886
G1 F900 X108.886 Y109.769 E182.12222
G0 F9000 X108.886 Y109.204
G1 F900 X109.204 Y108.886 E182.14016
G0 F9000 X114.112 Y109.622
G1 F900 X109.621 Y114.112 E182.39355
G0 F9000 X110.185 Y114.112
G1 F900 X114.112 Y110.186 E182.61511
G0 F9000 X114.112 Y110.750
G1 F900 X110.749 Y114.112 E182.80484
G0 F9000 X111.314 Y114.112
G1 F900 X114.112 Y111.314 E182.96273
G0 F9000 X114.112 Y111.879
G1 F900 X111.878 Y114.112 E183.08876
G0 F9000 X112.442 Y114.112
G1 F900 X114.112 Y112.443 E183.18296
G0 F9000 X114.112 Y113.007
G1 F900 X113.006 Y114.112 E183.24534
G0 F9000 X113.571 Y114.112
G1 F900 X114.112 Y113.571 E183.27587
;LAYER:4
G0 F9000 X114.253 Y114.253 Z0.700
;TYPE:WALL-INNER
G1 F3600 X108.747 Y114.253 E183.49556
G1 X108.747 Y108.747 E183.71525
G1 X114.253 Y108.748 E183.93494
G1 X114.253 Y114.253 E184.15459
G0 F9000 X114.652 Y114.652
G1 F3600 X108.348 Y114.652 E184.40612
G1 X108.348 Y108.348 E184.65765
G1 X114.652 Y108.349 E184.90918
G1 X114.652 Y114.652 E185.16067
G0 F9000 X115.051 Y115.051
;TYPE:WALL-OUTER
G1 F1800 X107.949 Y115.051 E185.44404
G1 X107.949 Y107.949 E185.72741
G1 X115.051 Y107.950 E186.01077
G1 X115.051 Y115.051 E186.29410
G0 F9000 X114.751 Y114.841
G0 X114.112 Y113.831
;TYPE:SKIN
G1 F900 X109.168 Y108.887 E186.57308
G0 F9000 X108.886 Y109.169
G1 F900 X113.829 Y114.112 E186.85200
G0 F9000 X113.265 Y114.112
G1 F900 X108.886 Y109.733 E187.09909
G0 F9000 X108.886 Y110.298
G1 F900 X112.700 Y114.112 E187.31431
G0 F9000 X112.136 Y114.112
G1 F900 X108.886 Y110.862 E187.49770
G0 F9000 X108.886 Y111.426
G1 F900 X111.572 Y114.112 E187.64926
G0 F9000 X111.007 Y114.112
G1 F900 X108.886 Y111.990 E187.76897
G0 F9000 X108.886 Y112.555
G1 F900 X110.443 Y114.112 E187.85683
G0 F9000 X109.879 Y114.112
G1 F900 X108.886 Y113.119 E187.91286
G0 F9000 X108.886 Y113.683
G1 F900 X109.315 Y114.112 E187.93707
G0 F9000 X114.112 Y113.267
G1 F900 X109.733 Y108.887 E188.18419
G0 F9000 X110.297 Y108.887
G1 F900 X114.112 Y112.702 E188.39946
G0 F9000 X114.112 Y112.138
G1 F900 X110.861 Y108.887 E188.58290
G0 F9000 X111.425 Y108.887
G1 F900 X114.112 Y111.574 E188.73452
G0 F9000 X114.112 Y111.010
G1 F900 X111.990 Y108.888 E188.85426
G0 F9000 X112.555 Y108.888
G1 F900 X114.112 Y110.445 E188.94212
G0 F9000 X114.112 Y109.881
G1 F900 X113.119 Y108.888 E188.99815
G0 F9000 X113.683 Y108.888
G1 F900 X114.112 Y109.317 E189.02236
;LAYER:5
G0 F9000 X114.253 Y108.748 Z0.800
;TYPE:WALL-INNER
G1 F3600 X114.253 Y114.253 E189.24201
G1 X108.747 Y114.253 E189.46170
G1 X108.747 Y108.747 E189.68138
G1 X114.253 Y108.748 E189.90107
G0 F9000 X114.652 Y108.349
G1 F3600 X114.652 Y114.652 E190.15256
G1 X108.348 Y114.652 E190.40409
G1 X108.348 Y108.348 E190.65562
G1 X114.652 Y108.349 E190.90715
G0 F9000 X115.051 Y107.950
;TYPE:WALL-OUTER
G1 F1800 X115.051 Y115.051 E191.19048
G1 X107.949 Y115.051 E191.47385
G1 X107.949 Y107.949 E191.75722
G1 X115.051 Y107.950 E192.04059
G0 F9000 X114.112 Y109.057
;TYPE:SKIN
G1 F900 X109.057 Y114.112 E192.32583
G0 F9000 X108.886 Y113.719
G1 F900 X113.718 Y108.887 E192.59849
G0 F9000 X113.154 Y108.887
G1 F900 X108.886 Y113.154 E192.83929
G0 F9000 X108.886 Y112.590
G1 F900 X112.589 Y108.887 E193.04824
G0 F9000 X112.025 Y108.887
G1 F900 X108.886 Y112.026 E193.22536
G0 F9000 X108.886 Y111.461
G1 F900 X111.461 Y108.886 E193.37066
G0 F9000 X110.897 Y108.886
G1 F900 X108.886 Y110.897 E193.48414
G0 F9000 X108.886 Y110.333
G1 F900 X110.333 Y108.886 E193.56579
G0 F9000 X109.769 Y108.886
G1 F900 X108.886 Y109.769 E193.61561
G0 F9000 X108.886 Y109.204
G1 F900 X109.204 Y108.886 E193.63356
G0 F9000 X114.112 Y109.622
G1 F900 X109.621 Y114.112 E193.88694
G0 F9000 X110.185 Y114.112
G1 F900 X114.112 Y110.186 E194.10850
G0 F9000 X114.112 Y110.750
G1 F900 X110.749 Y114.112 E194.29824
G0 F9000 X111.314 Y114.112
G1 F900 X114.112 Y111.314 E194.45612
G0 F9000 X114.112 Y111.879
G1 F900 X111.878 Y114.112 E194.58215
G0 F9000 X112.442 Y114.112
G1 F900 X114.112 Y112.443 E194.67636
G0 F9000 X114.112 Y113.007
G1 F900 X113.006 Y114.112 E194.73874
G0 F9000 X113.571 Y114.112
G1 F900 X114.112 Y113.571 E194.76927
;LAYER:6
G0 F9000 X114.253 Y114.253 Z0.900
;TYPE:WALL-INNER
G1 F3600 X108.747 Y114.253 E194.98896
G1 X108.747 Y108.747 E195.20865
G1 X114.253 Y108.748 E195.42833
G1 X114.253 Y114.253 E195.64798
G0 F9000 X114.652 Y114.652
G1 F3600 X108.348 Y114.652 E195.89951
G1 X108.348 Y108.348 E196.15104
G1 X114.652 Y108.349 E196.40257
G1 X114.652 Y114.652 E196.65406
G0 F9000 X115.051 Y115.051
;TYPE:WALL-OUTER
G1 F1800 X107.949 Y115.051 E196.93743
G1 X107.949 Y107.949 E197.22080
G1 X115.051 Y107.950 E197.50417
G1 X115.051 Y115.051 E197.78750
G0 F9000 X114.751 Y114.841
G0 X114.112 Y113.831
;TYPE:SKIN
G1 F900 X109.168 Y108.887 E198.06648
G0 F9000 X108.886 Y109.169
G1 F900 X113.829 Y114.112 E198.34540
G0 F9000 X113.265 Y114.112
G1 F900 X108.886 Y109.733 E198.59249
G0 F9000 X108.886 Y110.298
G1 F900 X112.700 Y114.112 E198.80770
G0 F9000 X112.136 Y114.112
G1 F900 X108.886 Y110.862 E198.99109
G0 F9000 X108.886 Y111.426
G1 F900 X111.572 Y114.112 E199.14266
G0 F9000 X111.007 Y114.112
G1 F900 X108.886 Y111.990 E199.26237
G0 F9000 X108.886 Y112.555
G1 F900 X110.443 Y114.112 E199.35022
G0 F9000 X109.879 Y114.112
G1 F900 X108.886 Y113.119 E199.40625
G0 F9000 X108.886 Y113.683
G1 F900 X109.315 Y114.112 E199.43046
G0 F9000 X114.112 Y113.267
G1 F900 X109.733 Y108.887 E199.67758
G0 F9000 X110.297 Y108.887
G1 F900 X114.112 Y112.702 E199.89285
G0 F9000 X114.112 Y112.138
G1 F900 X110.861 Y108.887 E200.07630
G0 F9000 X111.425 Y108.887
G1 F900 X114.112 Y111.574 E200.22792
G0 F9000 X114.112 Y111.010
G1 F900 X111.990 Y108.888 E200.34766
G0 F9000 X112.555 Y108.888
G1 F900 X114.112 Y110.445 E200.43551
G0 F9000 X114.112 Y109.881
G1 F900 X113.119 Y108.888 E200.49155
G0 F9000 X113.683 Y108.888
G1 F900 X114.112 Y109.317 E200.51575
;LAYER:7
G0 F9000 X114.253 Y108.748 Z1.000
;TYPE:WALL-INNER
G1 F3600 X114.253 Y114.253 E200.73540
G1 X108.747 Y114.253 E200.95509
G1 X108.747 Y108.747 E201.17478
G1 X114.253 Y108.748 E201.39447
G0 F9000 X114.652 Y108.349
G1 F3600 X114.652 Y114.652 E201.64596
G1 X108.348 Y114.652 E201.89749
G1 X108.348 Y108.348 E202.14902
G1 X114.652 Y108.349 E202.40055
G0 F9000 X115.051 Y107.950
;TYPE:WALL-OUTER
G1 F1800 X115.051 Y115.051 E202.68388
G1 X107.949 Y115.051 E202.96725
G1 X107.949 Y107.949 E203.25062
G1 X115.051 Y107.950 E203.53399
G0 F9000 X114.112 Y109.057
