;FLAVOR:UltiGCode
;TIME:5562
;MATERIAL:7159
;MATERIAL2:0
;NOZZLE_DIAMETER:0.400000
;NOZZLE_DIAMETER2:0.400000

;Layer count: 118
;LAYER:0
M107
G0 F9000 X91.174 Y91.237 Z0.300
;TYPE:SKIRT
G1 F1200 X92.859 Y89.676 E0.27563
G1 X94.630 Y88.280 E0.54624
G1 X96.504 Y87.027 E0.81676
G1 X98.470 Y85.926 E1.08715
G1 X100.517 Y84.983 E1.35760
G1 X102.631 Y84.203 E1.62800
G1 X104.800 Y83.591 E1.89844
G1 X107.010 Y83.151 E2.16885
G1 X109.249 Y82.886 E2.43940
G1 X111.500 Y82.798 E2.70973
G1 X113.751 Y82.886 E2.98006
G1 X115.990 Y83.151 E3.25061
G1 X118.200 Y83.591 E3.52102
G1 X120.369 Y84.203 E3.79146
G1 X122.483 Y84.983 E4.06186
G1 X124.530 Y85.926 E4.33231
G1 X126.496 Y87.027 E4.60270
G1 X128.370 Y88.280 E4.87322
G1 X130.139 Y89.674 E5.14349
G1 X131.796 Y91.205 E5.41421
G1 X133.295 Y92.828 E5.67933
G1 X134.615 Y94.496 E5.93458
G1 X134.720 Y94.630 E5.95501
G1 X135.947 Y96.467 E6.22010
G1 X137.050 Y98.429 E6.49020
G1 X137.932 Y100.334 E6.74211
G1 X138.011 Y100.501 E6.76428
G1 X138.781 Y102.589 E7.03134
G1 X139.396 Y104.754 E7.30141
G1 X139.839 Y106.963 E7.57177
G1 X140.108 Y109.201 E7.84226
G1 X140.194 Y111.306 E8.09508
G1 X140.203 Y111.487 E8.11682
G1 X140.120 Y113.597 E8.37022
G1 X140.112 Y113.764 E8.39028
G1 X139.854 Y115.945 E8.65383
G1 X139.419 Y118.154 E8.92400
G1 X138.810 Y120.323 E9.19434
G1 X138.034 Y122.438 E9.46469
G1 X137.138 Y124.390 E9.72242
G1 X137.065 Y124.544 E9.74287
G1 X135.995 Y126.457 E10.00590
G1 X134.747 Y128.331 E10.27609
G1 X133.431 Y130.006 E10.53170
G1 X133.326 Y130.139 E10.55204
G1 X131.826 Y131.763 E10.81733
G1 X130.141 Y133.324 E11.09296
G1 X128.370 Y134.720 E11.36357
G1 X126.496 Y135.973 E11.63408
G1 X124.530 Y137.074 E11.90448
G1 X122.483 Y138.017 E12.17493
G1 X120.369 Y138.797 E12.44533
G1 X118.200 Y139.409 E12.71577
G1 X115.990 Y139.849 E12.98617
G1 X113.751 Y140.114 E13.25673
G1 X111.500 Y140.202 E13.52706
G1 X109.249 Y140.114 E13.79738
G1 X107.010 Y139.849 E14.06794
G1 X104.800 Y139.409 E14.33834
G1 X102.631 Y138.797 E14.60879
G1 X100.517 Y138.017 E14.87918
G1 X98.470 Y137.074 E15.14963
G1 X96.504 Y135.973 E15.42003
G1 X94.630 Y134.720 E15.69055
G1 X92.861 Y133.326 E15.96082
G1 X91.204 Y131.795 E16.23154
G1 X89.705 Y130.172 E16.49666
G1 X88.385 Y128.504 E16.75191
G1 X88.280 Y128.370 E16.77234
G1 X87.053 Y126.533 E17.03743
G1 X85.950 Y124.571 E17.30753
G1 X85.056 Y122.640 E17.56287
G1 X84.989 Y122.499 E17.58161
G1 X84.219 Y120.411 E17.84866
G1 X83.604 Y118.246 E18.11874
G1 X83.161 Y116.037 E18.38910
G1 X82.892 Y113.799 E18.65959
G1 X82.805 Y111.673 E18.91493
G1 X82.797 Y111.513 E18.93415
G1 X82.880 Y109.403 E19.18755
G1 X82.888 Y109.236 E19.20761
G1 X83.146 Y107.055 E19.47115
G1 X83.581 Y104.846 E19.74132
G1 X84.190 Y102.677 E20.01167
G1 X84.966 Y100.562 E20.28201
G1 X85.862 Y98.610 E20.53975
G1 X85.935 Y98.456 E20.56020
G1 X87.005 Y96.543 E20.82323
G1 X88.253 Y94.669 E21.09341
G1 X89.569 Y92.994 E21.34903
G1 X89.674 Y92.861 E21.36936
G1 X91.174 Y91.237 E21.63465
G10
G0 F9000 X94.426 Y94.496
;TYPE:WALL-INNER
G11
G1 F1200 X95.849 Y93.177 E21.86749
G1 X97.341 Y92.001 E22.09546
G1 X98.906 Y90.955 E22.32134
G1 X100.569 Y90.024 E22.55005
G1 X102.270 Y89.240 E22.77480
G1 X104.063 Y88.579 E23.00412
G1 X105.872 Y88.068 E23.22969
G1 X107.733 Y87.697 E23.45741
G1 X109.604 Y87.476 E23.68349
G1 X111.500 Y87.401 E23.91119
G1 X113.396 Y87.476 E24.13888
G1 X115.267 Y87.697 E24.36497
G1 X117.128 Y88.068 E24.59268
G1 X118.937 Y88.579 E24.81825
G1 X120.730 Y89.240 E25.04757
G1 X122.431 Y90.024 E25.27233
G1 X124.094 Y90.955 E25.50103
G1 X125.659 Y92.001 E25.72692
G1 X127.159 Y93.183 E25.95609
G1 X128.540 Y94.459 E26.18172
G1 X129.792 Y95.814 E26.40310
G1 X130.997 Y97.338 E26.63624
G1 X132.027 Y98.880 E26.85876
G1 X132.947 Y100.516 E27.08400
G1 X133.765 Y102.283 E27.31765
G1 X134.404 Y104.017 E27.53941
G1 X134.920 Y105.832 E27.76584
G1 X135.294 Y107.698 E27.99422
G1 X135.519 Y109.567 E28.22012
G1 X135.599 Y111.508 E28.45324
G1 X135.524 Y113.391 E28.67937
G1 X135.309 Y115.219 E28.90025
G1 X134.940 Y117.092 E29.12933
G1 X134.429 Y118.912 E29.35617
G1 X133.778 Y120.684 E29.58271
G1 X132.978 Y122.427 E29.81285
G1 X132.063 Y124.062 E30.03768
G1 X131.025 Y125.622 E30.26253
G1 X129.821 Y127.155 E30.49645
G1 X128.574 Y128.504 E30.71690
G1 X127.151 Y129.823 E30.94973
G1 X125.659 Y130.999 E31.17770
G1 X124.094 Y132.045 E31.40358
G1 X122.431 Y132.976 E31.63229
G1 X120.730 Y133.760 E31.85705
G1 X118.937 Y134.421 E32.08636
G1 X117.128 Y134.932 E32.31194
G1 X115.267 Y135.303 E32.53965
G1 X113.396 Y135.524 E32.76573
G1 X111.500 Y135.599 E32.99343
G1 X109.604 Y135.524 E33.22113
G1 X107.733 Y135.303 E33.44721
G1 X105.872 Y134.932 E33.67492
G1 X104.063 Y134.421 E33.90050
G1 X102.270 Y133.760 E34.12981
G1 X100.569 Y132.976 E34.35457
G1 X98.906 Y132.045 E34.58327
G1 X97.341 Y130.999 E34.80916
G1 X95.841 Y129.817 E35.03833
G1 X94.460 Y128.541 E35.26396
G1 X93.208 Y127.186 E35.48534
G1 X92.003 Y125.662 E35.71848
G1 X90.973 Y124.120 E35.94101
G1 X90.053 Y122.484 E36.16624
G1 X89.235 Y120.717 E36.39990
G1 X88.596 Y118.983 E36.62166
G1 X88.080 Y117.168 E36.84809
G1 X87.706 Y115.302 E37.07646
G1 X87.481 Y113.432 E37.30248
G1 X87.401 Y111.492 E37.53548
G1 X87.476 Y109.609 E37.76162
G1 X87.691 Y107.781 E37.98249
G1 X88.060 Y105.908 E38.21157
G1 X88.571 Y104.088 E38.43841
G1 X89.222 Y102.316 E38.66495
G1 X90.022 Y100.573 E38.89509
G1 X90.937 Y98.938 E39.11992
G1 X91.979 Y97.373 E39.34554
G1 X93.179 Y95.845 E39.57869
G1 X94.426 Y94.496 E39.79913
G0 F9000 X96.014 Y96.014
G1 F1200 X94.870 Y97.251 E40.00132
G1 X93.805 Y98.599 E40.20748
G1 X92.847 Y100.027 E40.41383
G1 X92.005 Y101.526 E40.62014
G1 X91.282 Y103.086 E40.82647
G1 X90.684 Y104.699 E41.03290
G1 X90.215 Y106.353 E41.23921
G1 X89.877 Y108.039 E41.44555
G1 X89.671 Y109.746 E41.65188
G1 X89.604 Y111.384 E41.84860
G1 X89.598 Y111.486 E41.86086
G1 X89.665 Y113.183 E42.06466
G1 X89.865 Y114.889 E42.27079
G1 X90.197 Y116.577 E42.47723
G1 X90.661 Y118.232 E42.68348
G1 X91.254 Y119.847 E42.88994
G1 X91.971 Y121.409 E43.09618
G1 X92.808 Y122.911 E43.30252
G1 X93.762 Y124.343 E43.50900
G1 X94.824 Y125.694 E43.71521
G1 X95.990 Y126.959 E43.92166
G1 X97.276 Y128.153 E44.13224
G1 X98.627 Y129.217 E44.33860
G1 X100.057 Y130.174 E44.54508
G1 X101.558 Y131.013 E44.75143
G1 X103.119 Y131.733 E44.95772
G1 X104.733 Y132.329 E45.16418
G1 X106.388 Y132.795 E45.37050
G1 X108.075 Y133.131 E45.57692
G1 X109.782 Y133.333 E45.78319
G1 X111.500 Y133.401 E45.98951
G1 X113.218 Y133.333 E46.19583
G1 X114.925 Y133.131 E46.40210
G1 X116.612 Y132.795 E46.60852
G1 X118.267 Y132.329 E46.81484
G1 X119.881 Y131.733 E47.02130
G1 X121.442 Y131.013 E47.22759
G1 X122.943 Y130.174 E47.43394
G1 X124.373 Y129.217 E47.64042
G1 X125.723 Y128.153 E47.84668
G1 X126.986 Y126.986 E48.05304
G1 X128.130 Y125.749 E48.25523
G1 X129.195 Y124.401 E48.46138
G1 X130.153 Y122.973 E48.66773
G1 X130.995 Y121.474 E48.87404
G1 X131.718 Y119.914 E49.08037
G1 X132.316 Y118.301 E49.28681
G1 X132.785 Y116.647 E49.49311
G1 X133.123 Y114.961 E49.69946
G1 X133.329 Y113.254 E49.90578
G1 X133.396 Y111.616 E50.10251
G1 X133.402 Y111.514 E50.11477
G1 X133.335 Y109.817 E50.31857
G1 X133.135 Y108.111 E50.52469
G1 X132.803 Y106.423 E50.73113
G1 X132.339 Y104.768 E50.93739
G1 X131.746 Y103.153 E51.14384
G1 X131.029 Y101.591 E51.35008
G1 X130.192 Y100.089 E51.55642
G1 X129.238 Y98.657 E51.76290
G1 X128.176 Y97.306 E51.96911
G1 X127.010 Y96.041 E52.17556
G1 X125.724 Y94.847 E52.38614
G1 X124.373 Y93.783 E52.59250
G1 X122.943 Y92.826 E52.79898
G1 X121.442 Y91.987 E53.00533
G1 X119.881 Y91.267 E53.21162
G1 X118.267 Y90.671 E53.41808
G1 X116.612 Y90.205 E53.62440
G1 X114.925 Y89.869 E53.83082
G1 X113.218 Y89.667 E54.03709
G1 X111.500 Y89.599 E54.24341
G1 X109.782 Y89.667 E54.44973
G1 X108.075 Y89.869 E54.65600
G1 X106.388 Y90.205 E54.86242
G1 X104.733 Y90.671 E55.06874
G1 X103.119 Y91.267 E55.27520
G1 X101.558 Y91.987 E55.48149
G1 X100.057 Y92.826 E55.68784
G1 X98.627 Y93.783 E55.89432
G1 X97.277 Y94.847 E56.10059
G1 X96.014 Y96.014 E56.30694
G0 F9000 X96.297 Y96.297
G1 F1200 X95.175 Y97.511 E56.50531
G1 X94.128 Y98.834 E56.70777
G1 X93.188 Y100.237 E56.91043
G1 X92.361 Y101.708 E57.11293
G1 X91.652 Y103.239 E57.31539
G1 X91.065 Y104.823 E57.51811
G1 X90.604 Y106.447 E57.72068
G1 X90.272 Y108.103 E57.92336
G1 X90.070 Y109.778 E58.12582
G1 X90.004 Y111.407 E58.32146
G1 X89.999 Y111.490 E58.33143
G1 X90.064 Y113.152 E58.53103
G1 X90.260 Y114.827 E58.73340
G1 X90.586 Y116.484 E58.93605
G1 X91.042 Y118.109 E59.13858
G1 X91.624 Y119.694 E59.34120
G1 X92.328 Y121.228 E59.54374
G1 X93.150 Y122.703 E59.74637
G1 X94.087 Y124.108 E59.94902
G1 X95.129 Y125.435 E60.15149
G1 X96.273 Y126.676 E60.35403
G1 X97.536 Y127.848 E60.56079
G1 X98.863 Y128.894 E60.76355
G1 X100.266 Y129.832 E60.96607
G1 X101.740 Y130.657 E61.16877
G1 X103.272 Y131.364 E61.37125
G1 X104.857 Y131.948 E61.57395
G1 X106.481 Y132.406 E61.77643
G1 X108.138 Y132.735 E61.97915
G1 X109.813 Y132.934 E62.18156
G1 X111.500 Y133.001 E62.38416
G1 X113.187 Y132.934 E62.58676
G1 X114.862 Y132.735 E62.78918
G1 X116.519 Y132.406 E62.99190
G1 X118.143 Y131.948 E63.19438
G1 X119.728 Y131.364 E63.39708
G1 X121.260 Y130.657 E63.59955
G1 X122.734 Y129.832 E63.80225
G1 X124.137 Y128.894 E64.00477
G1 X125.463 Y127.849 E64.20737
G1 X126.703 Y126.703 E64.40998
G1 X127.825 Y125.489 E64.60835
G1 X128.872 Y124.166 E64.81081
G1 X129.812 Y122.763 E65.01347
G1 X130.639 Y121.292 E65.21597
G1 X131.348 Y119.761 E65.41844
G1 X131.935 Y118.177 E65.62115
G1 X132.396 Y116.553 E65.82373
G1 X132.728 Y114.897 E66.02640
G1 X132.930 Y113.222 E66.22886
G1 X132.996 Y111.593 E66.42450
G1 X133.001 Y111.510 E66.43448
G1 X132.936 Y109.848 E66.63407
G1 X132.740 Y108.173 E66.83644
G1 X132.414 Y106.516 E67.03909
G1 X131.958 Y104.891 E67.24162
G1 X131.376 Y103.306 E67.44424
G1 X130.672 Y101.772 E67.64678
G1 X129.850 Y100.297 E67.84941
G1 X128.913 Y98.892 E68.05207
G1 X127.871 Y97.565 E68.25453
G1 X126.727 Y96.324 E68.45707
G1 X125.464 Y95.152 E68.66383
G1 X124.137 Y94.106 E68.86660
G1 X122.734 Y93.168 E69.06912
G1 X121.260 Y92.343 E69.27182
G1 X119.728 Y91.636 E69.47429
G1 X118.143 Y91.052 E69.67699
G1 X116.519 Y90.594 E69.87947
G1 X114.862 Y90.265 E70.08219
G1 X113.187 Y90.066 E70.28461
G1 X111.500 Y89.999 E70.48721
G1 X109.813 Y90.066 E70.68981
G1 X108.138 Y90.265 E70.89222
G1 X106.481 Y90.594 E71.09494
G1 X104.857 Y91.052 E71.29742
G1 X103.272 Y91.636 E71.50012
G1 X101.740 Y92.343 E71.70259
G1 X100.266 Y93.168 E71.90529
G1 X98.863 Y94.106 E72.10782
G1 X97.537 Y95.151 E72.31041
G1 X96.297 Y96.297 E72.51303
G0 F9000 X94.151 Y94.204
G1 F1200 X95.592 Y92.869 E72.74875
G1 X97.099 Y91.682 E72.97895
G1 X98.697 Y90.613 E73.20966
G1 X100.380 Y89.671 E73.44110
G1 X102.128 Y88.865 E73.67209
G1 X103.931 Y88.200 E73.90270
G1 X105.776 Y87.679 E74.13275
G1 X107.672 Y87.302 E74.36473
G1 X109.580 Y87.076 E74.59529
G1 X111.500 Y87.001 E74.82586
G1 X113.420 Y87.076 E75.05644
G1 X115.328 Y87.302 E75.28700
G1 X117.224 Y87.679 E75.51897
G1 X119.069 Y88.200 E75.74903
G1 X120.872 Y88.865 E75.97964
G1 X122.620 Y89.671 E76.21062
G1 X124.303 Y90.613 E76.44207
G1 X125.901 Y91.682 E76.67278
G1 X127.401 Y92.863 E76.90187
G1 X128.829 Y94.183 E77.13523
G1 X130.104 Y95.563 E77.36069
G1 X131.311 Y97.089 E77.59417
G1 X132.368 Y98.671 E77.82248
G1 X133.307 Y100.341 E78.05239
G1 X134.134 Y102.128 E78.28868
G1 X134.784 Y103.888 E78.51382
G1 X135.312 Y105.747 E78.74573
G1 X135.688 Y107.622 E78.97520
G1 X135.919 Y109.542 E79.20727
G1 X135.999 Y111.500 E79.44242
G1 X135.924 Y113.410 E79.67180
G1 X135.702 Y115.292 E79.89920
G1 X135.332 Y117.175 E80.12949
G1 X134.811 Y119.027 E80.36035
G1 X134.146 Y120.840 E80.59209
G1 X133.334 Y122.610 E80.82577
G1 X132.406 Y124.270 E81.05398
G1 X131.345 Y125.863 E81.28366
G1 X130.131 Y127.408 E81.51945
G1 X128.851 Y128.794 E81.74585
G1 X127.408 Y130.131 E81.98191
G1 X125.901 Y131.318 E82.21211
G1 X124.303 Y132.387 E82.44282
G1 X122.620 Y133.329 E82.67426
G1 X120.872 Y134.135 E82.90525
G1 X119.069 Y134.800 E83.13586
G1 X117.224 Y135.321 E83.36591
G1 X115.328 Y135.698 E83.59789
G1 X113.420 Y135.924 E83.82845
G1 X111.500 Y135.999 E84.05902
G1 X109.580 Y135.924 E84.28960
G1 X107.672 Y135.698 E84.52016
G1 X105.776 Y135.321 E84.75213
G1 X103.931 Y134.800 E84.98219
G1 X102.128 Y134.135 E85.21280
G1 X100.380 Y133.329 E85.44379
G1 X98.697 Y132.387 E85.67523
G1 X97.099 Y131.318 E85.90594
G1 X95.599 Y130.137 E86.13503
G1 X94.171 Y128.817 E86.36839
G1 X92.896 Y127.437 E86.59385
G1 X91.689 Y125.911 E86.82733
G1 X90.632 Y124.329 E87.05564
G1 X89.693 Y122.659 E87.28555
G1 X88.866 Y120.872 E87.52184
G1 X88.216 Y119.112 E87.74698
G1 X87.688 Y117.253 E87.97889
G1 X87.312 Y115.378 E88.20836
G1 X87.081 Y113.458 E88.44043
G1 X87.001 Y111.498 E88.67582
G1 X87.076 Y109.590 E88.90496
G1 X87.298 Y107.708 E89.13236
G1 X87.668 Y105.825 E89.36265
G1 X88.189 Y103.973 E89.59351
G1 X88.854 Y102.160 E89.82525
G1 X89.666 Y100.390 E90.05893
G1 X90.594 Y98.730 E90.28714
G1 X91.655 Y97.137 E90.51682
G1 X92.870 Y95.591 E90.75278
G1 X94.151 Y94.204 E90.97935
G0 F9000 X93.865 Y93.924
G1 F1200 X95.335 Y92.562 E91.21982
G1 X96.861 Y91.359 E91.45300
G1 X98.486 Y90.273 E91.68754
G1 X100.200 Y89.313 E91.92329
G1 X101.970 Y88.498 E92.15712
G1 X103.814 Y87.818 E92.39297
G1 X105.689 Y87.288 E92.62678
G1 X107.598 Y86.908 E92.86036
G1 X109.542 Y86.678 E93.09526
G1 X111.500 Y86.601 E93.33041
G1 X113.458 Y86.678 E93.56555
G1 X115.402 Y86.908 E93.80045
G1 X117.311 Y87.288 E94.03403
G1 X119.186 Y87.818 E94.26784
G1 X121.030 Y88.498 E94.50369
G1 X122.800 Y89.313 E94.73753
G1 X124.514 Y90.273 E94.97327
G1 X126.139 Y91.359 E95.20781
G1 X127.665 Y92.562 E95.44099
G1 X129.106 Y93.894 E95.67647
G1 X130.404 Y95.299 E95.90600
G1 X131.632 Y96.851 E96.14349
G1 X132.706 Y98.455 E96.37513
G1 X133.662 Y100.155 E96.60918
G1 X134.497 Y101.958 E96.84761
G1 X135.166 Y103.771 E97.07951
G1 X135.700 Y105.650 E97.31392
G1 X136.082 Y107.553 E97.54684
G1 X136.318 Y109.516 E97.78409
G1 X136.399 Y111.485 E98.02057
G1 X136.323 Y113.434 E98.25463
G1 X136.323 Y113.445 E98.25595
G1 X136.098 Y115.351 E98.48626
G1 X135.720 Y117.272 E98.72120
G1 X135.190 Y119.158 E98.95629
G1 X134.517 Y120.992 E99.19072
G1 X133.696 Y122.781 E99.42692
G1 X132.748 Y124.478 E99.66018
G1 X131.670 Y126.096 E99.89349
G1 X130.431 Y127.673 E100.13415
G1 X129.135 Y129.076 E100.36335
G1 X127.665 Y130.438 E100.60383
G1 X126.139 Y131.641 E100.83701
G1 X124.514 Y132.727 E101.07154
G1 X122.800 Y133.687 E101.30729
G1 X121.030 Y134.502 E101.54112
G1 X119.186 Y135.182 E101.77697
G1 X117.311 Y135.712 E102.01079
G1 X115.402 Y136.092 E102.24436
G1 X113.458 Y136.322 E102.47927
G1 X111.500 Y136.399 E102.71441
G1 X109.542 Y136.322 E102.94955
G1 X107.598 Y136.092 E103.18446
G1 X105.689 Y135.712 E103.41803
G1 X103.814 Y135.182 E103.65185
G1 X101.970 Y134.502 E103.88769
G1 X100.200 Y133.687 E104.12153
G1 X98.486 Y132.727 E104.35727
G1 X96.861 Y131.641 E104.59181
G1 X95.335 Y130.438 E104.82499
G1 X93.894 Y129.106 E105.06047
G1 X92.596 Y127.701 E105.29001
G1 X91.368 Y126.149 E105.52749
G1 X90.294 Y124.545 E105.75914
G1 X89.338 Y122.845 E105.99318
G1 X88.503 Y121.042 E106.23162
G1 X87.834 Y119.229 E106.46352
G1 X87.300 Y117.350 E106.69792
G1 X86.917 Y115.443 E106.93133
G1 X86.682 Y113.484 E107.16810
G1 X86.601 Y111.515 E107.40458
G1 X86.677 Y109.566 E107.63864
G1 X86.677 Y109.555 E107.63996
G1 X86.902 Y107.649 E107.87027
G1 X87.280 Y105.728 E108.10521
G1 X87.810 Y103.842 E108.34029
G1 X88.483 Y102.008 E108.57472
G1 X89.304 Y100.219 E108.81093
G1 X90.252 Y98.522 E109.04419
G1 X91.330 Y96.904 E109.27750
G1 X92.569 Y95.327 E109.51816
G1 X93.865 Y93.924 E109.74736
G0 F9000 X96.580 Y96.580
G1 F1200 X95.479 Y97.772 E109.94208
G1 X94.452 Y99.070 E110.14069
G1 X93.529 Y100.446 E110.33952
G1 X92.717 Y101.891 E110.53842
G1 X92.022 Y103.393 E110.73702
G1 X91.445 Y104.948 E110.93606
G1 X90.993 Y106.541 E111.13476
G1 X90.667 Y108.166 E111.33365
G1 X90.469 Y109.810 E111.53235
G1 X90.403 Y111.431 E111.72703
G1 X90.399 Y111.494 E111.73461
G1 X90.463 Y113.121 E111.93000
G1 X90.656 Y114.765 E112.12864
G1 X90.976 Y116.391 E112.32750
G1 X91.423 Y117.986 E112.52627
