;FLAVOR:UltiGCode
;TIME:5944
;MATERIAL:7471
;MATERIAL2:0
;NOZZLE_DIAMETER:0.400000
;NOZZLE_DIAMETER2:0.400000

;Layer count: 118
;LAYER:0
M107
G0 F9000 X91.174 Y91.237 Z0.300
;TYPE:SKIRT
G1 F1200 X92.826 Y89.707 E0.27020
G1 X94.496 Y88.385 E0.52579
G1 X94.630 Y88.280 E0.54622
G1 X96.466 Y87.053 E0.81121
G1 X98.468 Y85.928 E1.08678
G1 X100.517 Y84.983 E1.35755
G1 X102.631 Y84.203 E1.62795
G1 X104.800 Y83.591 E1.89839
G1 X107.010 Y83.151 E2.16880
G1 X109.250 Y82.886 E2.43947
G1 X111.500 Y82.799 E2.70967
G1 X113.750 Y82.886 E2.97988
G1 X115.990 Y83.151 E3.25055
G1 X118.200 Y83.591 E3.52096
G1 X120.369 Y84.203 E3.79140
G1 X122.483 Y84.983 E4.06180
G1 X124.530 Y85.926 E4.33225
G1 X126.496 Y87.027 E4.60264
G1 X128.370 Y88.280 E4.87316
G1 X130.139 Y89.674 E5.14343
G1 X131.796 Y91.204 E5.41407
G1 X133.326 Y92.861 E5.68471
G1 X134.720 Y94.630 E5.95498
G1 X135.973 Y96.504 E6.22550
G1 X137.051 Y98.431 E6.49046
G1 X137.932 Y100.334 E6.74210
G1 X138.011 Y100.501 E6.76427
G1 X138.781 Y102.589 E7.03133
G1 X139.396 Y104.754 E7.30141
G1 X139.839 Y106.963 E7.57176
G1 X140.108 Y109.202 E7.84238
G1 X140.193 Y111.306 E8.09506
G1 X140.202 Y111.486 E8.11669
G1 X140.120 Y113.596 E8.37008
G1 X140.112 Y113.764 E8.39026
G1 X139.854 Y115.945 E8.65381
G1 X139.419 Y118.154 E8.92398
G1 X138.810 Y120.323 E9.19432
G1 X138.034 Y122.438 E9.46467
G1 X137.138 Y124.390 E9.72241
G1 X137.065 Y124.544 E9.74286
G1 X135.995 Y126.457 E10.00589
G1 X134.747 Y128.331 E10.27607
G1 X133.431 Y130.006 E10.53169
G1 X133.326 Y130.139 E10.55202
G1 X131.826 Y131.763 E10.81731
G1 X130.174 Y133.293 E11.08751
G1 X128.504 Y134.615 E11.34310
G1 X128.370 Y134.720 E11.36353
G1 X126.534 Y135.947 E11.62852
G1 X124.532 Y137.072 E11.90409
G1 X122.483 Y138.017 E12.17486
G1 X120.369 Y138.797 E12.44526
G1 X118.200 Y139.409 E12.71570
G1 X115.990 Y139.849 E12.98611
G1 X113.750 Y140.114 E13.25678
G1 X111.500 Y140.201 E13.52698
G1 X109.250 Y140.114 E13.79719
G1 X107.010 Y139.849 E14.06786
G1 X104.800 Y139.409 E14.33826
G1 X102.631 Y138.797 E14.60871
G1 X100.517 Y138.017 E14.87910
G1 X98.470 Y137.074 E15.14956
G1 X96.504 Y135.973 E15.41995
G1 X94.630 Y134.720 E15.69047
G1 X92.861 Y133.326 E15.96074
G1 X91.204 Y131.796 E16.23138
G1 X89.674 Y130.139 E16.50202
G1 X88.280 Y128.370 E16.77229
G1 X87.027 Y126.496 E17.04280
G1 X85.949 Y124.569 E17.30777
G1 X85.056 Y122.640 E17.56285
G1 X84.989 Y122.499 E17.58158
G1 X84.219 Y120.411 E17.84864
G1 X83.604 Y118.246 E18.11872
G1 X83.161 Y116.037 E18.38907
G1 X82.892 Y113.798 E18.65969
G1 X82.806 Y111.671 E18.91513
G1 X82.798 Y111.514 E18.93400
G1 X82.880 Y109.404 E19.18739
G1 X82.888 Y109.236 E19.20757
G1 X83.146 Y107.055 E19.47112
G1 X83.581 Y104.846 E19.74129
G1 X84.190 Y102.677 E20.01163
G1 X84.966 Y100.562 E20.28198
G1 X85.862 Y98.610 E20.53971
G1 X85.935 Y98.456 E20.56017
G1 X87.005 Y96.543 E20.82320
G1 X88.253 Y94.669 E21.09338
G1 X89.569 Y92.994 E21.34899
G1 X89.674 Y92.861 E21.36933
G1 X91.174 Y91.237 E21.63462
G10
G0 F9000 X94.432 Y94.489
;TYPE:WALL-INNER
G11
G1 F1200 X95.815 Y93.208 E21.86083
G1 X97.338 Y92.003 E22.09388
G1 X98.880 Y90.973 E22.31640
G1 X100.562 Y90.027 E22.54797
G1 X102.270 Y89.240 E22.77365
G1 X104.063 Y88.579 E23.00296
G1 X105.872 Y88.068 E23.22854
G1 X107.733 Y87.697 E23.45625
G1 X109.604 Y87.476 E23.68233
G1 X111.500 Y87.402 E23.91002
G1 X113.396 Y87.476 E24.13772
G1 X115.267 Y87.697 E24.36380
G1 X117.128 Y88.068 E24.59151
G1 X118.937 Y88.579 E24.81709
G1 X120.730 Y89.240 E25.04640
G1 X122.431 Y90.024 E25.27116
G1 X124.094 Y90.955 E25.49986
G1 X125.659 Y92.001 E25.72575
G1 X127.159 Y93.183 E25.95492
G1 X128.540 Y94.460 E26.18063
G1 X129.814 Y95.838 E26.40583
G1 X130.999 Y97.341 E26.63551
G1 X132.045 Y98.905 E26.86129
G1 X132.950 Y100.523 E27.08376
G1 X133.765 Y102.283 E27.31651
G1 X134.404 Y104.017 E27.53827
G1 X134.920 Y105.832 E27.76470
G1 X135.294 Y107.698 E27.99307
G1 X135.519 Y109.567 E28.21897
G1 X135.598 Y111.509 E28.45220
G1 X135.525 Y113.391 E28.67821
G1 X135.309 Y115.219 E28.89910
G1 X134.940 Y117.092 E29.12818
G1 X134.429 Y118.912 E29.35502
G1 X133.778 Y120.684 E29.58156
G1 X132.978 Y122.427 E29.81170
G1 X132.063 Y124.062 E30.03653
G1 X131.021 Y125.627 E30.26215
G1 X129.821 Y127.155 E30.49530
G1 X128.568 Y128.511 E30.71685
G1 X127.185 Y129.792 E30.94306
G1 X125.662 Y130.997 E31.17611
G1 X124.120 Y132.027 E31.39863
G1 X122.438 Y132.973 E31.63021
G1 X120.730 Y133.760 E31.85588
G1 X118.937 Y134.421 E32.08519
G1 X117.128 Y134.932 E32.31077
G1 X115.267 Y135.303 E32.53848
G1 X113.396 Y135.524 E32.76456
G1 X111.500 Y135.598 E32.99226
G1 X109.604 Y135.524 E33.21995
G1 X107.733 Y135.303 E33.44603
G1 X105.872 Y134.932 E33.67374
G1 X104.063 Y134.421 E33.89932
G1 X102.270 Y133.760 E34.12863
G1 X100.569 Y132.976 E34.35339
G1 X98.906 Y132.045 E34.58210
G1 X97.341 Y130.999 E34.80798
G1 X95.841 Y129.817 E35.03715
G1 X94.460 Y128.540 E35.26286
G1 X93.183 Y127.159 E35.48857
G1 X92.001 Y125.659 E35.71774
G1 X90.955 Y124.095 E35.94353
G1 X90.049 Y122.476 E36.16616
G1 X89.235 Y120.717 E36.39874
G1 X88.596 Y118.983 E36.62050
G1 X88.080 Y117.168 E36.84693
G1 X87.706 Y115.302 E37.07531
G1 X87.481 Y113.432 E37.30133
G1 X87.402 Y111.491 E37.53444
G1 X87.475 Y109.609 E37.76045
G1 X87.691 Y107.781 E37.98134
G1 X88.060 Y105.908 E38.21042
G1 X88.571 Y104.088 E38.43726
G1 X89.222 Y102.316 E38.66380
G1 X90.023 Y100.571 E38.89420
G1 X90.937 Y98.938 E39.11877
G1 X91.979 Y97.373 E39.34439
G1 X93.179 Y95.845 E39.57753
G1 X94.432 Y94.489 E39.79909
G0 F9000 X96.535 Y96.486
G1 F1200 X95.402 Y97.705 E39.99879
G1 X94.371 Y99.011 E40.19846
G1 X93.443 Y100.394 E40.39832
G1 X92.628 Y101.845 E40.59803
G1 X91.928 Y103.355 E40.79775
G1 X91.350 Y104.916 E40.99750
G1 X90.895 Y106.516 E41.19711
G1 X90.568 Y108.150 E41.39708
G1 X90.369 Y109.802 E41.59676
G1 X90.304 Y111.410 E41.78987
G1 X90.299 Y111.485 E41.79889
G1 X90.363 Y113.128 E41.99620
G1 X90.556 Y114.781 E42.19591
G1 X90.878 Y116.415 E42.39576
G1 X91.328 Y118.017 E42.59544
G1 X91.901 Y119.580 E42.79521
G1 X92.596 Y121.093 E42.99501
G1 X93.406 Y122.546 E43.19463
G1 X94.348 Y123.961 E43.39862
G1 X95.380 Y125.269 E43.59855
G1 X96.509 Y126.490 E43.79810
G1 X97.731 Y127.621 E43.99791
G1 X99.039 Y128.652 E44.19777
G1 X100.423 Y129.577 E44.39753
G1 X101.876 Y130.389 E44.59727
G1 X103.387 Y131.086 E44.79695
G1 X104.949 Y131.663 E44.99677
G1 X106.551 Y132.114 E45.19648
G1 X108.184 Y132.440 E45.39631
G1 X109.837 Y132.635 E45.59604
G1 X111.500 Y132.700 E45.79576
G1 X113.163 Y132.635 E45.99547
G1 X114.816 Y132.440 E46.19520
G1 X116.449 Y132.114 E46.39503
G1 X118.051 Y131.663 E46.59474
G1 X119.613 Y131.086 E46.79456
G1 X121.125 Y130.389 E46.99435
G1 X122.577 Y129.577 E47.19399
G1 X123.934 Y128.670 E47.38985
G1 X125.241 Y127.643 E47.58932
G1 X126.465 Y126.514 E47.78914
G1 X127.598 Y125.295 E47.98885
G1 X128.629 Y123.989 E48.18852
G1 X129.557 Y122.606 E48.38838
G1 X130.372 Y121.155 E48.58808
G1 X131.072 Y119.645 E48.78781
G1 X131.650 Y118.084 E48.98756
G1 X132.105 Y116.484 E49.18717
G1 X132.432 Y114.850 E49.38714
G1 X132.631 Y113.198 E49.58681
G1 X132.696 Y111.590 E49.77993
G1 X132.701 Y111.515 E49.78895
G1 X132.637 Y109.872 E49.98626
G1 X132.444 Y108.219 E50.18596
G1 X132.122 Y106.585 E50.38581
G1 X131.672 Y104.983 E50.58549
G1 X131.099 Y103.420 E50.78526
G1 X130.404 Y101.907 E50.98506
G1 X129.594 Y100.454 E51.18468
G1 X128.652 Y99.039 E51.38867
G1 X127.620 Y97.731 E51.58860
G1 X126.491 Y96.510 E51.78816
G1 X125.269 Y95.379 E51.98797
G1 X123.961 Y94.348 E52.18782
G1 X122.577 Y93.423 E52.38758
G1 X121.124 Y92.611 E52.58732
G1 X119.613 Y91.914 E52.78700
G1 X118.051 Y91.337 E52.98682
G1 X116.449 Y90.886 E53.18654
G1 X114.816 Y90.560 E53.38636
G1 X113.163 Y90.365 E53.58610
G1 X111.500 Y90.300 E53.78581
G1 X109.837 Y90.365 E53.98552
G1 X108.184 Y90.560 E54.18526
G1 X106.551 Y90.886 E54.38508
G1 X104.949 Y91.337 E54.58480
G1 X103.387 Y91.914 E54.78462
G1 X101.875 Y92.611 E54.98441
G1 X100.423 Y93.423 E55.18404
G1 X99.066 Y94.330 E55.37991
G1 X97.759 Y95.357 E55.57937
G1 X96.535 Y96.486 E55.77919
G0 F9000 X96.818 Y96.769
G1 F1200 X95.706 Y97.966 E55.97525
G1 X94.694 Y99.247 E56.17115
G1 X93.784 Y100.604 E56.36722
G1 X92.984 Y102.027 E56.56311
G1 X92.298 Y103.509 E56.75908
G1 X91.731 Y105.040 E56.95500
G1 X91.284 Y106.611 E57.15100
G1 X90.963 Y108.213 E57.34706
G1 X90.768 Y109.834 E57.54298
G1 X90.705 Y111.407 E57.73189
G1 X90.700 Y111.489 E57.74175
G1 X90.762 Y113.097 E57.93486
G1 X90.951 Y114.719 E58.13081
G1 X91.268 Y116.322 E58.32690
G1 X91.709 Y117.894 E58.52282
G1 X92.271 Y119.427 E58.71875
G1 X92.953 Y120.912 E58.91485
G1 X93.748 Y122.337 E59.11066
G1 X94.672 Y123.726 E59.31085
G1 X95.684 Y125.009 E59.50694
G1 X96.792 Y126.207 E59.70276
G1 X97.991 Y127.317 E59.89883
G1 X99.274 Y128.328 E60.09485
G1 X100.632 Y129.235 E60.29081
G1 X102.058 Y130.033 E60.48690
G1 X103.540 Y130.717 E60.68277
G1 X105.073 Y131.282 E60.87883
G1 X106.644 Y131.725 E61.07470
G1 X108.246 Y132.044 E61.27071
G1 X109.869 Y132.236 E61.46683
G1 X111.500 Y132.300 E61.66270
G1 X113.131 Y132.236 E61.85857
G1 X114.754 Y132.044 E62.05469
G1 X116.356 Y131.725 E62.25071
G1 X117.927 Y131.282 E62.44658
G1 X119.460 Y130.717 E62.64263
G1 X120.943 Y130.033 E62.83861
G1 X122.368 Y129.235 E63.03460
G1 X123.699 Y128.346 E63.22667
G1 X124.982 Y127.338 E63.42246
G1 X126.182 Y126.231 E63.61838
G1 X127.294 Y125.034 E63.81443
G1 X128.306 Y123.753 E64.01034
G1 X129.216 Y122.396 E64.20640
G1 X130.016 Y120.973 E64.40230
G1 X130.702 Y119.491 E64.59826
G1 X131.269 Y117.960 E64.79418
G1 X131.716 Y116.389 E64.99018
G1 X132.037 Y114.787 E65.18624
G1 X132.232 Y113.166 E65.38217
G1 X132.295 Y111.593 E65.57108
G1 X132.300 Y111.511 E65.58093
G1 X132.238 Y109.903 E65.77404
G1 X132.049 Y108.281 E65.96999
G1 X131.732 Y106.678 E66.16608
G1 X131.291 Y105.106 E66.36200
G1 X130.729 Y103.573 E66.55793
G1 X130.047 Y102.088 E66.75403
G1 X129.252 Y100.663 E66.94984
G1 X128.328 Y99.274 E67.15003
G1 X127.316 Y97.991 E67.34612
G1 X126.208 Y96.793 E67.54194
G1 X125.009 Y95.683 E67.73801
G1 X123.726 Y94.672 E67.93403
G1 X122.368 Y93.765 E68.12999
G1 X120.942 Y92.967 E68.32608
G1 X119.460 Y92.283 E68.52195
G1 X117.927 Y91.718 E68.71801
G1 X116.356 Y91.275 E68.91388
G1 X114.754 Y90.956 E69.10990
G1 X113.131 Y90.764 E69.30601
G1 X111.500 Y90.700 E69.50188
G1 X109.869 Y90.764 E69.69775
G1 X108.246 Y90.956 E69.89387
G1 X106.644 Y91.275 E70.08989
G1 X105.073 Y91.718 E70.28576
G1 X103.540 Y92.283 E70.48181
G1 X102.057 Y92.967 E70.67779
G1 X100.632 Y93.765 E70.87378
G1 X99.301 Y94.654 E71.06585
G1 X98.018 Y95.662 E71.26164
G1 X96.818 Y96.769 E71.45756
G0 F9000 X94.143 Y94.213
G1 F1200 X95.570 Y92.890 E71.69107
G1 X97.089 Y91.689 E71.92344
G1 X98.673 Y90.631 E72.15202
G1 X100.382 Y89.670 E72.38730
G1 X102.128 Y88.865 E72.61802
G1 X103.931 Y88.200 E72.84863
G1 X105.776 Y87.679 E73.07868
G1 X107.672 Y87.302 E73.31066
G1 X109.580 Y87.076 E73.54122
G1 X111.500 Y87.002 E73.77179
G1 X113.420 Y87.076 E74.00236
G1 X115.328 Y87.302 E74.23292
G1 X117.224 Y87.679 E74.46489
G1 X119.069 Y88.200 E74.69495
G1 X120.872 Y88.865 E74.92556
G1 X122.620 Y89.671 E75.15655
G1 X124.303 Y90.613 E75.38799
G1 X125.901 Y91.681 E75.61863
G1 X127.401 Y92.863 E75.84780
G1 X128.823 Y94.177 E76.08014
G1 X130.137 Y95.599 E76.31248
G1 X131.318 Y97.099 E76.54157
G1 X132.387 Y98.697 E76.77228
G1 X133.306 Y100.339 E76.99809
G1 X134.134 Y102.128 E77.23464
G1 X134.784 Y103.888 E77.45979
G1 X135.312 Y105.747 E77.69169
G1 X135.688 Y107.622 E77.92117
G1 X135.919 Y109.542 E78.15323
G1 X135.998 Y111.500 E78.38838
G1 X135.924 Y113.410 E78.61776
G1 X135.702 Y115.292 E78.84516
G1 X135.332 Y117.175 E79.07544
G1 X134.811 Y119.027 E79.30631
G1 X134.146 Y120.840 E79.53804
G1 X133.334 Y122.610 E79.77173
G1 X132.406 Y124.270 E79.99994
G1 X131.345 Y125.863 E80.22962
G1 X130.131 Y127.408 E80.46541
G1 X128.857 Y128.787 E80.69070
G1 X127.430 Y130.110 E80.92421
G1 X125.911 Y131.311 E81.15658
G1 X124.329 Y132.368 E81.38490
G1 X122.618 Y133.330 E81.62044
G1 X120.872 Y134.135 E81.85116
G1 X119.069 Y134.800 E82.08177
G1 X117.224 Y135.321 E82.31183
G1 X115.328 Y135.698 E82.54380
G1 X113.420 Y135.924 E82.77436
G1 X111.500 Y135.998 E83.00493
G1 X109.580 Y135.924 E83.23550
G1 X107.672 Y135.698 E83.46606
G1 X105.776 Y135.321 E83.69804
G1 X103.931 Y134.800 E83.92810
G1 X102.128 Y134.135 E84.15870
G1 X100.380 Y133.329 E84.38969
G1 X98.697 Y132.387 E84.62113
G1 X97.099 Y131.318 E84.85184
G1 X95.599 Y130.137 E85.08094
G1 X94.176 Y128.822 E85.31344
G1 X92.863 Y127.401 E85.54561
G1 X91.680 Y125.899 E85.77505
G1 X90.610 Y124.298 E86.00612
G1 X89.694 Y122.661 E86.23122
G1 X88.866 Y120.872 E86.46778
G1 X88.216 Y119.112 E86.69293
G1 X87.688 Y117.253 E86.92483
G1 X87.312 Y115.378 E87.15431
G1 X87.081 Y113.458 E87.38637
G1 X87.002 Y111.498 E87.62176
G1 X87.076 Y109.590 E87.85089
G1 X87.298 Y107.708 E88.07830
G1 X87.668 Y105.825 E88.30858
G1 X88.189 Y103.973 E88.53945
G1 X88.854 Y102.160 E88.77118
G1 X89.666 Y100.390 E89.00486
G1 X90.594 Y98.730 E89.23308
G1 X91.655 Y97.137 E89.46276
G1 X92.870 Y95.591 E89.69871
G1 X94.143 Y94.213 E89.92384
G0 F9000 X93.865 Y93.924
G1 F1200 X95.298 Y92.596 E90.15828
G1 X96.851 Y91.368 E90.39587
G1 X98.455 Y90.294 E90.62751
G1 X100.196 Y89.315 E90.86719
G1 X101.970 Y88.498 E91.10156
G1 X103.814 Y87.818 E91.33741
G1 X105.689 Y87.288 E91.57123
G1 X107.598 Y86.908 E91.80480
G1 X109.543 Y86.678 E92.03983
G1 X111.500 Y86.602 E92.27484
G1 X113.457 Y86.678 E92.50986
G1 X115.402 Y86.908 E92.74489
G1 X117.311 Y87.288 E92.97846
G1 X119.186 Y87.818 E93.21228
G1 X121.030 Y88.498 E93.44812
G1 X122.800 Y89.313 E93.68196
G1 X124.514 Y90.273 E93.91770
G1 X126.139 Y91.359 E94.15224
G1 X127.665 Y92.562 E94.38542
G1 X129.106 Y93.894 E94.62090
G1 X130.438 Y95.335 E94.85638
G1 X131.641 Y96.861 E95.08956
G1 X132.727 Y98.486 E95.32410
G1 X133.663 Y100.159 E95.55414
G1 X134.497 Y101.958 E95.79209
G1 X135.166 Y103.771 E96.02399
G1 X135.700 Y105.650 E96.25840
G1 X136.082 Y107.553 E96.49131
G1 X136.317 Y109.504 E96.72713
G1 X136.398 Y111.484 E96.96493
G1 X136.323 Y113.435 E97.19922
G1 X136.098 Y115.351 E97.43072
G1 X135.720 Y117.272 E97.66566
G1 X135.190 Y119.158 E97.90075
G1 X134.517 Y120.992 E98.13517
G1 X133.696 Y122.781 E98.37138
G1 X132.748 Y124.478 E98.60464
G1 X131.670 Y126.096 E98.83795
G1 X130.431 Y127.673 E99.07861
G1 X129.135 Y129.076 E99.30781
G1 X127.702 Y130.404 E99.54226
G1 X126.149 Y131.632 E99.77984
G1 X124.545 Y132.706 E100.01148
G1 X122.804 Y133.685 E100.25117
G1 X121.030 Y134.502 E100.48554
G1 X119.186 Y135.182 E100.72138
G1 X117.311 Y135.712 E100.95520
G1 X115.402 Y136.092 E101.18877
G1 X113.457 Y136.322 E101.42380
G1 X111.500 Y136.398 E101.65882
G1 X109.543 Y136.322 E101.89383
G1 X107.598 Y136.092 E102.12886
G1 X105.689 Y135.712 E102.36243
G1 X103.814 Y135.182 E102.59625
G1 X101.970 Y134.502 E102.83210
G1 X100.200 Y133.687 E103.06593
G1 X98.486 Y132.727 E103.30168
G1 X96.861 Y131.641 E103.53621
G1 X95.335 Y130.438 E103.76939
G1 X93.894 Y129.106 E104.00487
G1 X92.562 Y127.665 E104.24035
G1 X91.359 Y126.139 E104.47353
G1 X90.273 Y124.514 E104.70807
G1 X89.337 Y122.841 E104.93811
G1 X88.503 Y121.042 E105.17606
G1 X87.834 Y119.229 E105.40796
G1 X87.300 Y117.350 E105.64237
G1 X86.917 Y115.443 E105.87578
G1 X86.683 Y113.496 E106.11110
G1 X86.602 Y111.516 E106.34890
G1 X86.677 Y109.565 E106.58319
G1 X86.902 Y107.649 E106.81469
G1 X87.280 Y105.728 E107.04963
G1 X87.810 Y103.842 E107.28472
G1 X88.483 Y102.008 E107.51915
G1 X89.304 Y100.219 E107.75536
G1 X90.252 Y98.522 E107.98862
G1 X91.330 Y96.904 E108.22192
G1 X92.569 Y95.327 E108.46259
G1 X93.865 Y93.924 E108.69178
G0 F9000 X97.100 Y97.053
G1 F1200 X96.010 Y98.226 E108.88393
G1 X95.018 Y99.482 E109.07599
G1 X94.125 Y100.813 E109.26833
G1 X93.340 Y102.210 E109.46063
G1 X92.668 Y103.662 E109.65262
G1 X92.111 Y105.164 E109.84486
G1 X91.673 Y106.705 E110.03710
G1 X91.358 Y108.276 E110.22937
G1 X91.167 Y109.866 E110.42154
G1 X91.103 Y111.443 E110.61094
G1 X91.100 Y111.493 E110.61695
G1 X91.161 Y113.066 E110.80585
G1 X91.347 Y114.657 E110.99807
G1 X91.657 Y116.229 E111.19035
G1 X92.090 Y117.771 E111.38254
G1 X92.641 Y119.275 E111.57475
G1 X93.310 Y120.731 E111.76703
