;FLAVOR:UltiGCode
;TIME:580
;MATERIAL:676
;MATERIAL2:0
;NOZZLE_DIAMETER:0.400000
;NOZZLE_DIAMETER2:0.400000

;Layer count: 38
;LAYER:0
M107
G0 F9000 X128.480 Y119.718 Z0.300
;TYPE:SKIRT
G1 F1200 X152.063 Y119.718 E2.82996
G1 X152.063 Y143.318 E5.66196
G1 X128.463 Y143.318 E8.49396
G1 X128.463 Y128.011 E10.33080
G1 X128.480 Y119.718 E11.32596
G0 F9000 X128.879 Y120.118
G1 F1200 X151.663 Y120.118 E14.06004
G1 X151.663 Y142.918 E16.79604
G1 X128.863 Y142.918 E19.53204
G1 X128.863 Y128.012 E21.32076
G1 X128.879 Y120.118 E22.26804
G0 F9000 X129.278 Y120.518
G1 F1200 X151.263 Y120.518 E24.90624
G1 X151.263 Y142.518 E27.54624
G1 X129.263 Y142.518 E30.18624
G1 X129.263 Y128.012 E31.92696
G1 X129.278 Y120.518 E32.82625
G0 F9000 X129.677 Y120.918
G1 F1200 X150.863 Y120.918 E35.36857
G1 X150.863 Y142.118 E37.91257
G1 X129.663 Y142.118 E40.45657
G1 X129.663 Y128.012 E42.14929
G1 X129.677 Y120.918 E43.00057
G0 F9000 X130.076 Y121.318
G1 F1200 X150.463 Y121.318 E45.44701
G1 X150.463 Y141.718 E47.89501
G1 X130.063 Y141.718 E50.34301
G1 X130.063 Y128.013 E51.98761
G1 X130.076 Y121.318 E52.79101
G0 F9000 X130.476 Y121.718
G1 F1200 X150.063 Y121.718 E55.14145
G1 X150.063 Y141.318 E57.49345
G1 X130.463 Y141.318 E59.84545
G1 X130.463 Y128.013 E61.44205
G1 X130.476 Y121.718 E62.19745
G0 F9000 X130.875 Y122.118
G1 F1200 X149.663 Y122.118 E64.45201
G1 X149.663 Y140.918 E66.70801
G1 X130.863 Y140.918 E68.96401
G1 X130.863 Y128.014 E70.51249
G1 X130.875 Y122.118 E71.22001
G0 F9000 X131.274 Y122.518
G1 F1200 X149.263 Y122.518 E73.37869
G1 X149.263 Y140.518 E75.53869
G1 X131.263 Y140.518 E77.69869
G1 X131.263 Y128.014 E79.19917
G1 X131.274 Y122.518 E79.85869
G0 F9000 X131.673 Y122.918
G1 F1200 X148.863 Y122.918 E81.92149
G1 X148.863 Y140.118 E83.98549
G1 X131.663 Y140.118 E86.04949
G1 X131.663 Y128.014 E87.50197
G1 X131.673 Y122.918 E88.11349
G0 F9000 X132.072 Y123.318
G1 F1200 X148.463 Y123.318 E90.08041
G1 X148.463 Y139.718 E92.04841
G1 X132.063 Y139.718 E94.01641
G1 X132.063 Y128.015 E95.42077
G1 X132.072 Y123.318 E95.98442
G0 F9000 X132.472 Y123.718
G1 F1200 X148.063 Y123.718 E97.85534
G1 X148.063 Y139.318 E99.72734
G1 X132.463 Y139.318 E101.59934
G1 X132.463 Y128.015 E102.95570
G1 X132.472 Y123.718 E103.47134
G0 F9000 X132.871 Y124.118
G1 F1200 X147.663 Y124.118 E105.24638
G1 X147.663 Y138.918 E107.02238
G1 X132.863 Y138.918 E108.79838
G1 X132.863 Y128.016 E110.10662
G1 X132.871 Y124.118 E110.57438
G0 F9000 X133.270 Y124.518
G1 F1200 X147.263 Y124.518 E112.25354
G1 X147.263 Y138.518 E113.93354
G1 X133.263 Y138.518 E115.61354
G1 X133.263 Y128.016 E116.87378
G1 X133.270 Y124.518 E117.29354
G0 F9000 X133.669 Y124.918
G1 F1200 X146.863 Y124.918 E118.87682
G1 X146.863 Y138.118 E120.46082
G1 X133.663 Y138.118 E122.04482
G1 X133.663 Y128.016 E123.25706
G1 X133.669 Y124.918 E123.62882
G0 F9000 X134.068 Y125.318
G1 F1200 X146.463 Y125.318 E125.11622
G1 X146.463 Y137.718 E126.60422
G1 X134.063 Y137.718 E128.09222
G1 X134.063 Y128.017 E129.25634
G1 X134.068 Y125.318 E129.58022
G0 F9000 X134.463 Y128.017
G1 F1200 X134.468 Y125.718 E129.85610
G1 X146.063 Y125.718 E131.24750
G1 X146.063 Y137.318 E132.63950
G1 X134.463 Y137.318 E134.03150
G1 X134.463 Y128.017 E135.14762
G0 F9000 X134.863 Y128.018
G1 F1200 X134.867 Y126.118 E135.37562
G1 X145.663 Y126.118 E136.67114
G1 X145.663 Y136.918 E137.96714
G1 X134.863 Y136.918 E139.26314
G1 X134.863 Y128.018 E140.33114
G0 F9000 X135.263 Y128.018
G1 F1200 X135.266 Y126.518 E140.51114
G1 X145.263 Y126.518 E141.71078
G1 X145.263 Y136.518 E142.91078
G1 X135.263 Y136.518 E144.11078
G1 X135.263 Y128.018 E145.13078
G0 F9000 X135.663 Y128.018
G1 F1200 X135.665 Y126.918 E145.26278
G1 X144.863 Y126.918 E146.36654
G1 X144.863 Y136.118 E147.47054
G1 X135.663 Y136.118 E148.57454
G1 X135.663 Y128.018 E149.54654
G0 F9000 X136.064 Y127.318
G1 F1200 X144.463 Y127.318 E150.55442
G1 X144.463 Y135.718 E151.56242
G1 X136.063 Y135.718 E152.57042
G1 X136.064 Y127.318 E153.57842
G0 F9000 X136.763 Y127.928
G0 X137.263 Y128.518
;TYPE:WALL-INNER
G1 F1200 X143.263 Y128.518 E154.29842
G1 X143.263 Y134.518 E155.01842
G1 X137.263 Y134.518 E155.73842
G1 X137.263 Y128.518 E156.45842
G0 F9000 X136.863 Y128.118
G1 F1200 X143.663 Y128.118 E157.27442
G1 X143.663 Y134.918 E158.09042
G1 X136.863 Y134.918 E158.90642
G1 X136.863 Y128.118 E159.72242
G0 F9000 X136.464 Y127.718
;TYPE:WALL-OUTER
G1 F1200 X144.063 Y127.718 E160.63430
G1 X144.063 Y135.318 E161.54630
G1 X136.463 Y135.318 E162.45830
G1 X136.464 Y127.718 E163.37030
G0 F9000 X137.426 Y128.658
;TYPE:SKIN
G1 F900 X143.122 Y134.354 E164.33694
G0 F9000 X142.580 Y134.377
G1 F900 X137.402 Y129.199 E165.21568
G0 F9000 X137.402 Y129.765
G1 F900 X142.014 Y134.377 E165.99836
G0 F9000 X141.448 Y134.377
G1 F900 X137.402 Y130.331 E166.68499
G0 F9000 X137.402 Y130.896
G1 F900 X140.883 Y134.377 E167.27574
G0 F9000 X140.317 Y134.377
G1 F900 X137.402 Y131.462 E167.77043
G0 F9000 X137.402 Y132.028
G1 F900 X139.751 Y134.377 E168.16907
G0 F9000 X139.186 Y134.377
G1 F900 X137.402 Y132.593 E168.47182
G0 F9000 X137.402 Y133.159
G1 F900 X138.620 Y134.377 E168.67852
G0 F9000 X138.054 Y134.377
G1 F900 X137.402 Y133.725 E168.78917
G0 F9000 X137.402 Y134.290
G1 F900 X137.489 Y134.377 E168.80394
G0 F9000 X143.122 Y133.788
G1 F900 X137.991 Y128.658 E169.67461
G0 F9000 X138.557 Y128.658
G1 F900 X143.122 Y133.223 E170.44932
G0 F9000 X143.122 Y132.657
G1 F900 X139.123 Y128.658 E171.12797
G0 F9000 X139.688 Y128.658
G1 F900 X143.122 Y132.091 E171.71065
G0 F9000 X143.122 Y131.526
G1 F900 X140.254 Y128.658 E172.19737
G0 F9000 X140.820 Y128.658
G1 F900 X143.122 Y130.960 E172.58803
G0 F9000 X143.122 Y130.394
G1 F900 X141.386 Y128.658 E172.88264
G0 F9000 X141.951 Y128.658
G1 F900 X143.122 Y129.829 E173.08137
G0 F9000 X143.122 Y129.263
G1 F900 X142.517 Y128.658 E173.18404
;LAYER:1
M106 S127
G0 F9000 X143.266 Y128.515 Z0.400
;TYPE:WALL-INNER
G1 F1800 X143.266 Y134.521 E173.42368
G1 X137.260 Y134.521 E173.66332
G1 X137.260 Y128.515 E173.90296
G1 X143.266 Y128.515 E174.14260
G0 F9000 X143.665 Y128.116
G1 F1800 X143.665 Y134.920 E174.41408
G1 X136.861 Y134.920 E174.68556
G1 X136.862 Y128.116 E174.95704
G1 X143.665 Y128.116 E175.22847
G0 F9000 X144.064 Y127.717
;TYPE:WALL-OUTER
G1 F1320 X144.064 Y135.319 E175.53179
G1 X136.462 Y135.319 E175.83511
G1 X136.463 Y127.717 E176.13843
G1 X144.064 Y127.717 E176.44171
G0 F9000 X143.042 Y128.655
;TYPE:SKIN
G1 F900 X137.399 Y134.297 E176.76010
G0 F9000 X137.880 Y134.381
G1 F900 X143.125 Y129.136 E177.05606
G0 F9000 X143.125 Y129.700
G1 F900 X138.444 Y134.381 E177.32020
G0 F9000 X139.008 Y134.381
G1 F900 X143.125 Y130.264 E177.55251
G0 F9000 X143.125 Y130.828
G1 F900 X139.572 Y134.381 E177.75300
G0 F9000 X137.399 Y133.733
G1 F900 X142.477 Y128.655 E178.03953
G0 F9000 X141.913 Y128.655
G1 F900 X137.399 Y133.169 E178.29424
G0 F9000 X137.399 Y132.605
G1 F900 X141.349 Y128.655 E178.51713
G0 F9000 X140.784 Y128.655
G1 F900 X137.399 Y132.040 E178.70814
G0 F9000 X137.399 Y131.476
G1 F900 X140.220 Y128.655 E178.86732
G0 F9000 X143.125 Y131.393
G1 F900 X140.137 Y134.381 E179.03592
G0 F9000 X140.701 Y134.381
G1 F900 X143.125 Y131.957 E179.17270
G0 F9000 X143.125 Y132.521
G1 F900 X141.265 Y134.381 E179.27766
G0 F9000 X141.830 Y134.381
G1 F900 X143.125 Y133.085 E179.35076
G0 F9000 X143.125 Y133.650
G1 F900 X142.394 Y134.381 E179.39201
G0 F9000 X142.958 Y134.381
G1 F900 X143.125 Y134.214 E179.40143
G0 F9000 X139.656 Y128.655
G1 F900 X137.399 Y130.912 E179.52879
G0 F9000 X137.399 Y130.348
G1 F900 X139.092 Y128.655 E179.62432
G0 F9000 X138.527 Y128.655
G1 F900 X137.399 Y129.783 E179.68797
G0 F9000 X137.399 Y129.219
G1 F900 X137.963 Y128.655 E179.71979
;LAYER:2
M106 S255
G0 F9000 X137.260 Y128.515 Z0.500
;TYPE:WALL-INNER
G1 F2400 X143.266 Y128.515 E179.95943
G1 X143.266 Y134.521 E180.19907
G1 X137.260 Y134.521 E180.43871
G1 X137.260 Y128.515 E180.67835
G0 F9000 X136.862 Y128.116
G1 F2400 X143.665 Y128.116 E180.94979
G1 X143.665 Y134.920 E181.22127
G1 X136.861 Y134.920 E181.49275
G1 X136.862 Y128.116 E181.76423
G0 F9000 X136.463 Y127.717
;TYPE:WALL-OUTER
G1 F1500 X144.064 Y127.717 E182.06751
G1 X144.064 Y135.319 E182.37083
G1 X136.462 Y135.319 E182.67415
G1 X136.463 Y127.717 E182.97747
G0 F9000 X137.400 Y128.655
;TYPE:SKIN
G1 F900 X143.125 Y134.379 E183.30048
G0 F9000 X142.562 Y134.381
G1 F900 X137.399 Y129.218 E183.59182
G0 F9000 X137.399 Y129.782
G1 F900 X141.998 Y134.381 E183.85133
G0 F9000 X141.434 Y134.381
G1 F900 X137.399 Y130.346 E184.07901
G0 F9000 X137.399 Y130.910
G1 F900 X140.869 Y134.381 E184.27484
G0 F9000 X140.305 Y134.381
G1 F900 X137.399 Y131.475 E184.43882
G0 F9000 X137.399 Y132.039
G1 F900 X139.741 Y134.381 E184.57097
G0 F9000 X139.176 Y134.381
G1 F900 X137.399 Y132.603 E184.67127
G0 F9000 X137.399 Y133.168
G1 F900 X138.612 Y134.381 E184.73971
G0 F9000 X138.048 Y134.381
G1 F900 X137.399 Y133.732 E184.77634
G0 F9000 X137.399 Y134.296
G1 F900 X137.484 Y134.381 E184.78113
G0 F9000 X143.125 Y133.815
G1 F900 X137.965 Y128.655 E185.07230
G0 F9000 X138.529 Y128.655
G1 F900 X143.125 Y133.251 E185.33163
G0 F9000 X143.125 Y132.687
G1 F900 X139.093 Y128.655 E185.55915
G0 F9000 X139.657 Y128.655
G1 F900 X143.125 Y132.122 E185.75481
G0 F9000 X143.125 Y131.558
G1 F900 X140.222 Y128.655 E185.91862
G0 F9000 X140.786 Y128.655
G1 F900 X143.125 Y130.994 E186.05060
G0 F9000 X143.125 Y130.430
G1 F900 X141.350 Y128.655 E186.15076
G0 F9000 X141.914 Y128.655
G1 F900 X143.125 Y129.865 E186.21906
G0 F9000 X143.125 Y129.301
G1 F900 X142.479 Y128.655 E186.25552
G0 F9000 X143.043 Y128.655
G1 F900 X143.125 Y128.737 E186.26014
;LAYER:3
G0 F9000 X143.266 Y128.515 Z0.600
;TYPE:WALL-INNER
G1 F3000 X143.266 Y134.521 E186.49978
G1 X137.260 Y134.521 E186.73942
G1 X137.261 Y128.515 E186.97906
G1 X143.266 Y128.515 E187.21866
G0 F9000 X143.665 Y128.116
G1 F3000 X143.665 Y134.920 E187.49014
G1 X136.861 Y134.920 E187.76162
G1 X136.862 Y128.116 E188.03310
G1 X143.665 Y128.116 E188.30454
G0 F9000 X144.064 Y127.717
;TYPE:WALL-OUTER
G1 F1620 X144.064 Y135.319 E188.60786
G1 X136.462 Y135.319 E188.91118
G1 X136.463 Y127.717 E189.21450
G1 X144.064 Y127.717 E189.51778
G0 F9000 X143.042 Y128.655
;TYPE:SKIN
G1 F900 X137.400 Y134.297 E189.83614
G0 F9000 X137.880 Y134.381
G1 F900 X143.125 Y129.136 E190.13210
G0 F9000 X143.125 Y129.700
G1 F900 X138.444 Y134.381 E190.39624
G0 F9000 X139.008 Y134.381
G1 F900 X143.125 Y130.264 E190.62855
G0 F9000 X143.125 Y130.828
G1 F900 X139.572 Y134.381 E190.82903
G0 F9000 X137.400 Y133.732
G1 F900 X142.477 Y128.655 E191.11551
G0 F9000 X141.913 Y128.655
G1 F900 X137.400 Y133.168 E191.37017
G0 F9000 X137.400 Y132.604
G1 F900 X141.349 Y128.655 E191.59300
G0 F9000 X140.784 Y128.655
G1 F900 X137.400 Y132.040 E191.78398
G0 F9000 X137.400 Y131.475
G1 F900 X140.220 Y128.655 E191.94310
G0 F9000 X143.125 Y131.393
G1 F900 X140.137 Y134.381 E192.11170
G0 F9000 X140.701 Y134.381
G1 F900 X143.125 Y131.957 E192.24848
G0 F9000 X143.125 Y132.521
G1 F900 X141.265 Y134.381 E192.35344
G0 F9000 X141.830 Y134.381
G1 F900 X143.125 Y133.085 E192.42654
G0 F9000 X143.125 Y133.650
G1 F900 X142.394 Y134.381 E192.46779
G0 F9000 X142.958 Y134.381
G1 F900 X143.125 Y134.214 E192.47721
G0 F9000 X139.656 Y128.655
G1 F900 X137.400 Y130.910 E192.60448
G0 F9000 X137.400 Y130.346
G1 F900 X139.092 Y128.655 E192.69993
G0 F9000 X138.527 Y128.655
G1 F900 X137.400 Y129.782 E192.76352
G0 F9000 X137.400 Y129.218
G1 F900 X137.963 Y128.655 E192.79529
;LAYER:4
G0 F9000 X137.261 Y128.515 Z0.700
;TYPE:WALL-INNER
G1 F3600 X143.266 Y128.515 E193.03489
G1 X143.266 Y134.521 E193.27453
G1 X137.260 Y134.521 E193.51417
G1 X137.261 Y128.515 E193.75381
G0 F9000 X136.862 Y128.116
G1 F3600 X143.665 Y128.116 E194.02525
G1 X143.665 Y134.920 E194.29673
G1 X136.861 Y134.920 E194.56821
G1 X136.862 Y128.116 E194.83969
G0 F9000 X136.463 Y127.717
;TYPE:WALL-OUTER
G1 F1800 X144.064 Y127.717 E195.14297
G1 X144.064 Y135.319 E195.44629
G1 X136.462 Y135.319 E195.74961
G1 X136.463 Y127.717 E196.05293
G0 F9000 X137.400 Y128.655
;TYPE:SKIN
G1 F900 X143.125 Y134.379 E196.37594
G0 F9000 X142.562 Y134.381
G1 F900 X137.400 Y129.218 E196.66725
G0 F9000 X137.400 Y129.783
G1 F900 X141.998 Y134.381 E196.92670
G0 F9000 X141.434 Y134.381
G1 F900 X137.400 Y130.347 E197.15433
G0 F9000 X137.400 Y130.911
G1 F900 X140.869 Y134.381 E197.35010
G0 F9000 X140.305 Y134.381
G1 F900 X137.400 Y131.475 E197.51405
G0 F9000 X137.399 Y132.039
G1 F900 X139.741 Y134.381 E197.64620
G0 F9000 X139.176 Y134.381
G1 F900 X137.399 Y132.603 E197.74650
G0 F9000 X137.399 Y133.168
G1 F900 X138.612 Y134.381 E197.81495
G0 F9000 X138.048 Y134.381
G1 F900 X137.399 Y133.732 E197.85157
G0 F9000 X137.399 Y134.296
G1 F900 X137.484 Y134.381 E197.85637
G0 F9000 X143.125 Y133.815
G1 F900 X137.965 Y128.655 E198.14753
G0 F9000 X138.529 Y128.655
G1 F900 X143.125 Y133.251 E198.40687
G0 F9000 X143.125 Y132.687
G1 F900 X139.093 Y128.655 E198.63438
G0 F9000 X139.657 Y128.655
G1 F900 X143.125 Y132.122 E198.83004
G0 F9000 X143.125 Y131.558
G1 F900 X140.222 Y128.655 E198.99385
G0 F9000 X140.786 Y128.655
G1 F900 X143.125 Y130.994 E199.12583
G0 F9000 X143.125 Y130.430
G1 F900 X141.350 Y128.655 E199.22599
G0 F9000 X141.914 Y128.655
G1 F900 X143.125 Y129.865 E199.29430
G0 F9000 X143.125 Y129.301
G1 F900 X142.479 Y128.655 E199.33075
G0 F9000 X143.043 Y128.655
G1 F900 X143.125 Y128.737 E199.33538
;LAYER:5
G0 F9000 X143.266 Y128.515 Z0.800
;TYPE:WALL-INNER
G1 F3600 X143.266 Y134.521 E199.57502
G1 X137.260 Y134.521 E199.81466
G1 X137.261 Y128.515 E200.05430
G1 X143.266 Y128.515 E200.29389
G0 F9000 X143.665 Y128.116
G1 F3600 X143.665 Y134.920 E200.56537
G1 X136.861 Y134.920 E200.83685
G1 X136.862 Y128.116 E201.10833
G1 X143.665 Y128.116 E201.37977
G0 F9000 X144.064 Y127.717
;TYPE:WALL-OUTER
G1 F1800 X144.064 Y135.319 E201.68309
G1 X136.462 Y135.319 E201.98641
G1 X136.463 Y127.717 E202.28973
G1 X144.064 Y127.717 E202.59301
G0 F9000 X143.042 Y128.655
;TYPE:SKIN
G1 F900 X137.400 Y134.297 E202.91137
G0 F9000 X137.880 Y134.381
G1 F900 X143.125 Y129.136 E203.20733
G0 F9000 X143.125 Y129.700
G1 F900 X138.444 Y134.381 E203.47147
G0 F9000 X139.008 Y134.381
G1 F900 X143.125 Y130.264 E203.70378
G0 F9000 X143.125 Y130.828
G1 F900 X139.572 Y134.381 E203.90427
G0 F9000 X137.400 Y133.732
G1 F900 X142.477 Y128.655 E204.19075
G0 F9000 X141.913 Y128.655
G1 F900 X137.400 Y133.168 E204.44540
G0 F9000 X137.400 Y132.604
G1 F900 X141.349 Y128.655 E204.66823
G0 F9000 X140.784 Y128.655
G1 F900 X137.400 Y132.040 E204.85921
G0 F9000 X137.400 Y131.475
G1 F900 X140.220 Y128.655 E205.01833
G0 F9000 X143.125 Y131.393
G1 F900 X140.137 Y134.381 E205.18694
G0 F9000 X140.701 Y134.381
G1 F900 X143.125 Y131.957 E205.32372
G0 F9000 X143.125 Y132.521
G1 F900 X141.265 Y134.381 E205.42867
G0 F9000 X141.830 Y134.381
G1 F900 X143.125 Y133.085 E205.50177
G0 F9000 X143.125 Y133.650
G1 F900 X142.394 Y134.381 E205.54302
G0 F9000 X142.958 Y134.381
G1 F900 X143.125 Y134.214 E205.55245
G0 F9000 X139.656 Y128.655
G1 F900 X137.400 Y130.910 E205.67972
G0 F9000 X137.400 Y130.346
G1 F900 X139.092 Y128.655 E205.77516
G0 F9000 X138.527 Y128.655
G1 F900 X137.400 Y129.782 E205.83876
G0 F9000 X137.400 Y129.218
G1 F900 X137.963 Y128.655 E205.87053
;LAYER:6
G0 F9000 X137.261 Y128.515 Z0.900
;TYPE:WALL-INNER
G1 F3600 X143.266 Y128.515 E206.11012
G1 X143.266 Y134.521 E206.34976
G1 X137.260 Y134.521 E206.58940
G1 X137.261 Y128.515 E206.82904
G0 F9000 X136.862 Y128.116
G1 F3600 X143.665 Y128.116 E207.10048
G1 X143.665 Y134.920 E207.37196
G1 X136.861 Y134.920 E207.64344
G1 X136.862 Y128.116 E207.91492
G0 F9000 X136.463 Y127.717
;TYPE:WALL-OUTER
G1 F1800 X144.064 Y127.717 E208.21820
G1 X144.064 Y135.319 E208.52152
G1 X136.462 Y135.319 E208.82484
G1 X136.463 Y127.717 E209.12816
G0 F9000 X137.400 Y128.655
;TYPE:SKIN
G1 F900 X143.125 Y134.379 E209.45118
G0 F9000 X142.562 Y134.381
G1 F900 X137.400 Y129.218 E209.74248
G0 F9000 X137.400 Y129.783
G1 F900 X141.998 Y134.381 E210.00193
G0 F9000 X141.434 Y134.381
G1 F900 X137.400 Y130.347 E210.22956
G0 F9000 X137.400 Y130.911
G1 F900 X140.869 Y134.381 E210.42534
G0 F9000 X140.305 Y134.381
G1 F900 X137.400 Y131.475 E210.58928
G0 F9000 X137.399 Y132.039
