;FLAVOR:UltiGCode
;TIME:3644
;MATERIAL:5044
;MATERIAL2:0
;NOZZLE_DIAMETER:0.400000
;NOZZLE_DIAMETER2:0.400000

;Layer count: 178
;LAYER:0
M107
G0 F9000 X93.730 Y93.768 Z0.300
;TYPE:SKIRT
G1 F1200 X95.190 Y92.415 E0.23886
G1 X96.743 Y91.189 E0.47630
G1 X98.382 Y90.094 E0.71283
G1 X100.101 Y89.131 E0.94928
G1 X101.896 Y88.304 E1.18644
G1 X109.700 Y85.434 E2.18424
G1 X109.700 Y84.110 E2.34312
G1 X111.500 Y84.772 E2.57326
G1 X113.300 Y84.110 E2.80341
G1 X113.300 Y85.434 E2.96229
G1 X121.104 Y88.304 E3.96009
G1 X122.899 Y89.131 E4.19725
G1 X124.618 Y90.094 E4.43369
G1 X126.257 Y91.189 E4.67023
G1 X127.807 Y92.412 E4.90716
G1 X129.252 Y93.748 E5.14331
G1 X130.572 Y95.176 E5.37667
G1 X131.794 Y96.721 E5.61305
G1 X132.891 Y98.360 E5.84972
G1 X133.854 Y100.075 E6.08574
G1 X134.684 Y101.867 E6.32273
G1 X135.368 Y103.719 E6.55964
G1 X135.905 Y105.613 E6.79588
G1 X136.291 Y107.547 E7.03254
G1 X136.524 Y109.503 E7.26892
G1 X136.592 Y111.164 E7.46841
G1 X136.607 Y111.446 E7.50229
G1 X136.539 Y113.194 E7.71221
G1 X136.522 Y113.520 E7.75139
G1 X136.300 Y115.401 E7.97867
G1 X135.919 Y117.332 E8.21486
G1 X135.386 Y119.229 E8.45131
G1 X134.705 Y121.083 E8.68833
G1 X133.881 Y122.873 E8.92479
G1 X132.921 Y124.592 E9.16106
G1 X131.826 Y126.235 E9.39800
G1 X130.605 Y127.785 E9.63478
G1 X129.270 Y129.232 E9.87103
G1 X127.810 Y130.585 E10.10989
G1 X126.257 Y131.811 E10.34732
G1 X124.618 Y132.906 E10.58386
G1 X122.899 Y133.869 E10.82030
G1 X121.104 Y134.696 E11.05746
G1 X113.300 Y137.566 E12.05526
G1 X113.300 Y138.890 E12.21414
G1 X111.500 Y138.228 E12.44429
G1 X109.700 Y138.890 E12.67443
G1 X109.700 Y137.566 E12.83331
G1 X101.896 Y134.696 E13.83112
G1 X100.101 Y133.869 E14.06828
G1 X98.382 Y132.906 E14.30472
G1 X96.743 Y131.811 E14.54126
G1 X95.193 Y130.588 E14.77818
G1 X93.748 Y129.252 E15.01434
G1 X92.428 Y127.824 E15.24770
G1 X91.206 Y126.279 E15.48408
G1 X90.109 Y124.640 E15.72075
G1 X89.146 Y122.925 E15.95677
G1 X88.316 Y121.133 E16.19376
G1 X87.632 Y119.281 E16.43067
G1 X87.095 Y117.387 E16.66691
G1 X86.709 Y115.453 E16.90357
G1 X86.476 Y113.497 E17.13995
G1 X86.408 Y111.835 E17.33955
G1 X86.393 Y111.554 E17.37332
G1 X86.461 Y109.806 E17.58324
G1 X86.478 Y109.480 E17.62241
G1 X86.700 Y107.599 E17.84970
G1 X87.081 Y105.668 E18.08589
G1 X87.614 Y103.771 E18.32234
G1 X88.295 Y101.917 E18.55935
G1 X89.119 Y100.127 E18.79582
G1 X90.079 Y98.408 E19.03209
G1 X91.174 Y96.765 E19.26902
G1 X92.395 Y95.215 E19.50580
G1 X93.730 Y93.768 E19.74205
G0 F9000 X94.013 Y94.051
G1 F1200 X95.450 Y92.719 E19.97718
G1 X96.978 Y91.513 E20.21077
G1 X98.592 Y90.436 E20.44361
G1 X100.283 Y89.488 E20.67624
G1 X102.049 Y88.674 E20.90959
G1 X110.100 Y85.713 E21.93898
G1 X110.100 Y84.683 E22.06258
G1 X111.500 Y85.198 E22.24159
G1 X112.900 Y84.683 E22.42059
G1 X112.900 Y85.713 E22.54419
G1 X120.951 Y88.674 E23.57358
G1 X122.717 Y89.488 E23.80693
G1 X124.408 Y90.436 E24.03956
G1 X126.022 Y91.513 E24.27240
G1 X127.547 Y92.716 E24.50549
G1 X128.969 Y94.031 E24.73791
G1 X130.268 Y95.437 E24.96762
G1 X131.470 Y96.957 E25.20016
G1 X132.549 Y98.569 E25.43293
G1 X133.497 Y100.257 E25.66525
G1 X134.314 Y102.021 E25.89853
G1 X134.987 Y103.843 E26.13161
G1 X135.515 Y105.707 E26.36409
G1 X135.895 Y107.610 E26.59696
G1 X136.125 Y109.535 E26.82960
G1 X136.188 Y111.092 E27.01659
G1 X136.207 Y111.449 E27.05949
G1 X136.139 Y113.176 E27.26689
G1 X136.123 Y113.486 E27.30414
G1 X135.904 Y115.339 E27.52805
G1 X135.529 Y117.239 E27.76045
G1 X135.005 Y119.106 E27.99315
G1 X134.335 Y120.930 E28.22633
G1 X133.524 Y122.691 E28.45898
G1 X132.580 Y124.383 E28.69148
G1 X131.502 Y126.000 E28.92469
G1 X130.301 Y127.526 E29.15772
G1 X128.987 Y128.949 E29.39015
G1 X127.550 Y130.281 E29.62527
G1 X126.022 Y131.487 E29.85886
G1 X124.408 Y132.564 E30.09171
G1 X122.717 Y133.512 E30.32434
G1 X120.951 Y134.326 E30.55769
G1 X112.900 Y137.287 E31.58707
G1 X112.900 Y138.317 E31.71067
G1 X111.500 Y137.802 E31.88968
G1 X110.100 Y138.317 E32.06869
G1 X110.100 Y137.287 E32.19229
G1 X102.049 Y134.326 E33.22167
G1 X100.283 Y133.512 E33.45502
G1 X98.592 Y132.564 E33.68766
G1 X96.978 Y131.487 E33.92050
G1 X95.453 Y130.284 E34.15358
G1 X94.031 Y128.969 E34.38600
G1 X92.732 Y127.563 E34.61571
G1 X91.530 Y126.043 E34.84825
G1 X90.451 Y124.431 E35.08102
G1 X89.503 Y122.743 E35.31334
G1 X88.686 Y120.979 E35.54662
G1 X88.013 Y119.157 E35.77970
G1 X87.485 Y117.293 E36.01218
G1 X87.105 Y115.390 E36.24505
G1 X86.875 Y113.465 E36.47769
G1 X86.812 Y111.908 E36.66469
G1 X86.793 Y111.551 E36.70759
G1 X86.861 Y109.824 E36.91499
G1 X86.877 Y109.514 E36.95224
G1 X87.096 Y107.661 E37.17614
G1 X87.471 Y105.761 E37.40854
G1 X87.995 Y103.894 E37.64124
G1 X88.665 Y102.070 E37.87442
G1 X89.476 Y100.309 E38.10707
G1 X90.420 Y98.617 E38.33958
G1 X91.498 Y97.000 E38.57278
G1 X92.699 Y95.474 E38.80581
G1 X94.013 Y94.051 E39.03824
G0 F9000 X94.296 Y94.334
G1 F1200 X95.711 Y93.023 E39.26972
G1 X97.214 Y91.837 E39.49947
G1 X98.801 Y90.777 E39.72848
G1 X100.465 Y89.845 E39.95735
G1 X102.202 Y89.043 E40.18693
G1 X110.500 Y85.991 E41.24791
G1 X110.500 Y85.256 E41.33611
G1 X111.500 Y85.624 E41.46398
G1 X112.500 Y85.256 E41.59184
G1 X112.500 Y85.991 E41.68004
G1 X120.798 Y89.043 E42.74102
G1 X122.535 Y89.845 E42.97060
G1 X124.199 Y90.777 E43.19947
G1 X125.786 Y91.837 E43.42848
G1 X127.286 Y93.021 E43.65780
G1 X128.686 Y94.315 E43.88657
G1 X129.964 Y95.697 E44.11245
G1 X131.147 Y97.193 E44.34132
G1 X132.208 Y98.779 E44.57030
G1 X133.141 Y100.439 E44.79881
G1 X133.944 Y102.174 E45.02823
G1 X134.607 Y103.967 E45.25763
G1 X135.126 Y105.801 E45.48635
G1 X135.500 Y107.673 E45.71543
G1 X135.726 Y109.567 E45.94432
G1 X135.790 Y111.157 E46.13527
G1 X135.806 Y111.452 E46.17073
G1 X135.740 Y113.158 E46.37560
G1 X135.724 Y113.452 E46.41093
G1 X135.509 Y115.277 E46.63145
G1 X135.140 Y117.146 E46.86006
G1 X134.624 Y118.983 E47.08903
G1 X133.965 Y120.777 E47.31837
G1 X133.167 Y122.510 E47.54732
G1 X132.238 Y124.174 E47.77601
G1 X131.178 Y125.765 E48.00542
G1 X129.996 Y127.266 E48.23469
G1 X128.704 Y128.666 E48.46330
G1 X127.289 Y129.977 E48.69477
G1 X125.786 Y131.163 E48.92452
G1 X124.199 Y132.223 E49.15354
G1 X122.535 Y133.155 E49.38240
G1 X120.798 Y133.957 E49.61199
G1 X112.500 Y137.009 E50.67296
G1 X112.500 Y137.744 E50.76116
G1 X111.500 Y137.376 E50.88903
G1 X110.500 Y137.744 E51.01690
G1 X110.500 Y137.009 E51.10510
G1 X102.202 Y133.957 E52.16607
G1 X100.465 Y133.155 E52.39566
G1 X98.801 Y132.223 E52.62453
G1 X97.214 Y131.163 E52.85354
G1 X95.714 Y129.979 E53.08286
G1 X94.314 Y128.685 E53.31163
G1 X93.036 Y127.303 E53.53751
G1 X91.853 Y125.807 E53.76638
G1 X90.792 Y124.221 E53.99536
G1 X89.859 Y122.561 E54.22387
G1 X89.056 Y120.826 E54.45328
G1 X88.393 Y119.033 E54.68268
G1 X87.874 Y117.199 E54.91140
G1 X87.500 Y115.327 E55.14048
G1 X87.274 Y113.433 E55.36938
G1 X87.209 Y111.829 E55.56201
G1 X87.194 Y111.548 E55.59578
G1 X87.260 Y109.842 E55.80065
G1 X87.276 Y109.548 E55.83599
G1 X87.491 Y107.723 E56.05650
G1 X87.860 Y105.854 E56.28511
G1 X88.376 Y104.017 E56.51408
G1 X89.035 Y102.223 E56.74343
G1 X89.833 Y100.490 E56.97238
G1 X90.762 Y98.826 E57.20107
G1 X91.822 Y97.235 E57.43048
G1 X93.004 Y95.734 E57.65974
G1 X94.296 Y94.334 E57.88835
G0 F9000 X94.580 Y94.616
G1 F1200 X95.971 Y93.327 E58.11592
G1 X97.449 Y92.161 E58.34183
G1 X99.010 Y91.118 E58.56711
G1 X100.646 Y90.201 E58.79217
G1 X102.355 Y89.413 E59.01800
G1 X110.900 Y86.271 E60.11052
G1 X110.900 Y85.830 E60.16344
G1 X111.500 Y86.051 E60.24017
G1 X112.100 Y85.830 E60.31690
G1 X112.100 Y86.271 E60.36982
G1 X120.645 Y89.413 E61.46234
G1 X122.354 Y90.201 E61.68817
G1 X123.990 Y91.118 E61.91323
G1 X125.551 Y92.161 E62.13852
G1 X127.026 Y93.325 E62.36399
G1 X128.403 Y94.598 E62.58903
G1 X129.660 Y95.957 E62.81117
G1 X130.823 Y97.428 E63.03619
G1 X131.867 Y98.988 E63.26145
G1 X132.785 Y100.622 E63.48635
G1 X133.575 Y102.328 E63.71196
G1 X134.226 Y104.091 E63.93748
G1 X134.737 Y105.895 E64.16248
G1 X135.105 Y107.736 E64.38777
G1 X135.327 Y109.598 E64.61279
G1 X135.392 Y111.190 E64.80399
G1 X135.406 Y111.455 E64.83583
G1 X135.340 Y113.140 E65.03819
G1 X135.326 Y113.418 E65.07159
G1 X135.114 Y115.215 E65.28873
G1 X134.751 Y117.053 E65.51355
G1 X134.243 Y118.860 E65.73879
G1 X133.595 Y120.624 E65.96430
G1 X132.810 Y122.329 E66.18955
G1 X131.896 Y123.966 E66.41453
G1 X130.854 Y125.530 E66.64005
G1 X129.691 Y127.006 E66.86555
G1 X128.420 Y128.384 E67.09051
G1 X127.029 Y129.673 E67.31808
G1 X125.551 Y130.839 E67.54398
G1 X123.990 Y131.882 E67.76927
G1 X122.354 Y132.799 E67.99433
G1 X120.645 Y133.587 E68.22016
G1 X112.100 Y136.729 E69.31268
G1 X112.100 Y137.170 E69.36560
G1 X111.500 Y136.949 E69.44233
G1 X110.900 Y137.170 E69.51906
G1 X110.900 Y136.729 E69.57198
G1 X102.355 Y133.587 E70.66450
G1 X100.646 Y132.799 E70.89033
G1 X99.010 Y131.882 E71.11538
G1 X97.449 Y130.839 E71.34067
G1 X95.974 Y129.675 E71.56615
G1 X94.597 Y128.402 E71.79118
G1 X93.340 Y127.043 E72.01332
G1 X92.177 Y125.572 E72.23835
G1 X91.133 Y124.012 E72.46360
G1 X90.215 Y122.378 E72.68851
G1 X89.425 Y120.672 E72.91411
G1 X88.774 Y118.909 E73.13963
G1 X88.263 Y117.105 E73.36463
G1 X87.895 Y115.264 E73.58992
G1 X87.673 Y113.402 E73.81494
G1 X87.607 Y111.786 E74.00903
G1 X87.594 Y111.545 E74.03799
G1 X87.660 Y109.860 E74.24034
G1 X87.674 Y109.582 E74.27374
G1 X87.886 Y107.785 E74.49088
G1 X88.249 Y105.947 E74.71570
G1 X88.757 Y104.140 E74.94095
G1 X89.405 Y102.376 E75.16646
G1 X90.190 Y100.671 E75.39170
G1 X91.104 Y99.034 E75.61669
G1 X92.146 Y97.470 E75.84221
G1 X93.309 Y95.994 E76.06770
G1 X94.580 Y94.616 E76.29266
G0 F9000 X94.863 Y94.899
G1 F1200 X96.231 Y93.631 E76.51649
G1 X97.684 Y92.485 E76.73856
G1 X99.219 Y91.460 E76.96005
G1 X100.828 Y90.558 E77.18140
G1 X102.508 Y89.783 E77.40342
G1 X111.300 Y86.550 E78.52753
G1 X111.300 Y86.403 E78.54517
G1 X111.500 Y86.477 E78.57076
G1 X111.700 Y86.403 E78.59635
G1 X111.700 Y86.550 E78.61399
G1 X120.492 Y89.783 E79.73810
G1 X122.172 Y90.558 E79.96011
G1 X123.781 Y91.460 E80.18146
G1 X125.316 Y92.485 E80.40296
G1 X126.766 Y93.629 E80.62459
G1 X128.119 Y94.881 E80.84580
G1 X129.356 Y96.217 E81.06429
G1 X130.500 Y97.664 E81.28564
G1 X131.526 Y99.198 E81.50710
G1 X132.428 Y100.804 E81.72813
G1 X133.205 Y102.481 E81.94992
G1 X133.845 Y104.215 E82.17172
G1 X134.348 Y105.989 E82.39300
G1 X134.710 Y107.799 E82.61450
G1 X134.928 Y109.630 E82.83577
G1 X134.992 Y111.210 E83.02552
G1 X135.005 Y111.457 E83.05521
G1 X134.941 Y113.121 E83.25503
G1 X134.927 Y113.384 E83.28664
G1 X134.718 Y115.152 E83.50027
G1 X134.361 Y116.960 E83.72142
G1 X133.862 Y118.736 E83.94280
G1 X133.225 Y120.471 E84.16458
G1 X132.453 Y122.147 E84.38602
G1 X131.555 Y123.757 E84.60724
G1 X130.530 Y125.295 E84.82903
G1 X129.387 Y126.746 E85.05068
G1 X128.137 Y128.101 E85.27190
G1 X126.769 Y129.369 E85.49574
G1 X125.316 Y130.515 E85.71780
G1 X123.781 Y131.540 E85.93929
G1 X122.172 Y132.442 E86.16064
G1 X120.492 Y133.217 E86.38266
G1 X111.700 Y136.450 E87.50677
G1 X111.700 Y136.597 E87.52441
G1 X111.500 Y136.523 E87.55000
G1 X111.300 Y136.597 E87.57559
G1 X111.300 Y136.450 E87.59323
G1 X102.508 Y133.217 E88.71734
G1 X100.828 Y132.442 E88.93936
G1 X99.219 Y131.540 E89.16071
G1 X97.684 Y130.515 E89.38220
G1 X96.234 Y129.371 E89.60383
G1 X94.881 Y128.119 E89.82504
G1 X93.644 Y126.783 E90.04353
G1 X92.500 Y125.336 E90.26488
G1 X91.474 Y123.802 E90.48634
G1 X90.572 Y122.196 E90.70737
G1 X89.795 Y120.519 E90.92917
G1 X89.155 Y118.785 E91.15097
G1 X88.652 Y117.011 E91.37224
G1 X88.290 Y115.201 E91.59374
G1 X88.072 Y113.370 E91.81501
G1 X88.007 Y111.770 E92.00717
G1 X87.995 Y111.543 E92.03445
G1 X88.059 Y109.879 E92.23428
G1 X88.073 Y109.616 E92.26588
G1 X88.282 Y107.848 E92.47952
G1 X88.639 Y106.040 E92.70067
G1 X89.138 Y104.264 E92.92204
G1 X89.775 Y102.529 E93.14383
G1 X90.547 Y100.853 E93.36526
G1 X91.445 Y99.243 E93.58648
G1 X92.470 Y97.705 E93.80827
G1 X93.613 Y96.254 E94.02992
G1 X94.863 Y94.899 E94.25115
G0 F9000 X95.146 Y95.182
G1 F1200 X96.491 Y93.935 E94.47124
G1 X97.920 Y92.808 E94.68963
G1 X99.428 Y91.801 E94.90723
G1 X101.010 Y90.915 E95.12482
G1 X102.661 Y90.153 E95.34302
G1 X111.300 Y86.976 E96.44758
G1 X111.300 Y99.700 E97.97446
G1 X111.700 Y99.700 E98.02246
G1 X111.700 Y86.976 E99.54934
G1 X120.339 Y90.153 E100.65390
G1 X121.990 Y90.915 E100.87210
G1 X123.572 Y91.801 E101.08968
G1 X125.080 Y92.808 E101.30728
G1 X126.506 Y93.934 E101.52532
G1 X127.836 Y95.164 E101.74271
G1 X129.051 Y96.478 E101.95746
G1 X130.176 Y97.900 E102.17505
G1 X131.185 Y99.407 E102.39268
G1 X132.072 Y100.986 E102.61001
G1 X132.835 Y102.635 E102.82805
G1 X133.465 Y104.339 E103.04605
G1 X133.959 Y106.082 E103.26345
G1 X134.314 Y107.862 E103.48126
G1 X134.529 Y109.662 E103.69879
G1 X134.590 Y111.176 E103.88062
G1 X134.605 Y111.460 E103.91475
G1 X134.541 Y113.103 E104.11206
G1 X134.528 Y113.350 E104.14174
G1 X134.323 Y115.090 E104.35198
G1 X133.972 Y116.867 E104.56934
G1 X133.481 Y118.613 E104.78699
G1 X132.855 Y120.318 E105.00494
G1 X132.096 Y121.966 E105.22267
G1 X131.213 Y123.548 E105.44008
G1 X130.206 Y125.060 E105.65808
G1 X129.082 Y126.487 E105.87606
G1 X127.854 Y127.818 E106.09337
G1 X126.509 Y129.065 E106.31347
G1 X125.080 Y130.192 E106.53186
G1 X123.572 Y131.199 E106.74946
G1 X121.990 Y132.085 E106.96704
G1 X120.339 Y132.847 E107.18525
G1 X111.700 Y136.024 E108.28981
G1 X111.700 Y123.300 E109.81669
G1 X111.300 Y123.300 E109.86469
G1 X111.300 Y136.024 E111.39157
G1 X102.661 Y132.847 E112.49612
G1 X101.010 Y132.085 E112.71433
G1 X99.428 Y131.199 E112.93191
G1 X97.920 Y130.192 E113.14951
G1 X96.494 Y129.066 E113.36755
G1 X95.164 Y127.836 E113.58493
G1 X93.949 Y126.522 E113.79969
G1 X92.824 Y125.100 E114.01728
G1 X91.815 Y123.593 E114.23491
G1 X90.928 Y122.014 E114.45224
G1 X90.165 Y120.365 E114.67027
G1 X89.535 Y118.661 E114.88828
G1 X89.041 Y116.918 E115.10568
G1 X88.686 Y115.138 E115.32349
G1 X88.471 Y113.338 E115.54102
G1 X88.410 Y111.824 E115.72285
G1 X88.395 Y111.540 E115.75698
G1 X88.459 Y109.897 E115.95429
G1 X88.472 Y109.650 E115.98397
G1 X88.677 Y107.910 E116.19421
G1 X89.028 Y106.133 E116.41157
G1 X89.519 Y104.387 E116.62922
G1 X90.145 Y102.682 E116.84717
G1 X90.904 Y101.034 E117.06490
G1 X91.787 Y99.452 E117.28231
G1 X92.794 Y97.940 E117.50030
G1 X93.918 Y96.513 E117.71829
G1 X95.146 Y95.182 E117.93560
G0 F9000 X95.430 Y95.465
G1 F1200 X96.752 Y94.240 E118.15188
G1 X98.155 Y93.132 E118.36641
G1 X99.637 Y92.142 E118.58028
G1 X101.192 Y91.271 E118.79416
G1 X102.814 Y90.523 E119.00850
G1 X110.900 Y87.550 E120.04232
G1 X110.900 Y100.100 E121.54832
G1 X112.100 Y100.100 E121.69232
G1 X112.100 Y87.550 E123.19832
G1 X120.186 Y90.523 E124.23215
G1 X121.808 Y91.271 E124.44649
G1 X123.363 Y92.142 E124.66037
G1 X124.845 Y93.132 E124.87424
G1 X126.246 Y94.238 E125.08843
G1 X127.553 Y95.447 E125.30208
G1 X128.747 Y96.738 E125.51310
G1 X129.852 Y98.135 E125.72685
G1 X130.844 Y99.617 E125.94085
G1 X131.715 Y101.168 E126.15431
G1 X132.466 Y102.788 E126.36858
G1 X133.084 Y104.463 E126.58283
G1 X133.570 Y106.176 E126.79650
G1 X133.919 Y107.925 E127.01052
G1 X134.130 Y109.694 E127.22430
G1 X134.191 Y111.197 E127.40481
G1 X134.205 Y111.463 E127.43678
G1 X134.141 Y113.085 E127.63157
G1 X134.129 Y113.316 E127.65932
G1 X133.927 Y115.028 E127.86619
G1 X133.582 Y116.774 E128.07976
G1 X133.101 Y118.490 E128.29362
G1 X132.485 Y120.166 E128.50789
G1 X131.740 Y121.785 E128.72175
G1 X130.872 Y123.340 E128.93546
G1 X129.882 Y124.825 E129.14963
G1 X128.778 Y126.227 E129.36377
G1 X127.570 Y127.535 E129.57742
G1 X126.248 Y128.760 E129.79370
G1 X124.845 Y129.868 E130.00823
G1 X123.363 Y130.858 E130.22210
G1 X121.808 Y131.729 E130.43598
G1 X120.186 Y132.477 E130.65032
G1 X112.100 Y135.450 E131.68415
G1 X112.100 Y122.900 E133.19015
G1 X110.900 Y122.900 E133.33415
G1 X110.900 Y135.450 E134.84015
G1 X102.814 Y132.477 E135.87397
G1 X101.192 Y131.729 E136.08831
G1 X99.637 Y130.858 E136.30219
G1 X98.155 Y129.868 E136.51606
G1 X96.754 Y128.762 E136.73026
G1 X95.447 Y127.553 E136.94391
G1 X94.253 Y126.262 E137.15493
G1 X93.148 Y124.865 E137.36867
G1 X92.156 Y123.383 E137.58267
G1 X91.285 Y121.832 E137.79613
G1 X90.534 Y120.212 E138.01041
G1 X89.916 Y118.537 E138.22465
