;FLAVOR:UltiGCode
;TIME:2836
;MATERIAL:3477
;MATERIAL2:0
;NOZZLE_DIAMETER:0.400000
;NOZZLE_DIAMETER2:0.400000

;Layer count: 108
;LAYER:0
M107
G0 F9000 X93.074 Y89.615 Z0.300
G0 X93.472 Y89.416
;TYPE:SKIRT
G1 F1200 X94.676 Y88.213 E0.20424
G1 X96.673 Y87.215 E0.47214
G1 X96.874 Y87.014 E0.50625
G1 X98.078 Y86.412 E0.66778
G1 X98.724 Y85.769 E0.77716
G1 X100.655 Y85.125 E1.02143
G1 X101.751 Y84.580 E1.16831
G1 X104.719 Y83.837 E1.53546
G1 X106.325 Y83.301 E1.73863
G1 X116.453 Y83.301 E2.95399
G1 X120.188 Y84.234 E3.41596
G1 X122.867 Y85.129 E3.75491
G1 X125.430 Y86.408 E4.09864
G1 X125.632 Y86.609 E4.13283
G1 X126.032 Y86.809 E4.18650
G1 X126.235 Y87.011 E4.22086
G1 X127.432 Y87.609 E4.38143
G1 X127.639 Y87.815 E4.41648
G1 X128.040 Y88.016 E4.47030
G1 X128.837 Y88.812 E4.60547
G1 X129.238 Y89.012 E4.65925
G1 X133.127 Y92.901 E5.31923
G1 X137.307 Y92.901 E5.82083
G1 X137.307 Y98.287 E6.46715
G1 X137.707 Y98.688 E6.53512
G1 X137.707 Y98.880 E6.55816
G1 X137.907 Y99.080 E6.59210
G1 X137.907 Y99.280 E6.61610
G1 X138.107 Y99.480 E6.65004
G1 X138.107 Y99.680 E6.67404
G1 X138.307 Y99.880 E6.70798
G1 X138.307 Y100.080 E6.73198
G1 X138.507 Y100.280 E6.76592
G1 X138.507 Y100.480 E6.78992
G1 X138.707 Y100.680 E6.82386
G1 X138.707 Y101.080 E6.87186
G1 X138.907 Y101.280 E6.90580
G1 X138.907 Y101.680 E6.95380
G1 X139.107 Y101.880 E6.98775
G1 X139.107 Y102.680 E7.08375
G1 X139.307 Y102.880 E7.11769
G1 X139.307 Y103.280 E7.16569
G1 X139.507 Y103.480 E7.19963
G1 X139.507 Y104.080 E7.27163
G1 X139.707 Y104.280 E7.30557
G1 X139.707 Y118.322 E8.99061
G1 X139.507 Y118.522 E9.02455
G1 X139.507 Y118.922 E9.07255
G1 X139.307 Y119.122 E9.10649
G1 X139.307 Y119.722 E9.17849
G1 X139.107 Y119.922 E9.21243
G1 X139.107 Y120.522 E9.28443
G1 X138.907 Y120.722 E9.31837
G1 X138.907 Y121.322 E9.39037
G1 X138.707 Y121.522 E9.42431
G1 X138.707 Y121.922 E9.47231
G1 X138.507 Y122.122 E9.50626
G1 X138.507 Y122.522 E9.55426
G1 X138.307 Y122.722 E9.58820
G1 X138.307 Y123.122 E9.63620
G1 X138.107 Y123.322 E9.67014
G1 X138.107 Y123.522 E9.69414
G1 X137.907 Y123.722 E9.72808
G1 X137.907 Y123.914 E9.75112
G1 X137.507 Y124.315 E9.81909
G1 X137.507 Y124.514 E9.84297
G1 X137.107 Y124.915 E9.91093
G1 X137.107 Y125.122 E9.93577
G1 X136.907 Y125.322 E9.96971
G1 X136.907 Y125.718 E10.01723
G1 X136.307 Y126.319 E10.11914
G1 X136.307 Y126.519 E10.14314
G1 X135.307 Y127.520 E10.31293
G1 X135.307 Y127.721 E10.33705
G1 X128.838 Y134.190 E11.43488
G1 X128.440 Y134.388 E11.48822
G1 X128.040 Y134.789 E11.55619
G1 X127.239 Y135.189 E11.66363
G1 X127.040 Y135.388 E11.69740
G1 X125.834 Y135.991 E11.85920
G1 X125.632 Y136.192 E11.89340
G1 X121.872 Y138.071 E12.39780
G1 X120.389 Y138.568 E12.58549
G1 X118.787 Y138.967 E12.78360
G1 X118.180 Y139.170 E12.86041
G1 X116.051 Y139.701 E13.12371
G1 X107.324 Y139.701 E14.17095
G1 X105.730 Y139.168 E14.37264
G1 X103.328 Y138.568 E14.66974
G1 X102.735 Y138.370 E14.74476
G1 X101.342 Y138.021 E14.91709
G1 X100.937 Y137.819 E14.97140
G1 X100.149 Y137.621 E15.06890
G1 X97.690 Y136.400 E15.39835
G1 X97.481 Y136.192 E15.43374
G1 X96.282 Y135.593 E15.59457
G1 X96.079 Y135.391 E15.62894
G1 X95.674 Y135.188 E15.68330
G1 X95.473 Y134.987 E15.71741
G1 X94.676 Y134.589 E15.82431
G1 X93.072 Y132.986 E16.09644
G1 X92.674 Y132.787 E16.14983
G1 X88.007 Y128.121 E16.94176
G1 X88.007 Y127.920 E16.96588
G1 X87.007 Y126.919 E17.13568
G1 X87.007 Y126.715 E17.16016
G1 X86.607 Y126.314 E17.22812
G1 X86.607 Y126.115 E17.25200
G1 X86.207 Y125.714 E17.31997
G1 X86.207 Y125.517 E17.34361
G1 X85.607 Y124.916 E17.44552
G1 X85.607 Y124.522 E17.49280
G1 X85.407 Y124.322 E17.52674
G1 X85.407 Y124.122 E17.55074
G1 X85.207 Y123.922 E17.58468
G1 X85.207 Y123.722 E17.60868
G1 X85.007 Y123.522 E17.64262
G1 X85.007 Y123.315 E17.66746
G1 X84.607 Y122.914 E17.73543
G1 X84.607 Y122.522 E17.78247
G1 X84.407 Y122.322 E17.81641
G1 X84.407 Y122.122 E17.84041
G1 X84.207 Y121.922 E17.87435
G1 X84.207 Y121.722 E17.89835
G1 X84.007 Y121.522 E17.93229
G1 X84.007 Y121.122 E17.98029
G1 X83.807 Y120.922 E18.01423
G1 X83.807 Y120.122 E18.11023
G1 X83.607 Y119.922 E18.14417
G1 X83.607 Y119.322 E18.21617
G1 X83.407 Y119.122 E18.25012
G1 X83.407 Y118.722 E18.29812
G1 X83.207 Y118.522 E18.33206
G1 X83.207 Y104.680 E19.99310
G1 X83.407 Y104.480 E20.02704
G1 X83.407 Y103.880 E20.09904
G1 X83.607 Y103.680 E20.13298
G1 X83.607 Y103.080 E20.20498
G1 X83.807 Y102.880 E20.23892
G1 X83.807 Y101.888 E20.35796
G1 X84.207 Y101.487 E20.42593
G1 X84.207 Y100.880 E20.49877
G1 X84.407 Y100.680 E20.53271
G1 X84.407 Y100.480 E20.55671
G1 X84.607 Y100.280 E20.59065
G1 X84.607 Y99.880 E20.63865
G1 X84.807 Y99.680 E20.67259
G1 X84.807 Y99.288 E20.71963
G1 X85.207 Y98.887 E20.78760
G1 X85.207 Y98.688 E20.81148
G1 X85.607 Y98.287 E20.87944
G1 X85.607 Y98.088 E20.90332
G1 X86.007 Y97.687 E20.97129
G1 X86.007 Y97.480 E20.99613
G1 X86.207 Y97.280 E21.03007
G1 X86.207 Y97.080 E21.05407
G1 X86.407 Y96.880 E21.08801
G1 X86.407 Y96.683 E21.11165
G1 X87.407 Y95.682 E21.28144
G1 X87.407 Y95.486 E21.30496
G1 X88.007 Y94.885 E21.40687
G1 X88.007 Y94.681 E21.43135
G1 X93.074 Y89.615 E22.29117
G1 X93.472 Y89.416 E22.34456
G0 F9000 X93.710 Y89.744
G1 F1200 X94.912 Y88.542 E22.54855
G1 X96.906 Y87.546 E22.81602
G1 X97.110 Y87.342 E22.85064
G1 X98.314 Y86.741 E23.01212
G1 X98.939 Y86.119 E23.11793
G1 X100.805 Y85.497 E23.35396
G1 X101.890 Y84.958 E23.49934
G1 X104.839 Y84.219 E23.86417
G1 X106.390 Y83.701 E24.06039
G1 X116.404 Y83.701 E25.26207
G1 X120.076 Y84.618 E25.71624
G1 X122.713 Y85.499 E26.04988
G1 X125.194 Y86.737 E26.38260
G1 X125.397 Y86.939 E26.41697
G1 X125.795 Y87.138 E26.47037
G1 X125.998 Y87.340 E26.50473
G1 X127.195 Y87.938 E26.66530
G1 X127.402 Y88.144 E26.70034
G1 X127.803 Y88.345 E26.75417
G1 X128.600 Y89.141 E26.88934
G1 X129.001 Y89.341 E26.94311
G1 X132.961 Y93.301 E27.61515
G1 X136.907 Y93.301 E28.08867
G1 X136.907 Y98.452 E28.70679
G1 X137.307 Y98.853 E28.77476
G1 X137.307 Y99.046 E28.79792
G1 X137.507 Y99.246 E28.83186
G1 X137.507 Y99.446 E28.85586
G1 X137.707 Y99.646 E28.88980
G1 X137.707 Y99.846 E28.91380
G1 X137.907 Y100.046 E28.94774
G1 X137.907 Y100.246 E28.97174
G1 X138.107 Y100.446 E29.00568
G1 X138.107 Y100.646 E29.02968
G1 X138.307 Y100.846 E29.06362
G1 X138.307 Y101.246 E29.11162
G1 X138.507 Y101.446 E29.14556
G1 X138.507 Y101.846 E29.19356
G1 X138.707 Y102.046 E29.22750
G1 X138.707 Y102.846 E29.32350
G1 X138.907 Y103.046 E29.35744
G1 X138.907 Y103.446 E29.40544
G1 X139.107 Y103.646 E29.43939
G1 X139.107 Y104.246 E29.51139
G1 X139.307 Y104.446 E29.54533
G1 X139.307 Y118.156 E31.19053
G1 X139.107 Y118.356 E31.22447
G1 X139.107 Y118.756 E31.27247
G1 X138.907 Y118.956 E31.30641
G1 X138.907 Y119.556 E31.37841
G1 X138.707 Y119.756 E31.41235
G1 X138.707 Y120.356 E31.48435
G1 X138.507 Y120.556 E31.51829
G1 X138.507 Y121.156 E31.59029
G1 X138.307 Y121.356 E31.62423
G1 X138.307 Y121.756 E31.67223
G1 X138.107 Y121.956 E31.70617
G1 X138.107 Y122.356 E31.75417
G1 X137.907 Y122.556 E31.78812
G1 X137.907 Y122.956 E31.83612
G1 X137.707 Y123.156 E31.87006
G1 X137.707 Y123.356 E31.89406
G1 X137.507 Y123.556 E31.92800
G1 X137.507 Y123.749 E31.95116
G1 X137.107 Y124.150 E32.01912
G1 X137.107 Y124.349 E32.04300
G1 X136.707 Y124.750 E32.11097
G1 X136.707 Y124.956 E32.13569
G1 X136.507 Y125.156 E32.16963
G1 X136.507 Y125.553 E32.21727
G1 X135.907 Y126.154 E32.31918
G1 X135.907 Y126.353 E32.34306
G1 X134.907 Y127.354 E32.51285
G1 X134.907 Y127.555 E32.53697
G1 X128.601 Y133.861 E33.60714
G1 X128.204 Y134.059 E33.66037
G1 X127.803 Y134.460 E33.72842
G1 X127.006 Y134.858 E33.83533
G1 X126.804 Y135.060 E33.86961
G1 X125.598 Y135.662 E34.03135
G1 X125.396 Y135.863 E34.06555
G1 X121.719 Y137.701 E34.55884
G1 X120.277 Y138.184 E34.74133
G1 X118.675 Y138.583 E34.93945
G1 X118.068 Y138.786 E35.01625
G1 X116.002 Y139.301 E35.27176
G1 X107.389 Y139.301 E36.30532
G1 X105.850 Y138.786 E36.50006
G1 X103.440 Y138.184 E36.79815
G1 X102.840 Y137.984 E36.87404
G1 X101.482 Y137.643 E37.04206
G1 X101.077 Y137.441 E37.09637
G1 X100.288 Y137.243 E37.19399
G1 X97.927 Y136.070 E37.51035
G1 X97.719 Y135.864 E37.54548
G1 X96.519 Y135.264 E37.70648
G1 X96.317 Y135.063 E37.74067
G1 X95.911 Y134.860 E37.79514
G1 X95.709 Y134.658 E37.82942
G1 X94.913 Y134.261 E37.93616
G1 X93.310 Y132.658 E38.20820
G1 X92.911 Y132.459 E38.26171
G1 X88.407 Y127.955 E39.02606
G1 X88.407 Y127.754 E39.05018
G1 X87.407 Y126.753 E39.21997
G1 X87.407 Y126.550 E39.24433
G1 X87.007 Y126.149 E39.31230
G1 X87.007 Y125.950 E39.33618
G1 X86.607 Y125.549 E39.40415
G1 X86.607 Y125.352 E39.42779
G1 X86.007 Y124.751 E39.52969
G1 X86.007 Y124.356 E39.57709
G1 X85.807 Y124.156 E39.61103
G1 X85.807 Y123.956 E39.63503
G1 X85.607 Y123.756 E39.66898
G1 X85.607 Y123.556 E39.69298
G1 X85.407 Y123.356 E39.72692
G1 X85.407 Y123.150 E39.75164
G1 X85.007 Y122.749 E39.81960
G1 X85.007 Y122.356 E39.86676
G1 X84.807 Y122.156 E39.90071
G1 X84.807 Y121.956 E39.92471
G1 X84.607 Y121.756 E39.95865
G1 X84.607 Y121.556 E39.98265
G1 X84.407 Y121.356 E40.01659
G1 X84.407 Y120.956 E40.06459
G1 X84.207 Y120.756 E40.09853
G1 X84.207 Y119.956 E40.19453
G1 X84.007 Y119.756 E40.22847
G1 X84.007 Y119.156 E40.30047
G1 X83.807 Y118.956 E40.33441
G1 X83.807 Y118.556 E40.38241
G1 X83.607 Y118.356 E40.41635
G1 X83.607 Y104.846 E42.03755
G1 X83.807 Y104.646 E42.07149
G1 X83.807 Y104.046 E42.14349
G1 X84.007 Y103.846 E42.17743
G1 X84.007 Y103.246 E42.24943
G1 X84.207 Y103.046 E42.28338
G1 X84.207 Y102.053 E42.40254
G1 X84.607 Y101.652 E42.47050
G1 X84.607 Y101.046 E42.54322
G1 X84.807 Y100.846 E42.57716
G1 X84.807 Y100.646 E42.60116
G1 X85.007 Y100.446 E42.63510
G1 X85.007 Y100.046 E42.68310
G1 X85.207 Y99.846 E42.71705
G1 X85.207 Y99.453 E42.76421
G1 X85.607 Y99.052 E42.83217
G1 X85.607 Y98.853 E42.85605
G1 X86.007 Y98.452 E42.92402
G1 X86.007 Y98.253 E42.94790
G1 X86.407 Y97.852 E43.01587
G1 X86.407 Y97.646 E43.04059
G1 X86.607 Y97.446 E43.07453
G1 X86.607 Y97.246 E43.09853
G1 X86.807 Y97.046 E43.13247
G1 X86.807 Y96.849 E43.15611
G1 X87.807 Y95.848 E43.32590
G1 X87.807 Y95.651 E43.34954
G1 X88.407 Y95.050 E43.45145
G1 X88.407 Y94.847 E43.47581
G1 X93.311 Y89.943 E44.30804
G1 X93.710 Y89.744 E44.36155
G0 F9000 X93.946 Y90.072
G1 F1200 X95.149 Y88.871 E44.56554
G1 X97.144 Y87.874 E44.83317
G1 X97.347 Y87.671 E44.86762
G1 X98.551 Y87.070 E45.02910
G1 X99.155 Y86.468 E45.13143
G1 X100.961 Y85.866 E45.35987
G1 X102.030 Y85.335 E45.50311
G1 X104.945 Y84.605 E45.86371
G1 X106.455 Y84.101 E46.05473
G1 X116.355 Y84.101 E47.24273
G1 X119.964 Y85.003 E47.68914
G1 X122.560 Y85.870 E48.01757
G1 X124.957 Y87.066 E48.33903
G1 X125.159 Y87.267 E48.37322
G1 X125.559 Y87.467 E48.42689
G1 X125.763 Y87.670 E48.46142
G1 X126.959 Y88.267 E48.62183
G1 X127.167 Y88.474 E48.65704
G1 X127.566 Y88.674 E48.71060
G1 X128.362 Y89.469 E48.84560
G1 X128.764 Y89.669 E48.89948
G1 X132.795 Y93.701 E49.58365
G1 X136.507 Y93.701 E50.02909
G1 X136.507 Y98.618 E50.61913
G1 X136.907 Y99.019 E50.68710
G1 X136.907 Y99.212 E50.71026
G1 X137.107 Y99.412 E50.74420
G1 X137.107 Y99.612 E50.76820
G1 X137.307 Y99.812 E50.80214
G1 X137.307 Y100.012 E50.82614
G1 X137.507 Y100.212 E50.86008
G1 X137.507 Y100.412 E50.88408
G1 X137.707 Y100.612 E50.91802
G1 X137.707 Y100.812 E50.94202
G1 X137.907 Y101.012 E50.97597
G1 X137.907 Y101.412 E51.02397
G1 X138.107 Y101.612 E51.05791
G1 X138.107 Y102.012 E51.10591
G1 X138.307 Y102.212 E51.13985
G1 X138.307 Y103.012 E51.23585
G1 X138.507 Y103.212 E51.26979
G1 X138.507 Y103.612 E51.31779
G1 X138.707 Y103.812 E51.35173
G1 X138.707 Y104.412 E51.42373
G1 X138.907 Y104.612 E51.45767
G1 X138.907 Y117.990 E53.06303
G1 X138.707 Y118.190 E53.09697
G1 X138.707 Y118.590 E53.14497
G1 X138.507 Y118.790 E53.17891
G1 X138.507 Y119.390 E53.25091
G1 X138.307 Y119.590 E53.28485
G1 X138.307 Y120.190 E53.35685
G1 X138.107 Y120.390 E53.39080
G1 X138.107 Y120.990 E53.46280
G1 X137.907 Y121.190 E53.49674
G1 X137.907 Y121.590 E53.54474
G1 X137.707 Y121.790 E53.57868
G1 X137.707 Y122.190 E53.62668
G1 X137.507 Y122.390 E53.66062
G1 X137.507 Y122.790 E53.70862
G1 X137.307 Y122.990 E53.74256
G1 X137.307 Y123.190 E53.76656
G1 X137.107 Y123.390 E53.80050
G1 X137.107 Y123.583 E53.82366
G1 X136.707 Y123.984 E53.89163
G1 X136.707 Y124.183 E53.91551
G1 X136.307 Y124.584 E53.98348
G1 X136.307 Y124.790 E54.00820
G1 X136.107 Y124.990 E54.04214
G1 X136.107 Y125.387 E54.08978
G1 X135.507 Y125.988 E54.19168
G1 X135.507 Y126.187 E54.21556
G1 X134.507 Y127.188 E54.38536
G1 X134.507 Y127.389 E54.40948
G1 X128.364 Y133.533 E55.45206
G1 X127.966 Y133.731 E55.50541
G1 X127.566 Y134.131 E55.57329
G1 X126.768 Y134.530 E55.68035
G1 X126.567 Y134.731 E55.71446
G1 X125.361 Y135.333 E55.87621
G1 X125.159 Y135.534 E55.91041
G1 X121.565 Y137.331 E56.39259
G1 X120.165 Y137.799 E56.56973
G1 X118.567 Y138.198 E56.76738
G1 X117.956 Y138.402 E56.84468
G1 X115.953 Y138.901 E57.09238
G1 X107.454 Y138.901 E58.11226
G1 X105.949 Y138.398 E58.30268
G1 X103.552 Y137.800 E58.59914
G1 X102.950 Y137.599 E58.67530
G1 X101.621 Y137.266 E58.83971
G1 X101.216 Y137.064 E58.89402
G1 X100.428 Y136.866 E58.99152
G1 X98.163 Y135.741 E59.29500
G1 X97.955 Y135.534 E59.33021
G1 X96.755 Y134.935 E59.49115
G1 X96.553 Y134.734 E59.52535
G1 X96.147 Y134.531 E59.57982
G1 X95.945 Y134.329 E59.61410
G1 X95.150 Y133.932 E59.72074
G1 X93.547 Y132.330 E59.99269
G1 X93.147 Y132.130 E60.04635
G1 X88.807 Y127.789 E60.78296
G1 X88.807 Y127.588 E60.80708
G1 X87.807 Y126.587 E60.97687
G1 X87.807 Y126.384 E61.00123
G1 X87.407 Y125.983 E61.06920
G1 X87.407 Y125.784 E61.09308
G1 X87.007 Y125.383 E61.16105
G1 X87.007 Y125.186 E61.18469
G1 X86.407 Y124.585 E61.28659
G1 X86.407 Y124.190 E61.33399
G1 X86.207 Y123.990 E61.36794
G1 X86.207 Y123.790 E61.39194
G1 X86.007 Y123.590 E61.42588
G1 X86.007 Y123.390 E61.44988
G1 X85.807 Y123.190 E61.48382
G1 X85.807 Y122.984 E61.50854
G1 X85.407 Y122.583 E61.57651
G1 X85.407 Y122.190 E61.62367
G1 X85.207 Y121.990 E61.65761
G1 X85.207 Y121.790 E61.68161
G1 X85.007 Y121.590 E61.71555
G1 X85.007 Y121.390 E61.73955
G1 X84.807 Y121.190 E61.77349
G1 X84.807 Y120.790 E61.82149
G1 X84.607 Y120.590 E61.85543
G1 X84.607 Y119.790 E61.95143
G1 X84.407 Y119.590 E61.98537
G1 X84.407 Y118.990 E62.05737
G1 X84.207 Y118.790 E62.09131
G1 X84.207 Y118.390 E62.13931
G1 X84.007 Y118.190 E62.17325
G1 X84.007 Y105.012 E63.75461
G1 X84.207 Y104.812 E63.78855
G1 X84.207 Y104.212 E63.86055
G1 X84.407 Y104.012 E63.89450
G1 X84.407 Y103.412 E63.96650
G1 X84.607 Y103.212 E64.00044
G1 X84.607 Y102.219 E64.11960
G1 X85.007 Y101.818 E64.18756
G1 X85.007 Y101.212 E64.26028
G1 X85.207 Y101.012 E64.29422
G1 X85.207 Y100.812 E64.31822
G1 X85.407 Y100.612 E64.35217
G1 X85.407 Y100.212 E64.40017
G1 X85.607 Y100.012 E64.43411
G1 X85.607 Y99.619 E64.48127
G1 X86.007 Y99.218 E64.54923
G1 X86.007 Y99.019 E64.57311
G1 X86.407 Y98.618 E64.64108
G1 X86.407 Y98.419 E64.66496
G1 X86.807 Y98.018 E64.73293
G1 X86.807 Y97.812 E64.75765
G1 X87.007 Y97.612 E64.79159
G1 X87.007 Y97.412 E64.81559
G1 X87.207 Y97.212 E64.84953
G1 X87.207 Y97.015 E64.87317
G1 X88.207 Y96.014 E65.04296
G1 X88.207 Y95.817 E65.06660
G1 X88.807 Y95.216 E65.16851
G1 X88.807 Y95.013 E65.19287
G1 X93.547 Y90.272 E65.99736
G1 X93.946 Y90.072 E66.05092
G0 F9000 X94.184 Y90.401
G1 F1200 X95.386 Y89.200 E66.25482
G1 X97.381 Y88.203 E66.52245
G1 X97.584 Y88.000 E66.55690
G1 X98.788 Y87.399 E66.71838
G1 X99.371 Y86.818 E66.81715
G1 X101.114 Y86.237 E67.03762
G1 X102.169 Y85.713 E67.17898
G1 X105.065 Y84.987 E67.53725
G1 X106.520 Y84.501 E67.72133
G1 X116.306 Y84.501 E68.89565
G1 X119.852 Y85.387 E69.33426
G1 X122.406 Y86.240 E69.65738
G1 X124.721 Y87.395 E69.96783
G1 X124.924 Y87.597 E70.00220
G1 X125.322 Y87.796 E70.05560
G1 X125.525 Y87.998 E70.08996
G1 X126.722 Y88.596 E70.25053
G1 X126.928 Y88.801 E70.28540
G1 X127.329 Y89.002 E70.33923
G1 X128.126 Y89.798 E70.47440
G1 X128.527 Y89.998 E70.52817
G1 X132.630 Y94.101 E71.22448
G1 X136.107 Y94.101 E71.64172
G1 X136.107 Y98.783 E72.20356
G1 X136.507 Y99.184 E72.27152
G1 X136.507 Y99.377 E72.29468
G1 X136.707 Y99.577 E72.32862
G1 X136.707 Y99.777 E72.35262
G1 X136.907 Y99.977 E72.38657
