;FLAVOR:UltiGCode
;TIME:1117
;MATERIAL:2505
;MATERIAL2:0
;NOZZLE_DIAMETER:0.000000
;NOZZLE_DIAMETER2:0.000000

;Layer count: 72
;LAYER:0
M107
G0 F9000 X100.352 Y98.800 Z0.300
;TYPE:SKIRT
G1 F1800 X101.258 Y97.891 E0.19251
G1 X102.136 Y97.114 E0.36838
G1 X102.391 Y96.910 E0.41736
G1 X103.178 Y96.296 E0.56709
G1 X104.218 Y95.589 E0.75572
G1 X105.291 Y94.950 E0.94305
G1 X106.331 Y94.417 E1.11834
G1 X106.635 Y94.278 E1.16848
G1 X107.580 Y93.865 E1.32318
G1 X107.905 Y93.748 E1.37499
G1 X108.760 Y93.440 E1.51131
G1 X109.954 Y93.089 E1.69799
G1 X111.192 Y92.807 E1.88845
G1 X112.440 Y92.608 E2.07801
G1 X113.685 Y92.486 E2.26566
G1 X114.951 Y92.443 E2.45566
G1 X116.211 Y92.480 E2.64475
G1 X117.454 Y92.594 E2.83198
G1 X118.704 Y92.787 E3.02170
G1 X119.941 Y93.061 E3.21175
G1 X121.150 Y93.409 E3.40046
G1 X122.342 Y93.835 E3.59034
G1 X123.497 Y94.333 E3.77900
G1 X124.615 Y94.899 E3.96697
G1 X125.701 Y95.537 E4.15590
G1 X126.745 Y96.242 E4.34486
G1 X127.743 Y97.012 E4.53394
G1 X128.692 Y97.845 E4.72335
G1 X129.582 Y98.730 E4.91162
G1 X130.416 Y99.670 E5.10012
G1 X131.201 Y100.675 E5.29140
G1 X131.910 Y101.717 E5.48045
G1 X132.545 Y102.784 E5.66670
G1 X133.124 Y103.908 E5.85636
G1 X133.630 Y105.071 E6.04660
G1 X134.059 Y106.254 E6.23536
G1 X134.411 Y107.454 E6.42294
G1 X134.693 Y108.689 E6.61296
G1 X134.892 Y109.939 E6.80282
G1 X135.014 Y111.184 E6.99047
G1 X135.057 Y112.450 E7.18048
G1 X135.020 Y113.710 E7.36956
G1 X134.905 Y114.962 E7.55815
G1 X134.710 Y116.213 E7.74807
G1 X134.438 Y117.442 E7.93688
G1 X134.119 Y118.550 E8.10983
G1 X134.015 Y118.863 E8.15930
G1 X133.666 Y119.840 E8.31492
G1 X133.167 Y120.998 E8.50406
G1 X132.601 Y122.116 E8.69203
G1 X131.898 Y123.312 E8.90012
G1 X131.708 Y123.578 E8.94916
G1 X131.277 Y124.217 E9.06477
G1 X131.067 Y124.493 E9.11679
G1 X130.617 Y125.075 E9.22715
G1 X130.408 Y125.336 E9.27730
G1 X129.648 Y126.200 E9.44990
G1 X128.742 Y127.109 E9.64241
G1 X127.864 Y127.886 E9.81828
G1 X127.609 Y128.090 E9.86726
G1 X126.822 Y128.704 E10.01699
G1 X125.782 Y129.411 E10.20562
G1 X124.709 Y130.050 E10.39295
G1 X123.669 Y130.583 E10.56825
G1 X123.365 Y130.722 E10.61839
G1 X122.420 Y131.135 E10.77308
G1 X122.095 Y131.252 E10.82490
G1 X121.351 Y131.520 E10.94352
G1 X121.035 Y131.621 E10.99328
G1 X120.040 Y131.912 E11.14878
G1 X118.810 Y132.193 E11.33803
G1 X117.560 Y132.392 E11.52790
G1 X116.315 Y132.514 E11.71554
G1 X115.049 Y132.557 E11.90555
G1 X113.790 Y132.520 E12.09448
G1 X112.544 Y132.406 E12.28216
G1 X111.295 Y132.212 E12.47176
G1 X110.059 Y131.939 E12.66163
G1 X108.850 Y131.591 E12.85034
G1 X107.658 Y131.165 E13.04022
G1 X106.503 Y130.667 E13.22888
G1 X105.385 Y130.101 E13.41685
G1 X104.299 Y129.463 E13.60578
G1 X103.255 Y128.758 E13.79474
G1 X102.257 Y127.988 E13.98382
G1 X101.308 Y127.155 E14.17323
G1 X100.418 Y126.270 E14.36150
G1 X99.584 Y125.330 E14.54999
G1 X98.799 Y124.325 E14.74128
G1 X98.090 Y123.283 E14.93033
G1 X97.455 Y122.216 E15.11658
G1 X96.876 Y121.092 E15.30623
G1 X96.370 Y119.929 E15.49648
G1 X95.941 Y118.746 E15.68524
G1 X95.589 Y117.546 E15.87282
G1 X95.307 Y116.311 E16.06284
G1 X95.108 Y115.061 E16.25270
G1 X94.986 Y113.816 E16.44035
G1 X94.943 Y112.550 E16.63036
G1 X94.980 Y111.290 E16.81944
G1 X95.095 Y110.038 E17.00803
G1 X95.290 Y108.787 E17.19794
G1 X95.562 Y107.558 E17.38676
G1 X95.881 Y106.450 E17.55971
G1 X95.985 Y106.137 E17.60918
G1 X96.334 Y105.160 E17.76480
G1 X96.833 Y104.002 E17.95394
G1 X97.399 Y102.884 E18.14191
G1 X98.102 Y101.688 E18.35000
G1 X98.290 Y101.424 E18.39862
G1 X98.742 Y100.754 E18.51985
G1 X99.398 Y99.905 E18.68079
G1 X99.610 Y99.643 E18.73134
G1 X100.352 Y98.800 E18.89980
G0 F9000 X100.717 Y99.142
G1 F1800 X101.601 Y98.255 E19.08764
G1 X102.458 Y97.497 E19.25926
G1 X102.701 Y97.303 E19.30590
G1 X103.473 Y96.701 E19.45274
G1 X104.487 Y96.011 E19.63672
G1 X105.534 Y95.388 E19.81947
G1 X106.550 Y94.866 E19.99081
G1 X106.839 Y94.734 E20.03846
G1 X107.765 Y94.330 E20.19001
G1 X108.065 Y94.223 E20.23778
G1 X108.065 Y94.222 E20.23793
G1 X108.915 Y93.915 E20.37350
G1 X110.080 Y93.573 E20.55562
G1 X111.287 Y93.298 E20.74131
G1 X112.504 Y93.104 E20.92617
G1 X113.718 Y92.985 E21.10914
G1 X114.953 Y92.943 E21.29449
G1 X116.181 Y92.979 E21.47877
G1 X117.393 Y93.091 E21.66135
G1 X118.612 Y93.279 E21.84636
G1 X119.818 Y93.546 E22.03164
G1 X120.996 Y93.885 E22.21551
G1 X122.158 Y94.301 E22.40065
G1 X123.285 Y94.786 E22.58468
G1 X124.375 Y95.338 E22.76795
G1 X125.434 Y95.960 E22.95218
G1 X126.452 Y96.648 E23.13648
G1 X127.425 Y97.399 E23.32085
G1 X128.351 Y98.210 E23.50549
G1 X129.218 Y99.074 E23.68909
G1 X130.032 Y99.990 E23.87290
G1 X130.797 Y100.970 E24.05939
G1 X131.488 Y101.986 E24.24369
G1 X132.108 Y103.027 E24.42544
G1 X132.672 Y104.123 E24.61033
G1 X133.165 Y105.256 E24.79567
G1 X133.584 Y106.410 E24.97983
G1 X133.927 Y107.580 E25.16272
G1 X134.201 Y108.784 E25.34793
G1 X134.396 Y110.003 E25.53311
G1 X134.515 Y111.217 E25.71608
G1 X134.557 Y112.451 E25.90129
G1 X134.521 Y113.680 E26.08572
G1 X134.409 Y114.901 E26.26964
G1 X134.218 Y116.120 E26.45472
G1 X133.953 Y117.319 E26.63891
G1 X133.641 Y118.402 E26.80796
G1 X133.542 Y118.700 E26.85507
G1 X133.200 Y119.657 E27.00751
G1 X132.714 Y120.786 E27.19188
G1 X132.162 Y121.876 E27.37515
G1 X131.478 Y123.040 E27.57767
G1 X131.302 Y123.286 E27.62304
G1 X130.871 Y123.926 E27.73878
G1 X130.671 Y124.189 E27.78834
G1 X130.224 Y124.766 E27.89782
G1 X130.025 Y125.014 E27.94552
G1 X129.283 Y125.858 E28.11409
G1 X128.399 Y126.745 E28.30193
G1 X127.542 Y127.503 E28.47355
G1 X127.299 Y127.697 E28.52019
G1 X126.527 Y128.299 E28.66703
G1 X125.513 Y128.989 E28.85101
G1 X124.466 Y129.612 E29.03376
G1 X123.450 Y130.134 E29.20510
G1 X123.161 Y130.266 E29.25275
G1 X122.235 Y130.670 E29.40430
G1 X121.935 Y130.777 E29.45207
G1 X121.935 Y130.778 E29.45222
G1 X121.190 Y131.047 E29.57104
G1 X120.889 Y131.143 E29.61843
G1 X119.914 Y131.428 E29.77080
G1 X118.715 Y131.701 E29.95525
G1 X117.496 Y131.896 E30.14042
G1 X116.282 Y132.015 E30.32340
G1 X115.047 Y132.057 E30.50875
G1 X113.820 Y132.021 E30.69288
G1 X112.605 Y131.909 E30.87591
G1 X111.387 Y131.721 E31.06077
G1 X110.182 Y131.454 E31.24590
G1 X109.004 Y131.115 E31.42978
G1 X107.842 Y130.699 E31.61491
G1 X106.715 Y130.214 E31.79895
G1 X105.625 Y129.662 E31.98222
G1 X104.566 Y129.040 E32.16644
G1 X103.548 Y128.352 E32.35074
G1 X102.575 Y127.601 E32.53511
G1 X101.649 Y126.790 E32.71975
G1 X100.782 Y125.926 E32.90335
G1 X99.968 Y125.010 E33.08717
G1 X99.203 Y124.030 E33.27365
G1 X98.512 Y123.014 E33.45796
G1 X97.892 Y121.973 E33.63970
G1 X97.328 Y120.877 E33.82459
G1 X96.835 Y119.744 E34.00994
G1 X96.416 Y118.590 E34.19409
G1 X96.073 Y117.420 E34.37698
G1 X95.799 Y116.216 E34.56220
G1 X95.604 Y114.997 E34.74737
G1 X95.485 Y113.783 E34.93034
G1 X95.443 Y112.549 E35.11555
G1 X95.479 Y111.320 E35.29998
G1 X95.591 Y110.099 E35.48390
G1 X95.782 Y108.880 E35.66898
G1 X96.047 Y107.681 E35.85317
G1 X96.359 Y106.598 E36.02223
G1 X96.458 Y106.300 E36.06933
G1 X96.800 Y105.343 E36.22177
G1 X97.286 Y104.214 E36.40615
G1 X97.838 Y103.124 E36.58942
G1 X98.522 Y101.960 E36.79193
G1 X98.697 Y101.715 E36.83709
G1 X99.147 Y101.047 E36.95791
G1 X99.790 Y100.216 E37.11551
G1 X99.992 Y99.966 E37.16373
G1 X100.717 Y99.142 E37.32836
G0 F9000 X101.083 Y99.484
G1 F1800 X101.944 Y98.619 E37.51143
G1 X102.780 Y97.880 E37.67880
G1 X103.011 Y97.695 E37.72319
G1 X103.768 Y97.105 E37.86716
G1 X104.756 Y96.433 E38.04639
G1 X105.776 Y95.826 E38.22443
G1 X106.768 Y95.316 E38.39174
G1 X107.043 Y95.191 E38.43705
G1 X107.950 Y94.795 E38.58551
G1 X108.244 Y94.689 E38.63238
G1 X108.244 Y94.690 E38.63253
G1 X109.071 Y94.391 E38.76444
G1 X110.206 Y94.057 E38.94191
G1 X111.382 Y93.790 E39.12280
G1 X112.568 Y93.600 E39.30297
G1 X113.751 Y93.485 E39.48126
G1 X114.954 Y93.444 E39.66181
G1 X116.150 Y93.479 E39.84129
G1 X117.332 Y93.587 E40.01933
G1 X118.520 Y93.771 E40.19965
G1 X119.694 Y94.031 E40.38002
G1 X120.843 Y94.362 E40.55938
G1 X121.975 Y94.766 E40.73967
G1 X123.073 Y95.239 E40.91900
G1 X124.136 Y95.777 E41.09771
G1 X125.167 Y96.384 E41.27717
G1 X126.159 Y97.053 E41.45665
G1 X127.107 Y97.785 E41.63630
G1 X128.009 Y98.576 E41.81626
G1 X128.854 Y99.417 E41.99509
G1 X129.648 Y100.310 E42.17433
G1 X130.393 Y101.265 E42.35601
G1 X131.066 Y102.255 E42.53557
G1 X131.670 Y103.270 E42.71274
G1 X132.220 Y104.337 E42.89280
G1 X132.700 Y105.441 E43.07338
G1 X133.108 Y106.565 E43.25274
G1 X133.443 Y107.706 E43.43112
G1 X133.710 Y108.879 E43.61157
G1 X133.900 Y110.067 E43.79203
G1 X134.015 Y111.250 E43.97032
G1 X134.056 Y112.453 E44.15087
G1 X134.021 Y113.649 E44.33035
G1 X133.912 Y114.839 E44.50960
G1 X133.727 Y116.027 E44.68995
G1 X133.468 Y117.195 E44.86940
G1 X133.163 Y118.254 E45.03471
G1 X133.069 Y118.536 E45.07930
G1 X132.735 Y119.474 E45.22865
G1 X132.261 Y120.574 E45.40832
G1 X131.723 Y121.637 E45.58703
G1 X131.058 Y122.767 E45.78370
G1 X130.893 Y122.999 E45.82640
G1 X130.464 Y123.634 E45.94135
G1 X130.274 Y123.884 E45.98845
G1 X129.831 Y124.457 E46.09709
G1 X129.642 Y124.693 E46.14245
G1 X128.917 Y125.516 E46.30697
G1 X128.056 Y126.381 E46.49004
G1 X127.220 Y127.120 E46.65741
G1 X126.989 Y127.305 E46.70180
G1 X126.232 Y127.895 E46.84576
G1 X125.244 Y128.567 E47.02500
G1 X124.224 Y129.174 E47.20304
G1 X123.232 Y129.684 E47.37035
G1 X122.957 Y129.809 E47.41566
G1 X122.050 Y130.205 E47.56411
G1 X121.756 Y130.311 E47.61099
G1 X121.756 Y130.310 E47.61114
G1 X121.029 Y130.573 E47.72711
G1 X120.743 Y130.665 E47.77217
G1 X119.788 Y130.944 E47.92141
G1 X118.620 Y131.210 E48.10110
G1 X117.432 Y131.400 E48.28156
G1 X116.249 Y131.515 E48.45985
G1 X115.046 Y131.556 E48.64040
G1 X113.850 Y131.521 E48.81988
G1 X112.666 Y131.413 E48.99822
G1 X111.479 Y131.229 E49.17840
G1 X110.306 Y130.969 E49.35862
G1 X109.157 Y130.638 E49.53797
G1 X108.025 Y130.234 E49.71826
G1 X106.927 Y129.761 E49.89760
G1 X105.864 Y129.223 E50.07631
G1 X104.833 Y128.616 E50.25577
G1 X103.841 Y127.947 E50.43524
G1 X102.893 Y127.215 E50.61490
G1 X101.991 Y126.424 E50.79486
G1 X101.146 Y125.583 E50.97368
G1 X100.352 Y124.690 E51.15293
G1 X99.607 Y123.735 E51.33461
G1 X98.934 Y122.745 E51.51417
G1 X98.330 Y121.730 E51.69134
G1 X97.780 Y120.663 E51.87140
G1 X97.300 Y119.559 E52.05198
G1 X96.892 Y118.435 E52.23134
G1 X96.557 Y117.294 E52.40971
G1 X96.290 Y116.121 E52.59017
G1 X96.100 Y114.933 E52.77063
G1 X95.985 Y113.750 E52.94892
G1 X95.944 Y112.547 E53.12947
G1 X95.979 Y111.351 E53.30895
G1 X96.088 Y110.161 E53.48820
G1 X96.273 Y108.973 E53.66854
G1 X96.532 Y107.805 E53.84800
G1 X96.837 Y106.746 E54.01331
G1 X96.931 Y106.464 E54.05789
G1 X97.265 Y105.526 E54.20725
G1 X97.739 Y104.426 E54.38691
G1 X98.277 Y103.363 E54.56562
G1 X98.942 Y102.233 E54.76230
G1 X99.106 Y102.003 E54.80467
G1 X99.553 Y101.340 E54.92461
G1 X100.182 Y100.526 E55.07892
G1 X100.374 Y100.288 E55.12478
G1 X101.083 Y99.484 E55.28558
G0 F9000 X101.448 Y99.826
G1 F1800 X102.287 Y98.983 E55.46398
G1 X103.102 Y98.263 E55.62710
G1 X103.321 Y98.087 E55.66925
G1 X104.062 Y97.509 E55.81021
G1 X105.024 Y96.855 E55.98470
G1 X106.018 Y96.263 E56.15824
G1 X106.987 Y95.766 E56.32160
G1 X107.247 Y95.647 E56.36449
G1 X108.134 Y95.260 E56.50965
G1 X108.405 Y95.163 E56.55282
G1 X109.226 Y94.866 E56.68378
G1 X110.332 Y94.542 E56.85666
G1 X111.477 Y94.281 E57.03281
G1 X112.632 Y94.097 E57.20825
G1 X113.784 Y93.984 E57.38188
G1 X114.955 Y93.944 E57.55763
G1 X116.120 Y93.978 E57.73245
G1 X117.271 Y94.084 E57.90583
G1 X118.427 Y94.262 E58.08128
G1 X119.571 Y94.516 E58.25706
G1 X120.690 Y94.838 E58.43172
G1 X121.792 Y95.232 E58.60726
G1 X122.861 Y95.692 E58.78183
G1 X123.896 Y96.216 E58.95584
G1 X124.900 Y96.807 E59.13060
G1 X125.866 Y97.459 E59.30541
G1 X126.789 Y98.171 E59.48027
G1 X127.668 Y98.941 E59.65556
G1 X128.491 Y99.761 E59.82982
G1 X129.263 Y100.630 E60.00418
G1 X129.989 Y101.560 E60.18115
G1 X130.644 Y102.523 E60.35585
G1 X131.233 Y103.512 E60.52852
G1 X131.768 Y104.552 E60.70395
G1 X132.236 Y105.626 E60.87968
G1 X132.633 Y106.721 E61.05439
G1 X132.958 Y107.832 E61.22802
G1 X133.219 Y108.974 E61.40374
G1 X133.403 Y110.131 E61.57947
G1 X133.516 Y111.283 E61.75310
G1 X133.556 Y112.454 E61.92885
G1 X133.522 Y113.619 E62.10368
G1 X133.416 Y114.778 E62.27825
G1 X133.235 Y115.935 E62.45391
G1 X132.983 Y117.072 E62.62860
G1 X132.686 Y118.105 E62.78983
G1 X132.596 Y118.373 E62.83224
G1 X132.269 Y119.290 E62.97827
G1 X131.808 Y120.362 E63.15331
G1 X131.284 Y121.397 E63.32732
G1 X130.638 Y122.495 E63.51841
G1 X130.486 Y122.708 E63.55766
G1 X130.058 Y123.343 E63.67253
G1 X129.877 Y123.580 E63.71726
G1 X129.438 Y124.148 E63.82494
G1 X129.259 Y124.371 E63.86783
G1 X128.552 Y125.174 E64.02832
G1 X127.713 Y126.017 E64.20672
G1 X126.898 Y126.737 E64.36984
G1 X126.679 Y126.913 E64.41199
G1 X125.938 Y127.491 E64.55295
G1 X124.976 Y128.145 E64.72744
G1 X123.982 Y128.737 E64.90098
G1 X123.013 Y129.234 E65.06433
G1 X122.753 Y129.353 E65.10723
G1 X121.866 Y129.740 E65.25239
G1 X121.595 Y129.837 E65.29556
G1 X120.868 Y130.100 E65.41153
G1 X120.597 Y130.187 E65.45422
G1 X119.663 Y130.459 E65.60014
G1 X118.525 Y130.719 E65.77524
G1 X117.368 Y130.903 E65.95097
G1 X116.216 Y131.016 E66.12460
G1 X115.045 Y131.056 E66.30035
G1 X113.881 Y131.022 E66.47503
G1 X112.728 Y130.916 E66.64871
G1 X111.572 Y130.737 E66.82417
G1 X110.429 Y130.484 E66.99977
G1 X109.310 Y130.162 E67.17444
G1 X108.208 Y129.768 E67.34998
G1 X107.139 Y129.308 E67.52455
G1 X106.104 Y128.784 E67.69856
G1 X105.100 Y128.193 E67.87332
G1 X104.134 Y127.541 E68.04813
G1 X103.211 Y126.829 E68.22299
G1 X102.332 Y126.059 E68.39827
G1 X101.509 Y125.239 E68.57254
G1 X100.737 Y124.370 E68.74690
G1 X100.011 Y123.440 E68.92387
G1 X99.356 Y122.477 E69.09857
G1 X98.767 Y121.488 E69.27123
G1 X98.232 Y120.448 E69.44666
G1 X97.764 Y119.374 E69.62240
G1 X97.367 Y118.279 E69.79711
G1 X97.042 Y117.168 E69.97074
G1 X96.781 Y116.026 E70.14646
G1 X96.597 Y114.869 E70.32219
G1 X96.484 Y113.717 E70.49582
G1 X96.444 Y112.546 E70.67157
G1 X96.478 Y111.381 E70.84640
G1 X96.584 Y110.222 E71.02097
G1 X96.765 Y109.065 E71.19663
G1 X97.017 Y107.928 E71.37132
G1 X97.314 Y106.895 E71.53255
G1 X97.404 Y106.627 E71.57495
G1 X97.731 Y105.710 E71.72099
G1 X98.192 Y104.638 E71.89603
G1 X98.716 Y103.603 E72.07004
G1 X99.362 Y102.505 E72.26113
G1 X99.514 Y102.293 E72.30026
G1 X99.958 Y101.633 E72.41958
G1 X100.574 Y100.836 E72.57067
G1 X100.757 Y100.611 E72.61418
G1 X101.448 Y99.826 E72.77105
G0 F9000 X101.813 Y100.168
G1 F1800 X102.630 Y99.347 E72.94478
G1 X103.424 Y98.645 E73.10376
G1 X103.631 Y98.480 E73.14346
G1 X104.357 Y97.914 E73.28155
G1 X105.293 Y97.277 E73.45138
G1 X106.260 Y96.701 E73.62021
G1 X107.205 Y96.216 E73.77954
G1 X107.451 Y96.103 E73.82015
G1 X108.319 Y95.725 E73.96216
G1 X108.583 Y95.630 E74.00424
G1 X109.382 Y95.342 E74.13164
G1 X110.458 Y95.026 E74.29986
G1 X111.572 Y94.772 E74.47124
G1 X112.695 Y94.593 E74.64182
G1 X113.817 Y94.483 E74.81093
G1 X114.956 Y94.444 E74.98188
G1 X116.090 Y94.477 E75.15205
G1 X117.210 Y94.580 E75.32076
G1 X118.335 Y94.754 E75.49152
G1 X119.448 Y95.001 E75.66253
G1 X120.536 Y95.314 E75.83235
G1 X121.609 Y95.697 E76.00324
G1 X122.648 Y96.145 E76.17296
G1 X123.656 Y96.655 E76.34241
G1 X124.633 Y97.230 E76.51246
G1 X125.573 Y97.864 E76.68253
G1 X126.471 Y98.557 E76.85268
G1 X127.326 Y99.307 E77.02328
G1 X128.127 Y100.104 E77.19277
G1 X128.879 Y100.950 E77.36256
G1 X129.584 Y101.854 E77.53452
G1 X130.222 Y102.792 E77.70468
G1 X130.795 Y103.755 E77.87277
G1 X131.316 Y104.766 E78.04337
G1 X131.771 Y105.811 E78.21434
G1 X132.157 Y106.877 E78.38440
G1 X132.474 Y107.958 E78.55337
G1 X132.728 Y109.069 E78.72432
G1 X132.907 Y110.194 E78.89520
G1 X133.017 Y111.316 E79.06430
G1 X133.056 Y112.455 E79.23525
G1 X133.023 Y113.589 E79.40543
G1 X132.919 Y114.716 E79.57519
G1 X132.744 Y115.842 E79.74612
G1 X132.498 Y116.949 E79.91622
G1 X132.208 Y117.957 E80.07356
G1 X132.124 Y118.210 E80.11354
G1 X131.804 Y119.107 E80.25640
G1 X131.355 Y120.149 E80.42659
G1 X130.845 Y121.157 E80.59604
G1 X130.219 Y122.222 E80.78135
G1 X130.068 Y122.433 E80.82027
G1 X129.651 Y123.052 E80.93222
G1 X129.481 Y123.275 E80.97428
G1 X129.045 Y123.839 E81.08121
