;FLAVOR:UltiGCode
;TIME:6531
;MATERIAL:5553
;MATERIAL2:0
;NOZZLE_DIAMETER:0.400000
;NOZZLE_DIAMETER2:0.400000

;Layer count: 78
;LAYER:0
M107
G0 F9000 X87.500 Y81.200 Z0.300
;TYPE:SKIRT
G1 F1200 X90.694 Y81.200 E0.38328
G1 X90.694 Y80.800 E0.43128
G1 X132.306 Y80.800 E5.42472
G1 X132.306 Y81.200 E5.47272
G1 X135.500 Y81.200 E5.85600
G1 X135.500 Y141.800 E13.12800
G1 X132.306 Y141.800 E13.51128
G1 X132.306 Y142.400 E13.58328
G1 X90.694 Y142.400 E18.57672
G1 X90.694 Y141.800 E18.64872
G1 X87.500 Y141.800 E19.03200
G1 X87.500 Y81.200 E26.30400
G0 F9000 X87.900 Y81.600
G1 F1200 X91.094 Y81.600 E26.68728
G1 X91.094 Y81.200 E26.73528
G1 X131.906 Y81.200 E31.63272
G1 X131.906 Y81.600 E31.68072
G1 X135.100 Y81.600 E32.06400
G1 X135.100 Y141.400 E39.24000
G1 X131.906 Y141.400 E39.62328
G1 X131.906 Y142.000 E39.69528
G1 X91.094 Y142.000 E44.59272
G1 X91.094 Y141.400 E44.66472
G1 X87.900 Y141.400 E45.04800
G1 X87.900 Y81.600 E52.22400
G0 F9000 X88.300 Y82.000
G1 F1200 X91.494 Y82.000 E52.60728
G1 X91.494 Y81.600 E52.65528
G1 X131.506 Y81.600 E57.45672
G1 X131.506 Y82.000 E57.50472
G1 X134.700 Y82.000 E57.88800
G1 X134.700 Y141.000 E64.96800
G1 X131.506 Y141.000 E65.35128
G1 X131.506 Y141.600 E65.42328
G1 X91.494 Y141.600 E70.22472
G1 X91.494 Y141.000 E70.29672
G1 X88.300 Y141.000 E70.68000
G1 X88.300 Y82.000 E77.76000
G0 F9000 X88.700 Y82.400
G1 F1200 X91.894 Y82.400 E78.14328
G1 X91.894 Y82.000 E78.19128
G1 X131.106 Y82.000 E82.89672
G1 X131.106 Y82.400 E82.94472
G1 X134.300 Y82.400 E83.32800
G1 X134.300 Y140.600 E90.31200
G1 X131.106 Y140.600 E90.69528
G1 X131.106 Y141.200 E90.76728
G1 X91.894 Y141.200 E95.47272
G1 X91.894 Y140.600 E95.54472
G1 X88.700 Y140.600 E95.92800
G1 X88.700 Y82.400 E102.91200
G0 F9000 X89.100 Y82.800
G1 F1200 X92.294 Y82.800 E103.29528
G1 X92.294 Y82.400 E103.34328
G1 X130.706 Y82.400 E107.95272
G1 X130.706 Y82.800 E108.00072
G1 X133.900 Y82.800 E108.38400
G1 X133.900 Y140.200 E115.27200
G1 X130.706 Y140.200 E115.65528
G1 X130.706 Y140.800 E115.72728
G1 X92.294 Y140.800 E120.33672
G1 X92.294 Y140.200 E120.40872
G1 X89.100 Y140.200 E120.79200
G1 X89.100 Y82.800 E127.68000
G0 F9000 X89.500 Y83.200
G1 F1200 X92.694 Y83.200 E128.06328
G1 X92.694 Y82.800 E128.11128
G1 X130.306 Y82.800 E132.62472
G1 X130.306 Y83.200 E132.67272
G1 X133.500 Y83.200 E133.05600
G1 X133.500 Y139.800 E139.84800
G1 X130.306 Y139.800 E140.23128
G1 X130.306 Y140.400 E140.30328
G1 X92.694 Y140.400 E144.81672
G1 X92.694 Y139.800 E144.88872
G1 X89.500 Y139.800 E145.27200
G1 X89.500 Y83.200 E152.06400
G0 F9000 X89.900 Y83.600
G1 F1200 X93.094 Y83.600 E152.44728
G1 X93.094 Y83.200 E152.49528
G1 X129.906 Y83.200 E156.91272
G1 X129.906 Y83.600 E156.96072
G1 X133.100 Y83.600 E157.34400
G1 X133.100 Y139.400 E164.04000
G1 X129.906 Y139.400 E164.42328
G1 X129.906 Y140.000 E164.49528
G1 X93.094 Y140.000 E168.91272
G1 X93.094 Y139.400 E168.98472
G1 X89.900 Y139.400 E169.36800
G1 X89.900 Y83.600 E176.06400
G0 F9000 X90.300 Y84.000
G1 F1200 X93.494 Y84.000 E176.44728
G1 X93.494 Y83.600 E176.49528
G1 X129.506 Y83.600 E180.81672
G1 X129.506 Y84.000 E180.86472
G1 X132.700 Y84.000 E181.24800
G1 X132.700 Y139.000 E187.84800
G1 X129.506 Y139.000 E188.23128
G1 X129.506 Y139.600 E188.30328
G1 X93.494 Y139.600 E192.62472
G1 X93.494 Y139.000 E192.69672
G1 X90.300 Y139.000 E193.08000
G1 X90.300 Y84.000 E199.68000
G0 F9000 X90.700 Y84.400
G1 F1200 X93.894 Y84.400 E200.06328
G1 X93.894 Y84.000 E200.11128
G1 X129.106 Y84.000 E204.33672
G1 X129.106 Y84.400 E204.38472
G1 X132.300 Y84.400 E204.76800
G1 X132.300 Y138.600 E211.27200
G1 X129.106 Y138.600 E211.65528
G1 X129.106 Y139.200 E211.72728
G1 X93.894 Y139.200 E215.95272
G1 X93.894 Y138.600 E216.02472
G1 X90.700 Y138.600 E216.40800
G1 X90.700 Y84.400 E222.91200
G0 F9000 X91.100 Y84.800
G1 F1200 X94.294 Y84.800 E223.29528
G1 X94.294 Y84.400 E223.34328
G1 X128.706 Y84.400 E227.47272
G1 X128.706 Y84.800 E227.52072
G1 X131.900 Y84.800 E227.90400
G1 X131.900 Y138.200 E234.31200
G1 X128.706 Y138.200 E234.69528
G1 X128.706 Y138.800 E234.76728
G1 X94.294 Y138.800 E238.89672
G1 X94.294 Y138.200 E238.96872
G1 X91.100 Y138.200 E239.35200
G1 X91.100 Y84.800 E245.76000
G0 F9000 X91.500 Y85.200
G1 F1200 X94.694 Y85.200 E246.14328
G1 X94.694 Y84.800 E246.19128
G1 X128.306 Y84.800 E250.22472
G1 X128.306 Y85.200 E250.27272
G1 X131.500 Y85.200 E250.65600
G1 X131.500 Y137.800 E256.96800
G1 X128.306 Y137.800 E257.35128
G1 X128.306 Y138.400 E257.42328
G1 X94.694 Y138.400 E261.45672
G1 X94.694 Y137.800 E261.52872
G1 X91.500 Y137.800 E261.91200
G1 X91.500 Y85.200 E268.22400
G0 F9000 X91.900 Y85.600
G1 F1200 X95.094 Y85.600 E268.60728
G1 X95.094 Y85.200 E268.65528
G1 X127.906 Y85.200 E272.59272
G1 X127.906 Y85.600 E272.64072
G1 X131.100 Y85.600 E273.02400
G1 X131.100 Y137.400 E279.24000
G1 X127.906 Y137.400 E279.62328
G1 X127.906 Y138.000 E279.69528
G1 X95.094 Y138.000 E283.63272
G1 X95.094 Y137.400 E283.70472
G1 X91.900 Y137.400 E284.08800
G1 X91.900 Y85.600 E290.30400
G0 F9000 X92.300 Y86.000
G1 F1200 X95.494 Y86.000 E290.68728
G1 X95.494 Y85.600 E290.73528
G1 X127.506 Y85.600 E294.57672
G1 X127.506 Y86.000 E294.62472
G1 X130.700 Y86.000 E295.00800
G1 X130.700 Y137.000 E301.12800
G1 X127.506 Y137.000 E301.51128
G1 X127.506 Y137.600 E301.58328
G1 X95.494 Y137.600 E305.42472
G1 X95.494 Y137.000 E305.49672
G1 X92.300 Y137.000 E305.88000
G1 X92.300 Y86.000 E312.00000
G0 F9000 X92.700 Y86.400
G1 F1200 X95.894 Y86.400 E312.38328
G1 X95.894 Y86.000 E312.43128
G1 X127.106 Y86.000 E316.17672
G1 X127.106 Y86.400 E316.22472
G1 X130.300 Y86.400 E316.60800
G1 X130.300 Y136.600 E322.63200
G1 X127.106 Y136.600 E323.01528
G1 X127.106 Y137.200 E323.08728
G1 X95.894 Y137.200 E326.83272
G1 X95.894 Y136.600 E326.90472
G1 X92.700 Y136.600 E327.28800
G1 X92.700 Y86.400 E333.31200
G0 F9000 X93.100 Y86.800
G1 F1200 X96.294 Y86.800 E333.69528
G1 X96.294 Y86.400 E333.74328
G1 X126.706 Y86.400 E337.39272
G1 X126.706 Y86.800 E337.44072
G1 X129.900 Y86.800 E337.82400
G1 X129.900 Y136.200 E343.75200
G1 X126.706 Y136.200 E344.13528
G1 X126.706 Y136.800 E344.20728
G1 X96.294 Y136.800 E347.85672
G1 X96.294 Y136.200 E347.92872
G1 X93.100 Y136.200 E348.31200
G1 X93.100 Y86.800 E354.24000
G0 F9000 X93.500 Y87.200
G1 F1200 X96.694 Y87.200 E354.62328
G1 X96.694 Y86.800 E354.67128
G1 X126.306 Y86.800 E358.22472
G1 X126.306 Y87.200 E358.27272
G1 X129.500 Y87.200 E358.65600
G1 X129.500 Y135.800 E364.48800
G1 X126.306 Y135.800 E364.87128
G1 X126.306 Y136.400 E364.94328
G1 X96.694 Y136.400 E368.49672
G1 X96.694 Y135.800 E368.56872
G1 X93.500 Y135.800 E368.95200
G1 X93.500 Y87.200 E374.78400
G0 F9000 X93.900 Y87.600
G1 F1200 X97.094 Y87.600 E375.16728
G1 X97.094 Y87.200 E375.21528
G1 X125.906 Y87.200 E378.67272
G1 X125.906 Y87.600 E378.72072
G1 X129.100 Y87.600 E379.10400
G1 X129.100 Y135.400 E384.84000
G1 X125.906 Y135.400 E385.22328
G1 X125.906 Y136.000 E385.29528
G1 X97.094 Y136.000 E388.75272
G1 X97.094 Y135.400 E388.82472
G1 X93.900 Y135.400 E389.20800
G1 X93.900 Y87.600 E394.94400
G0 F9000 X94.300 Y88.000
G1 F1200 X97.494 Y88.000 E395.32728
G1 X97.494 Y87.600 E395.37528
G1 X125.506 Y87.600 E398.73672
G1 X125.506 Y88.000 E398.78472
G1 X128.700 Y88.000 E399.16800
G1 X128.700 Y135.000 E404.80800
G1 X125.506 Y135.000 E405.19128
G1 X125.506 Y135.600 E405.26328
G1 X97.494 Y135.600 E408.62472
G1 X97.494 Y135.000 E408.69672
G1 X94.300 Y135.000 E409.08000
G1 X94.300 Y88.000 E414.72000
G0 F9000 X94.700 Y88.400
G1 F1200 X97.894 Y88.400 E415.10328
G1 X97.894 Y88.000 E415.15128
G1 X125.106 Y88.000 E418.41672
G1 X125.106 Y88.400 E418.46472
G1 X128.300 Y88.400 E418.84800
G1 X128.300 Y134.600 E424.39200
G1 X125.106 Y134.600 E424.77528
G1 X125.106 Y135.200 E424.84728
G1 X97.894 Y135.200 E428.11272
G1 X97.894 Y134.600 E428.18472
G1 X94.700 Y134.600 E428.56800
G1 X94.700 Y88.400 E434.11200
G0 F9000 X95.100 Y88.800
G1 F1200 X98.294 Y88.800 E434.49528
G1 X98.294 Y88.400 E434.54328
G1 X124.706 Y88.400 E437.71272
G1 X124.706 Y88.800 E437.76072
G1 X127.900 Y88.800 E438.14400
G1 X127.900 Y134.200 E443.59200
G1 X124.706 Y134.200 E443.97528
G1 X124.706 Y134.800 E444.04728
G1 X98.294 Y134.800 E447.21672
G1 X98.294 Y134.200 E447.28872
G1 X95.100 Y134.200 E447.67200
G1 X95.100 Y88.800 E453.12000
G0 F9000 X95.800 Y89.410
G0 X96.300 Y90.000
;TYPE:WALL-INNER
G1 F1200 X97.494 Y90.000 E453.26328
G1 X97.494 Y133.000 E458.42328
G1 X96.300 Y133.000 E458.56656
G1 X96.300 Y90.000 E463.72656
G0 F9000 X95.900 Y89.600
G1 F1200 X97.894 Y89.600 E463.96584
G1 X97.894 Y133.400 E469.22184
G1 X95.900 Y133.400 E469.46112
G1 X95.900 Y89.600 E474.71712
G0 F9000 X95.500 Y89.200
;TYPE:WALL-OUTER
G1 F1200 X98.294 Y89.200 E475.05240
G1 X98.294 Y133.800 E480.40440
G1 X95.500 Y133.800 E480.73968
G1 X95.500 Y89.200 E486.09168
G0 F9000 X96.645 Y90.139
;TYPE:SKIN
G1 F900 X97.353 Y90.848 E486.21192
G0 F9000 X97.353 Y91.414
G1 F900 X96.438 Y90.499 E486.36720
G0 F9000 X96.438 Y91.064
G1 F900 X97.353 Y91.979 E486.52248
G0 F9000 X97.353 Y92.545
G1 F900 X96.438 Y91.630 E486.67776
G0 F9000 X96.438 Y92.196
G1 F900 X97.353 Y93.111 E486.83304
G0 F9000 X97.353 Y93.676
G1 F900 X96.438 Y92.761 E486.98832
G0 F9000 X96.438 Y93.327
G1 F900 X97.353 Y94.242 E487.14360
G0 F9000 X97.353 Y94.808
G1 F900 X96.438 Y93.893 E487.29888
G0 F9000 X96.438 Y94.458
G1 F900 X97.353 Y95.373 E487.45416
G0 F9000 X97.353 Y95.939
G1 F900 X96.438 Y95.024 E487.60944
G0 F9000 X96.438 Y95.590
G1 F900 X97.353 Y96.505 E487.76472
G0 F9000 X97.353 Y97.070
G1 F900 X96.438 Y96.155 E487.92000
G0 F9000 X96.438 Y96.721
G1 F900 X97.353 Y97.636 E488.07528
G0 F9000 X97.353 Y98.202
G1 F900 X96.438 Y97.287 E488.23056
G0 F9000 X96.438 Y97.852
G1 F900 X97.353 Y98.767 E488.38585
G0 F9000 X97.353 Y99.333
G1 F900 X96.438 Y98.418 E488.54113
G0 F9000 X96.438 Y98.984
G1 F900 X97.353 Y99.899 E488.69641
G0 F9000 X97.353 Y100.465
G1 F900 X96.438 Y99.550 E488.85169
G0 F9000 X97.353 Y90.282
G1 F900 X97.210 Y90.139 E488.87596
G0 F9000 X96.438 Y100.115
G1 F900 X97.353 Y101.030 E489.03124
G0 F9000 X97.353 Y101.596
G1 F900 X96.438 Y100.681 E489.18652
G0 F9000 X96.438 Y101.247
G1 F900 X97.353 Y102.162 E489.34180
G0 F9000 X97.353 Y102.727
G1 F900 X96.438 Y101.812 E489.49708
G0 F9000 X96.438 Y102.378
G1 F900 X97.353 Y103.293 E489.65236
G0 F9000 X97.353 Y103.859
G1 F900 X96.438 Y102.944 E489.80764
G0 F9000 X96.438 Y103.509
G1 F900 X97.353 Y104.424 E489.96292
G0 F9000 X97.353 Y104.990
G1 F900 X96.438 Y104.075 E490.11820
G0 F9000 X96.438 Y104.641
G1 F900 X97.353 Y105.556 E490.27348
G0 F9000 X97.353 Y106.121
G1 F900 X96.438 Y105.206 E490.42876
G0 F9000 X96.438 Y105.772
G1 F900 X97.353 Y106.687 E490.58404
G0 F9000 X97.353 Y107.253
G1 F900 X96.438 Y106.338 E490.73932
G0 F9000 X96.438 Y106.903
G1 F900 X97.353 Y107.818 E490.89460
G0 F9000 X97.353 Y108.384
G1 F900 X96.438 Y107.469 E491.04988
G0 F9000 X96.438 Y108.035
G1 F900 X97.353 Y108.950 E491.20517
G0 F9000 X97.353 Y109.515
G1 F900 X96.438 Y108.600 E491.36045
G0 F9000 X96.438 Y109.166
G1 F900 X97.353 Y110.081 E491.51573
G0 F9000 X97.353 Y110.647
G1 F900 X96.438 Y109.732 E491.67101
G0 F9000 X96.438 Y110.298
G1 F900 X97.353 Y111.213 E491.82629
G0 F9000 X97.353 Y111.778
G1 F900 X96.438 Y110.863 E491.98157
G0 F9000 X96.438 Y111.429
G1 F900 X97.353 Y112.344 E492.13685
G0 F9000 X97.353 Y112.910
G1 F900 X96.439 Y111.995 E492.29204
G0 F9000 X96.439 Y112.561
G1 F900 X97.353 Y113.475 E492.44716
G0 F9000 X97.353 Y114.041
G1 F900 X96.439 Y113.127 E492.60227
G0 F9000 X96.439 Y113.692
G1 F900 X97.353 Y114.607 E492.75746
G0 F9000 X97.353 Y115.172
G1 F900 X96.439 Y114.258 E492.91257
G0 F9000 X96.439 Y114.824
G1 F900 X97.353 Y115.738 E493.06768
G0 F9000 X97.353 Y116.304
G1 F900 X96.439 Y115.389 E493.22288
G0 F9000 X96.439 Y115.955
G1 F900 X97.353 Y116.869 E493.37799
G0 F9000 X97.353 Y117.435
G1 F900 X96.439 Y116.521 E493.53310
G0 F9000 X96.439 Y117.086
G1 F900 X97.353 Y118.001 E493.68830
G0 F9000 X97.353 Y118.566
G1 F900 X96.439 Y117.652 E493.84341
G0 F9000 X96.439 Y118.218
G1 F900 X97.353 Y119.132 E493.99852
G0 F9000 X97.353 Y119.698
G1 F900 X96.439 Y118.784 E494.15363
G0 F9000 X96.439 Y119.349
G1 F900 X97.353 Y120.264 E494.30883
G0 F9000 X97.353 Y120.829
G1 F900 X96.439 Y119.915 E494.46394
G0 F9000 X96.439 Y120.481
G1 F900 X97.353 Y121.395 E494.61905
G0 F9000 X97.353 Y121.961
G1 F900 X96.439 Y121.046 E494.77424
G0 F9000 X96.439 Y121.612
G1 F900 X97.353 Y122.526 E494.92936
G0 F9000 X97.353 Y123.092
G1 F900 X96.439 Y122.178 E495.08447
G0 F9000 X96.439 Y122.743
G1 F900 X97.353 Y123.658 E495.23966
G0 F9000 X97.353 Y124.223
G1 F900 X96.439 Y123.309 E495.39477
G0 F9000 X96.439 Y123.875
G1 F900 X97.353 Y124.789 E495.54988
G0 F9000 X97.353 Y125.355
G1 F900 X96.439 Y124.440 E495.70508
G0 F9000 X96.439 Y125.006
G1 F900 X97.353 Y125.920 E495.86019
G0 F9000 X97.353 Y126.486
G1 F900 X96.439 Y125.572 E496.01530
G0 F9000 X96.439 Y126.137
G1 F900 X97.353 Y127.052 E496.17050
G0 F9000 X97.353 Y127.617
G1 F900 X96.439 Y126.703 E496.32561
G0 F9000 X96.439 Y127.269
G1 F900 X97.353 Y128.183 E496.48072
G0 F9000 X97.353 Y128.749
G1 F900 X96.439 Y127.835 E496.63583
G0 F9000 X96.439 Y128.400
G1 F900 X97.353 Y129.314 E496.79094
G0 F9000 X97.353 Y129.880
G1 F900 X96.439 Y128.966 E496.94605
G0 F9000 X96.439 Y129.532
G1 F900 X97.353 Y130.446 E497.10116
G0 F9000 X97.353 Y131.012
G1 F900 X96.439 Y130.097 E497.25636
G0 F9000 X96.439 Y130.663
G1 F900 X97.353 Y131.577 E497.41147
G0 F9000 X97.353 Y132.143
G1 F900 X96.439 Y131.229 E497.56658
G0 F9000 X96.439 Y131.794
G1 F900 X97.353 Y132.709 E497.72178
G0 F9000 X96.937 Y132.859
G1 F900 X96.439 Y132.360 E497.80637
G10
G0 F9000 X125.506 Y133.000
;TYPE:WALL-INNER
G11
G1 F1200 X125.506 Y90.000 E502.96637
G1 X126.700 Y90.000 E503.10965
G1 X126.700 Y133.000 E508.26965
G1 X125.506 Y133.000 E508.41293
G0 F9000 X125.106 Y133.400
G1 F1200 X125.106 Y89.600 E513.66893
G1 X127.100 Y89.600 E513.90821
G1 X127.100 Y133.400 E519.16421
G1 X125.106 Y133.400 E519.40349
G0 F9000 X124.706 Y133.800
;TYPE:WALL-OUTER
G1 F1200 X124.706 Y89.200 E524.75549
G1 X127.500 Y89.200 E525.09077
G1 X127.500 Y133.800 E530.44277
G1 X124.706 Y133.800 E530.77805
G0 F9000 X125.787 Y132.859
;TYPE:SKIN
G1 F900 X125.645 Y132.716 E530.80224
G0 F9000 X125.645 Y132.150
G1 F900 X126.353 Y132.859 E530.92247
G0 F9000 X126.560 Y132.499
G1 F900 X125.645 Y131.584 E531.07776
G0 F9000 X125.645 Y131.019
G1 F900 X126.560 Y131.934 E531.23304
G0 F9000 X126.560 Y131.368
G1 F900 X125.645 Y130.453 E531.38832
G0 F9000 X125.645 Y129.887
G1 F900 X126.560 Y130.802 E531.54360
G0 F9000 X126.560 Y130.237
G1 F900 X125.645 Y129.322 E531.69888
G0 F9000 X125.645 Y128.756
G1 F900 X126.560 Y129.671 E531.85416
G0 F9000 X126.560 Y129.105
G1 F900 X125.645 Y128.190 E532.00944
G0 F9000 X125.645 Y127.624
G1 F900 X126.560 Y128.539 E532.16472
G0 F9000 X126.560 Y127.974
G1 F900 X125.645 Y127.059 E532.32000
G0 F9000 X125.645 Y126.493
G1 F900 X126.560 Y127.408 E532.47528
G0 F9000 X126.560 Y126.842
G1 F900 X125.645 Y125.927 E532.63056
G0 F9000 X125.645 Y125.362
G1 F900 X126.560 Y126.277 E532.78584
G0 F9000 X126.560 Y125.711
G1 F900 X125.645 Y124.796 E532.94112
G0 F9000 X125.645 Y124.230
G1 F900 X126.560 Y125.145 E533.09640
G0 F9000 X126.560 Y124.580
G1 F900 X125.645 Y123.665 E533.25168
G0 F9000 X125.645 Y123.099
G1 F900 X126.560 Y124.014 E533.40696
G0 F9000 X126.560 Y123.448
G1 F900 X125.645 Y122.533 E533.56225
G0 F9000 X125.645 Y121.968
G1 F900 X126.560 Y122.883 E533.71753
G0 F9000 X126.560 Y122.317
G1 F900 X125.645 Y121.402 E533.87281
G0 F9000 X125.645 Y120.836
G1 F900 X126.560 Y121.751 E534.02809
G0 F9000 X126.560 Y121.186
G1 F900 X125.645 Y120.271 E534.18337
G0 F9000 X125.645 Y119.705
G1 F900 X126.560 Y120.620 E534.33865
G0 F9000 X126.560 Y120.054
G1 F900 X125.645 Y119.139 E534.49393
G0 F9000 X125.645 Y118.574
G1 F900 X126.560 Y119.489 E534.64921
G0 F9000 X126.560 Y118.923
G1 F900 X125.645 Y118.008 E534.80449
G0 F9000 X125.645 Y117.442
G1 F900 X126.560 Y118.357 E534.95977
G0 F9000 X126.560 Y117.791
G1 F900 X125.645 Y116.876 E535.11505
G0 F9000 X125.645 Y116.311
G1 F900 X126.560 Y117.226 E535.27033
G0 F9000 X126.560 Y116.660
G1 F900 X125.645 Y115.745 E535.42561
G0 F9000 X125.645 Y115.179
