;FLAVOR:UltiGCode
;TIME:2462
;MATERIAL:2081
;MATERIAL2:0
;NOZZLE_DIAMETER:0.400000
;NOZZLE_DIAMETER2:0.400000

;Layer count: 113
;LAYER:0
M107
G0 F9000 X95.602 Y94.600 Z0.300
G0 X95.371 Y94.836
;TYPE:SKIRT
G1 F1200 X95.602 Y94.600 E0.03963
G1 X96.957 Y93.424 E0.25493
G1 X98.228 Y92.479 E0.44499
G1 X98.464 Y92.308 E0.47996
G1 X99.857 Y91.437 E0.67710
G1 X101.591 Y90.520 E0.91249
G1 X103.085 Y89.886 E1.10724
G1 X104.795 Y89.295 E1.32435
G1 X106.557 Y88.838 E1.54279
G1 X108.300 Y88.529 E1.75521
G1 X108.838 Y88.461 E1.82029
G1 X110.390 Y88.324 E2.00725
G1 X112.211 Y88.309 E2.22578
G1 X114.028 Y88.436 E2.44435
G1 X115.830 Y88.706 E2.66300
G1 X117.606 Y89.115 E2.88170
G1 X119.343 Y89.663 E3.10027
G1 X121.032 Y90.346 E3.31889
G1 X122.663 Y91.160 E3.53763
G1 X124.198 Y92.082 E3.75251
G1 X125.579 Y93.065 E3.95592
G1 X126.975 Y94.218 E4.17319
G1 X128.392 Y95.593 E4.41013
G1 X129.597 Y96.981 E4.63070
G1 X130.680 Y98.444 E4.84913
G1 X131.646 Y99.989 E5.06778
G1 X132.487 Y101.606 E5.28650
G1 X133.198 Y103.284 E5.50519
G1 X133.776 Y105.012 E5.72384
G1 X134.216 Y106.779 E5.94236
G1 X134.517 Y108.576 E6.16100
G1 X134.657 Y110.182 E6.35445
G1 X134.688 Y111.857 E6.55549
G1 X134.691 Y112.207 E6.59749
G1 X134.580 Y113.818 E6.79127
G1 X134.346 Y115.487 E6.99351
G1 X134.294 Y115.833 E7.03549
G1 X133.893 Y117.573 E7.24977
G1 X133.421 Y119.076 E7.43881
G1 X133.332 Y119.355 E7.47395
G1 X132.712 Y120.889 E7.67250
G1 X131.849 Y122.648 E7.90761
G1 X131.011 Y124.045 E8.10310
G1 X129.976 Y125.523 E8.31963
G1 X128.900 Y126.831 E8.52287
G1 X128.673 Y127.102 E8.56529
G1 X127.629 Y128.164 E8.74400
G1 X127.398 Y128.400 E8.78363
G1 X126.271 Y129.379 E8.96277
G1 X126.020 Y129.597 E9.00266
G1 X124.823 Y130.482 E9.18130
G1 X124.558 Y130.679 E9.22092
G1 X123.295 Y131.467 E9.39956
G1 X123.296 Y131.468 E9.39973
G1 X123.011 Y131.646 E9.44005
G1 X121.579 Y132.390 E9.63370
G1 X120.040 Y133.061 E9.83517
G1 X119.716 Y133.199 E9.87743
G1 X118.186 Y133.710 E10.07100
G1 X116.442 Y134.162 E10.28720
G1 X114.708 Y134.470 E10.49853
G1 X114.198 Y134.537 E10.56026
G1 X112.640 Y134.672 E10.74792
G1 X111.089 Y134.688 E10.93405
G1 X110.790 Y134.692 E10.96993
G1 X109.125 Y134.575 E11.17023
G1 X107.186 Y134.298 E11.40527
G1 X105.394 Y133.885 E11.62594
G1 X103.657 Y133.337 E11.84451
G1 X101.968 Y132.654 E12.06314
G1 X100.337 Y131.840 E12.28188
G1 X98.774 Y130.901 E12.50068
G1 X97.293 Y129.843 E12.71909
G1 X95.898 Y128.673 E12.93758
G1 X94.597 Y127.395 E13.15642
G1 X93.402 Y126.019 E13.37512
G1 X92.320 Y124.556 E13.59347
G1 X91.354 Y123.011 E13.81213
G1 X90.513 Y121.393 E14.03095
G1 X89.815 Y119.746 E14.24561
G1 X89.316 Y118.262 E14.43349
G1 X89.224 Y117.990 E14.46794
G1 X88.821 Y116.371 E14.66815
G1 X88.485 Y114.441 E14.90323
G1 X88.343 Y112.818 E15.09874
G1 X88.312 Y111.143 E15.29977
G1 X88.309 Y110.793 E15.34177
G1 X88.420 Y109.182 E15.53555
G1 X88.654 Y107.511 E15.73803
G1 X88.706 Y107.166 E15.77990
G1 X89.041 Y105.713 E15.95883
G1 X89.117 Y105.387 E15.99900
G1 X89.600 Y103.858 E16.19142
G1 X90.216 Y102.290 E16.39358
G1 X90.349 Y101.963 E16.43594
G1 X91.010 Y100.636 E16.61384
G1 X91.158 Y100.339 E16.65366
G1 X91.990 Y98.955 E16.84744
G1 X93.024 Y97.477 E17.06389
G1 X94.100 Y96.169 E17.26714
G1 X94.327 Y95.898 E17.30956
G1 X95.371 Y94.836 E17.48827
G0 F9000 X95.656 Y95.116
G1 F1200 X95.877 Y94.891 E17.52611
G1 X97.207 Y93.736 E17.73749
G1 X98.465 Y92.802 E17.92551
G1 X98.688 Y92.640 E17.95859
G1 X100.057 Y91.784 E18.15234
G1 X101.762 Y90.881 E18.38386
G1 X103.229 Y90.259 E18.57507
G1 X104.910 Y89.678 E18.78850
G1 X106.643 Y89.229 E19.00333
G1 X108.360 Y88.924 E19.21259
G1 X108.881 Y88.859 E19.27560
G1 X110.409 Y88.724 E19.45967
G1 X112.199 Y88.709 E19.67448
G1 X113.985 Y88.834 E19.88932
G1 X115.756 Y89.099 E20.10421
G1 X117.500 Y89.501 E20.31898
G1 X119.208 Y90.040 E20.53390
G1 X120.868 Y90.711 E20.74876
G1 X122.471 Y91.510 E20.96369
G1 X123.979 Y92.417 E21.17486
G1 X125.335 Y93.383 E21.37465
G1 X126.708 Y94.516 E21.58826
G1 X128.101 Y95.868 E21.82121
G1 X129.285 Y97.231 E22.03786
G1 X130.349 Y98.669 E22.25252
G1 X131.298 Y100.188 E22.46745
G1 X132.125 Y101.777 E22.68241
G1 X132.824 Y103.425 E22.89722
G1 X133.392 Y105.124 E23.11220
G1 X133.824 Y106.860 E23.32687
G1 X134.120 Y108.626 E23.54175
G1 X134.257 Y110.203 E23.73170
G1 X134.288 Y111.862 E23.93081
G1 X134.291 Y112.195 E23.97077
G1 X134.182 Y113.777 E24.16106
G1 X133.951 Y115.429 E24.36123
G1 X133.901 Y115.758 E24.40117
G1 X133.506 Y117.469 E24.61189
G1 X133.040 Y118.955 E24.79877
G1 X132.956 Y119.219 E24.83201
G1 X132.347 Y120.726 E25.02706
G1 X131.497 Y122.457 E25.25847
G1 X130.675 Y123.827 E25.45020
G1 X129.657 Y125.281 E25.66319
G1 X128.592 Y126.576 E25.86439
G1 X128.377 Y126.833 E25.90460
G1 X127.344 Y127.884 E26.08144
G1 X127.123 Y128.109 E26.11929
G1 X126.009 Y129.076 E26.29630
G1 X125.769 Y129.285 E26.33449
G1 X124.590 Y130.157 E26.51047
G1 X124.332 Y130.348 E26.54899
G1 X123.083 Y131.129 E26.72576
G1 X122.812 Y131.299 E26.76415
G1 X121.407 Y132.029 E26.95414
G1 X119.882 Y132.694 E27.15379
G1 X119.574 Y132.824 E27.19390
G1 X118.073 Y133.326 E27.38383
G1 X116.356 Y133.771 E27.59668
G1 X114.647 Y134.074 E27.80496
G1 X114.155 Y134.139 E27.86451
G1 X112.621 Y134.273 E28.04929
G1 X111.083 Y134.288 E28.23386
G1 X110.802 Y134.292 E28.26758
G1 X109.168 Y134.177 E28.46415
G1 X107.259 Y133.905 E28.69554
G1 X105.499 Y133.499 E28.91229
G1 X103.792 Y132.960 E29.12710
G1 X102.132 Y132.289 E29.34196
G1 X100.529 Y131.490 E29.55689
G1 X98.994 Y130.567 E29.77182
G1 X97.538 Y129.527 E29.98654
G1 X96.167 Y128.377 E30.20127
G1 X94.889 Y127.121 E30.41630
G1 X93.715 Y125.769 E30.63117
G1 X92.651 Y124.331 E30.84583
G1 X91.702 Y122.812 E31.06076
G1 X90.875 Y121.223 E31.27571
G1 X90.189 Y119.604 E31.48672
G1 X89.695 Y118.134 E31.67281
G1 X89.609 Y117.878 E31.70522
G1 X89.213 Y116.288 E31.90185
G1 X88.882 Y114.389 E32.13316
G1 X88.743 Y112.797 E32.32493
G1 X88.712 Y111.137 E32.52416
G1 X88.709 Y110.805 E32.56400
G1 X88.818 Y109.224 E32.75417
G1 X89.050 Y107.569 E32.95472
G1 X89.100 Y107.241 E32.99453
G1 X89.430 Y105.804 E33.17146
G1 X89.503 Y105.493 E33.20979
G1 X89.977 Y103.992 E33.39868
G1 X90.587 Y102.438 E33.59901
G1 X90.714 Y102.128 E33.63921
G1 X91.368 Y100.815 E33.81524
G1 X91.369 Y100.815 E33.81536
G1 X91.509 Y100.532 E33.85325
G1 X92.325 Y99.173 E34.04347
G1 X93.343 Y97.719 E34.25646
G1 X94.408 Y96.424 E34.45766
G1 X94.623 Y96.167 E34.49787
G1 X95.656 Y95.116 E34.67471
G10
G0 F9000 X98.652 Y98.060
;TYPE:WALL-INNER
G11
G1 F1200 X99.842 Y97.011 E34.86507
G1 X100.945 Y96.192 E35.02993
G1 X102.153 Y95.427 E35.20151
G1 X103.565 Y94.680 E35.39320
G1 X104.745 Y94.179 E35.54704
G1 X106.125 Y93.702 E35.72225
G1 X107.533 Y93.337 E35.89680
G1 X109.001 Y93.076 E36.07572
G1 X110.609 Y92.923 E36.26955
G1 X112.065 Y92.910 E36.44428
G1 X113.532 Y93.013 E36.62075
G1 X114.976 Y93.229 E36.79596
G1 X116.386 Y93.554 E36.96959
G1 X117.791 Y93.998 E37.14641
G1 X119.141 Y94.543 E37.32112
G1 X120.450 Y95.196 E37.49666
G1 X121.670 Y95.930 E37.66751
G1 X122.779 Y96.719 E37.83083
G1 X123.905 Y97.649 E38.00608
G1 X125.046 Y98.756 E38.19685
G1 X126.006 Y99.861 E38.37250
G1 X126.876 Y101.038 E38.54814
G1 X127.652 Y102.277 E38.72358
G1 X128.320 Y103.563 E38.89747
G1 X128.896 Y104.920 E39.07437
G1 X129.356 Y106.297 E39.24859
G1 X129.710 Y107.716 E39.42409
G1 X129.950 Y109.155 E39.59915
G1 X130.061 Y110.418 E39.75130
G1 X130.088 Y111.918 E39.93133
G1 X130.090 Y112.067 E39.94921
G1 X130.001 Y113.350 E40.10354
G1 X129.796 Y114.817 E40.28129
G1 X129.770 Y114.979 E40.30098
G1 X129.451 Y116.365 E40.47165
G1 X129.037 Y117.686 E40.63777
G1 X128.512 Y119.006 E40.80824
G1 X127.801 Y120.454 E41.00182
G1 X127.148 Y121.543 E41.15419
G1 X126.313 Y122.736 E41.32893
G1 X125.363 Y123.890 E41.50830
G1 X124.348 Y124.940 E41.68354
G1 X123.139 Y126.006 E41.87697
G1 X122.088 Y126.783 E42.03381
G1 X121.964 Y126.876 E42.05241
G1 X120.723 Y127.651 E42.22798
G1 X119.608 Y128.231 E42.37880
G1 X118.218 Y128.837 E42.56077
G1 X118.080 Y128.896 E42.57878
G1 X116.885 Y129.295 E42.72996
G1 X115.466 Y129.663 E42.90587
G1 X114.008 Y129.922 E43.08357
G1 X112.421 Y130.074 E43.27488
G1 X111.028 Y130.088 E43.44205
G1 X110.925 Y130.089 E43.45441
G1 X109.605 Y129.997 E43.61319
G1 X108.025 Y129.771 E43.80472
G1 X106.614 Y129.446 E43.97848
G1 X105.209 Y129.002 E44.15530
G1 X103.859 Y128.457 E44.33000
G1 X102.548 Y127.803 E44.50581
G1 X101.303 Y127.054 E44.68016
G1 X100.112 Y126.204 E44.85575
G1 X98.991 Y125.263 E45.03138
G1 X97.954 Y124.244 E45.20584
G1 X96.994 Y123.139 E45.38149
G1 X96.124 Y121.962 E45.55713
G1 X95.348 Y120.723 E45.73256
G1 X94.680 Y119.438 E45.90636
G1 X94.119 Y118.114 E46.07891
G1 X93.641 Y116.692 E46.25893
G1 X93.326 Y115.425 E46.41560
G1 X93.050 Y113.843 E46.60831
G1 X92.939 Y112.580 E46.76045
G1 X92.912 Y111.073 E46.94132
G1 X92.910 Y110.933 E46.95812
G1 X92.999 Y109.648 E47.11269
G1 X93.204 Y108.183 E47.29020
G1 X93.522 Y106.753 E47.46600
G1 X93.941 Y105.388 E47.63734
G1 X94.484 Y104.005 E47.81563
G1 X95.127 Y102.689 E47.99140
G1 X95.852 Y101.457 E48.16293
G1 X96.689 Y100.262 E48.33801
G1 X97.637 Y99.110 E48.51704
G1 X98.652 Y98.060 E48.69229
G0 F9000 X100.413 Y99.424
G1 F1200 X100.264 Y99.553 E48.71594
G1 X99.362 Y100.471 E48.87038
G1 X98.635 Y101.337 E49.00606
G1 X97.899 Y102.347 E49.15603
G1 X97.203 Y103.475 E49.31508
G1 X96.636 Y104.586 E49.46476
G1 X96.065 Y105.956 E49.64287
G1 X95.735 Y107.002 E49.77448
G1 X95.423 Y108.287 E49.93316
G1 X95.221 Y109.555 E50.08724
G1 X95.122 Y110.801 E50.23723
G1 X95.108 Y110.995 E50.26057
G1 X95.116 Y112.095 E50.39258
G1 X95.119 Y112.286 E50.41550
G1 X95.216 Y113.412 E50.55112
G1 X95.442 Y114.833 E50.72378
G1 X95.754 Y116.087 E50.87885
G1 X96.163 Y117.307 E51.03326
G1 X96.666 Y118.494 E51.18796
G1 X97.260 Y119.636 E51.34243
G1 X97.943 Y120.728 E51.49699
G1 X98.708 Y121.763 E51.65143
G1 X99.553 Y122.736 E51.80608
G1 X100.471 Y123.638 E51.96052
G1 X101.457 Y124.466 E52.11502
G1 X102.506 Y125.214 E52.26963
G1 X103.609 Y125.877 E52.42406
G1 X104.762 Y126.452 E52.57867
G1 X105.956 Y126.935 E52.73323
G1 X107.185 Y127.323 E52.88788
G1 X108.439 Y127.612 E53.04231
G1 X109.713 Y127.803 E53.19690
G1 X110.997 Y127.892 E53.35135
G1 X112.284 Y127.882 E53.50579
G1 X113.567 Y127.770 E53.66034
G1 X114.837 Y127.557 E53.81487
G1 X115.935 Y127.284 E53.95064
G1 X117.156 Y126.888 E54.10467
G1 X118.345 Y126.397 E54.25904
G1 X119.463 Y125.830 E54.40946
G1 X119.636 Y125.740 E54.43287
G1 X120.567 Y125.159 E54.56456
G1 X121.637 Y124.385 E54.72303
G1 X122.587 Y123.576 E54.87276
G1 X122.736 Y123.447 E54.89641
G1 X123.638 Y122.529 E55.05085
G1 X124.365 Y121.663 E55.18653
G1 X125.101 Y120.653 E55.33650
G1 X125.797 Y119.525 E55.49555
G1 X126.364 Y118.414 E55.64523
G1 X126.935 Y117.044 E55.82334
G1 X127.265 Y115.998 E55.95496
G1 X127.577 Y114.713 E56.11364
G1 X127.779 Y113.446 E56.26760
G1 X127.878 Y112.199 E56.41771
G1 X127.892 Y112.005 E56.44105
G1 X127.884 Y110.905 E56.57305
G1 X127.881 Y110.714 E56.59598
G1 X127.784 Y109.588 E56.73160
G1 X127.558 Y108.167 E56.90426
G1 X127.246 Y106.913 E57.05933
G1 X126.837 Y105.693 E57.21374
G1 X126.334 Y104.506 E57.36844
G1 X125.740 Y103.364 E57.52291
G1 X125.057 Y102.272 E57.67747
G1 X124.292 Y101.237 E57.83191
G1 X123.447 Y100.264 E57.98655
G1 X122.529 Y99.362 E58.14099
G1 X121.543 Y98.534 E58.29550
G1 X120.494 Y97.786 E58.45010
G1 X119.391 Y97.123 E58.60453
G1 X118.238 Y96.548 E58.75914
G1 X117.044 Y96.065 E58.91370
G1 X115.815 Y95.677 E59.06836
G1 X114.561 Y95.388 E59.22278
G1 X113.287 Y95.197 E59.37737
G1 X112.003 Y95.108 E59.53182
G1 X110.716 Y95.118 E59.68627
G1 X109.433 Y95.230 E59.84081
G1 X108.163 Y95.443 E59.99534
G1 X107.065 Y95.716 E60.13111
G1 X105.845 Y96.112 E60.28503
G1 X104.656 Y96.602 E60.43935
G1 X103.537 Y97.170 E60.58994
G1 X103.364 Y97.260 E60.61334
G1 X102.433 Y97.841 E60.74503
G1 X101.363 Y98.615 E60.90350
G1 X100.413 Y99.424 E61.05324
G0 F9000 X100.674 Y99.727
G1 F1200 X100.539 Y99.845 E61.07475
G1 X99.659 Y100.740 E61.22537
G1 X98.950 Y101.584 E61.35765
G1 X98.224 Y102.581 E61.50565
G1 X97.553 Y103.669 E61.65904
G1 X96.993 Y104.766 E61.80684
G1 X96.442 Y106.091 E61.97904
G1 X96.117 Y107.122 E62.10876
G1 X96.064 Y107.289 E62.12979
G1 X95.816 Y108.363 E62.26206
G1 X95.619 Y109.602 E62.41260
G1 X95.521 Y110.831 E62.56055
G1 X95.508 Y111.008 E62.58185
G1 X95.516 Y112.091 E62.71181
G1 X95.518 Y112.266 E62.73281
G1 X95.613 Y113.363 E62.86495
G1 X95.835 Y114.753 E63.03386
G1 X96.139 Y115.975 E63.18497
G1 X96.537 Y117.166 E63.33566
G1 X97.028 Y118.323 E63.48648
G1 X97.608 Y119.437 E63.63720
G1 X98.274 Y120.503 E63.78803
G1 X99.021 Y121.513 E63.93878
G1 X99.845 Y122.461 E64.08951
G1 X100.740 Y123.341 E64.24012
G1 X101.702 Y124.150 E64.39096
G1 X102.726 Y124.879 E64.54180
G1 X103.802 Y125.526 E64.69246
G1 X104.926 Y126.087 E64.84321
G1 X106.091 Y126.558 E64.99400
G1 X107.290 Y126.936 E65.14486
G1 X108.514 Y127.219 E65.29562
G1 X109.757 Y127.405 E65.44644
G1 X111.010 Y127.492 E65.59716
G1 X112.265 Y127.482 E65.74777
G1 X113.517 Y127.373 E65.89857
G1 X114.755 Y127.165 E66.04922
G1 X115.825 Y126.899 E66.18152
G1 X117.017 Y126.513 E66.33188
G1 X118.178 Y126.034 E66.48259
G1 X119.280 Y125.474 E66.63092
G1 X119.437 Y125.392 E66.65218
G1 X120.354 Y124.820 E66.78187
G1 X120.503 Y124.726 E66.80301
G1 X121.388 Y124.071 E66.93513
G1 X122.326 Y123.273 E67.08292
G1 X122.461 Y123.155 E67.10443
G1 X123.341 Y122.260 E67.25505
G1 X124.050 Y121.416 E67.38733
G1 X124.776 Y120.419 E67.53533
G1 X125.447 Y119.331 E67.68872
G1 X126.007 Y118.234 E67.83652
G1 X126.558 Y116.909 E68.00872
G1 X126.883 Y115.878 E68.13844
G1 X126.936 Y115.711 E68.15946
G1 X127.184 Y114.637 E68.29174
G1 X127.381 Y113.399 E68.44217
G1 X127.479 Y112.169 E68.59023
G1 X127.492 Y111.992 E68.61153
G1 X127.484 Y110.909 E68.74149
G1 X127.482 Y110.734 E68.76250
G1 X127.387 Y109.637 E68.89463
G1 X127.165 Y108.247 E69.06354
G1 X126.861 Y107.025 E69.21465
G1 X126.463 Y105.834 E69.36534
G1 X125.972 Y104.677 E69.51616
G1 X125.392 Y103.563 E69.66688
G1 X124.726 Y102.497 E69.81771
G1 X123.979 Y101.487 E69.96846
G1 X123.155 Y100.539 E70.11919
G1 X122.260 Y99.659 E70.26981
G1 X121.298 Y98.850 E70.42064
G1 X120.274 Y98.121 E70.57148
G1 X119.198 Y97.474 E70.72214
G1 X118.074 Y96.913 E70.87289
G1 X116.909 Y96.442 E71.02368
G1 X115.710 Y96.064 E71.17454
G1 X114.486 Y95.781 E71.32530
G1 X113.243 Y95.595 E71.47612
G1 X111.990 Y95.508 E71.62684
G1 X110.735 Y95.518 E71.77745
G1 X109.483 Y95.627 E71.92825
G1 X108.245 Y95.835 E72.07890
G1 X107.175 Y96.101 E72.21120
G1 X105.984 Y96.487 E72.36144
G1 X104.823 Y96.966 E72.51215
G1 X103.720 Y97.526 E72.66060
G1 X103.563 Y97.608 E72.68185
G1 X102.646 Y98.180 E72.81154
G1 X102.497 Y98.274 E72.83269
G1 X101.612 Y98.929 E72.96481
G1 X100.674 Y99.727 E73.11259
G0 F9000 X98.366 Y97.780
G1 F1200 X99.582 Y96.706 E73.30728
G1 X100.716 Y95.864 E73.47677
G1 X101.959 Y95.076 E73.65337
G1 X103.399 Y94.314 E73.84888
G1 X104.588 Y93.810 E74.00385
G1 X106.005 Y93.320 E74.18377
G1 X107.454 Y92.945 E74.36337
G1 X108.941 Y92.681 E74.54460
G1 X110.596 Y92.523 E74.74411
G1 X112.077 Y92.510 E74.92183
G1 X113.581 Y92.615 E75.10275
G1 X115.037 Y92.833 E75.27942
G1 X116.505 Y93.172 E75.46022
G1 X117.924 Y93.620 E75.63878
G1 X119.301 Y94.177 E75.81703
G1 X120.646 Y94.847 E75.99735
G1 X121.890 Y95.595 E76.17153
G1 X123.020 Y96.399 E76.33795
G1 X124.169 Y97.348 E76.51678
G1 X125.344 Y98.489 E76.71332
G1 X126.318 Y99.610 E76.89153
G1 X127.203 Y100.806 E77.07007
G1 X127.999 Y102.079 E77.25023
G1 X128.686 Y103.401 E77.42901
G1 X129.266 Y104.766 E77.60699
G1 X129.741 Y106.188 E77.78690
G1 X130.100 Y107.629 E77.96510
G1 X130.347 Y109.105 E78.14468
G1 X130.460 Y110.405 E78.30127
G1 X130.488 Y111.914 E78.48238
G1 X130.490 Y112.079 E78.50218
G1 X130.399 Y113.391 E78.66000
G1 X130.191 Y114.877 E78.84006
G1 X129.834 Y116.481 E79.03725
G1 X129.418 Y117.808 E79.20413
G1 X128.877 Y119.170 E79.37999
G1 X128.154 Y120.644 E79.57701
G1 X127.490 Y121.750 E79.73181
G1 X126.623 Y122.988 E79.91318
G1 X125.670 Y124.147 E80.09323
G1 X124.634 Y125.220 E80.27222
G1 X123.390 Y126.318 E80.47133
G1 X122.194 Y127.203 E80.64987
G1 X120.921 Y127.999 E80.83003
