;FLAVOR:UltiGCode
;TIME:2283
;MATERIAL:2757
;MATERIAL2:0
;NOZZLE_DIAMETER:0.400000
;NOZZLE_DIAMETER2:0.400000

;Layer count: 81
;LAYER:0
M107
G0 F9000 X70.136 Y136.060 Z0.300
G0 X69.891 Y136.952
;TYPE:SKIRT
G1 F1200 X69.077 Y137.766 E0.13814
G1 X69.313 Y138.330 E0.21151
G1 X67.572 Y140.071 E0.50696
G1 X67.572 Y140.471 E0.55496
G1 X67.372 Y140.671 E0.58891
G1 X67.372 Y141.071 E0.63691
G1 X67.172 Y141.271 E0.67085
G1 X67.172 Y141.310 E0.67553
G1 X68.010 Y141.592 E0.78163
G1 X67.667 Y143.724 E1.04076
G1 X67.864 Y143.921 E1.07419
G1 X67.760 Y144.217 E1.11184
G1 X70.293 Y146.750 E1.54170
G1 X68.993 Y148.050 E1.76232
G1 X70.619 Y148.050 E1.95744
G1 X71.316 Y149.780 E2.18126
G1 X73.833 Y149.873 E2.48350
G1 X76.626 Y147.083 E2.95723
G1 X78.142 Y148.599 E3.21451
G1 X78.992 Y148.316 E3.32201
G1 X79.072 Y148.236 E3.33559
G1 X79.072 Y148.029 E3.36043
G1 X79.272 Y147.829 E3.39437
G1 X79.272 Y147.629 E3.41837
G1 X79.472 Y147.429 E3.45231
G1 X79.472 Y147.029 E3.50031
G1 X79.672 Y146.829 E3.53425
G1 X79.672 Y146.434 E3.58165
G1 X80.272 Y145.833 E3.68356
G1 X80.272 Y145.429 E3.73204
G1 X80.472 Y145.229 E3.76598
G1 X80.472 Y144.629 E3.83798
G1 X80.672 Y144.429 E3.87192
G1 X80.672 Y143.629 E3.96792
G1 X80.872 Y143.429 E4.00186
G1 X80.872 Y142.429 E4.12186
G1 X81.072 Y142.229 E4.15581
G1 X81.072 Y139.669 E4.46301
G1 X80.078 Y138.334 E4.66274
G1 X79.626 Y137.818 E4.74505
G1 X79.181 Y137.384 E4.81964
G1 X78.679 Y136.967 E4.89796
G1 X78.138 Y136.584 E4.97750
G1 X77.607 Y136.268 E5.05165
G1 X77.011 Y135.973 E5.13145
G1 X76.426 Y135.739 E5.20706
G1 X75.797 Y135.543 E5.28612
G1 X75.179 Y135.403 E5.36216
G1 X74.539 Y135.310 E5.43976
G1 X73.885 Y135.266 E5.51842
G1 X73.237 Y135.274 E5.59619
G1 X72.605 Y135.333 E5.67236
G1 X71.966 Y135.442 E5.75014
G1 X71.331 Y135.602 E5.82872
G1 X70.736 Y135.803 E5.90409
G1 X70.136 Y136.060 E5.98242
G1 X69.633 Y136.325 E6.05064
G1 X69.891 Y136.952 E6.13200
G0 F9000 X69.420 Y136.858
G1 F1200 X68.605 Y137.673 E6.27031
G1 X68.841 Y138.237 E6.34368
G1 X67.172 Y139.906 E6.62692
G1 X67.172 Y140.305 E6.67480
G1 X66.972 Y140.505 E6.70874
G1 X66.972 Y140.905 E6.75674
G1 X66.772 Y141.105 E6.79068
G1 X66.772 Y141.597 E6.84972
G1 X67.562 Y141.863 E6.94975
G1 X67.240 Y143.862 E7.19272
G1 X67.403 Y144.026 E7.22047
G1 X67.299 Y144.322 E7.25812
G1 X69.727 Y146.750 E7.67016
G1 X68.325 Y148.152 E7.90809
G1 X68.623 Y148.450 E7.95866
G1 X70.349 Y148.450 E8.16578
G1 X71.042 Y150.170 E8.38830
G1 X73.992 Y150.279 E8.74254
G1 X76.626 Y147.649 E9.18921
G1 X78.034 Y149.056 E9.42807
G1 X79.208 Y148.666 E9.57652
G1 X79.472 Y148.401 E9.62141
G1 X79.472 Y148.195 E9.64613
G1 X79.672 Y147.995 E9.68007
G1 X79.672 Y147.795 E9.70407
G1 X79.872 Y147.595 E9.73801
G1 X79.872 Y147.195 E9.78601
G1 X80.072 Y146.995 E9.81995
G1 X80.072 Y146.599 E9.86747
G1 X80.672 Y145.998 E9.96938
G1 X80.672 Y145.595 E10.01774
G1 X80.872 Y145.395 E10.05168
G1 X80.872 Y144.795 E10.12368
G1 X81.072 Y144.595 E10.15762
G1 X81.072 Y143.795 E10.25362
G1 X81.272 Y143.595 E10.28756
G1 X81.272 Y142.595 E10.40756
G1 X81.472 Y142.395 E10.44150
G1 X81.472 Y139.536 E10.78458
G1 X80.385 Y138.077 E11.00291
G1 X79.918 Y137.545 E11.08786
G1 X79.444 Y137.082 E11.16737
G1 X78.925 Y136.650 E11.24840
G1 X78.358 Y136.249 E11.33174
G1 X77.801 Y135.917 E11.40955
G1 X77.178 Y135.609 E11.49295
G1 X76.558 Y135.361 E11.57308
G1 X75.901 Y135.157 E11.65564
G1 X75.251 Y135.009 E11.73563
G1 X74.582 Y134.912 E11.81675
G1 X73.896 Y134.866 E11.89926
G1 X73.219 Y134.875 E11.98050
G1 X72.544 Y134.937 E12.06184
G1 X71.888 Y135.049 E12.14170
G1 X71.220 Y135.218 E12.22439
G1 X70.588 Y135.431 E12.30442
G1 X69.969 Y135.696 E12.38522
G1 X69.364 Y136.014 E12.46724
G1 X69.132 Y136.159 E12.50007
G1 X69.420 Y136.858 E12.59079
G0 F9000 X68.948 Y136.763
G1 F1200 X68.132 Y137.579 E12.72927
G1 X68.368 Y138.144 E12.80275
G1 X66.772 Y139.740 E13.07360
G1 X66.772 Y140.139 E13.12148
G1 X66.572 Y140.339 E13.15542
G1 X66.572 Y140.739 E13.20342
G1 X66.372 Y140.939 E13.23736
G1 X66.372 Y141.884 E13.35076
G1 X67.113 Y142.134 E13.44460
G1 X66.812 Y144.001 E13.67154
G1 X66.942 Y144.131 E13.69360
G1 X66.838 Y144.427 E13.73125
G1 X69.161 Y146.750 E14.12547
G1 X67.759 Y148.152 E14.36340
G1 X68.456 Y148.850 E14.48177
G1 X70.079 Y148.850 E14.67653
G1 X70.768 Y150.561 E14.89787
G1 X74.151 Y150.685 E15.30410
G1 X76.626 Y148.214 E15.72379
G1 X77.926 Y149.514 E15.94440
G1 X79.472 Y148.999 E16.13995
G1 X79.472 Y148.968 E16.14367
G1 X79.872 Y148.567 E16.21163
G1 X79.872 Y148.361 E16.23635
G1 X80.072 Y148.161 E16.27030
G1 X80.072 Y147.961 E16.29430
G1 X80.272 Y147.761 E16.32824
G1 X80.272 Y147.361 E16.37624
G1 X80.472 Y147.161 E16.41018
G1 X80.472 Y146.765 E16.45770
G1 X81.072 Y146.164 E16.55961
G1 X81.072 Y145.761 E16.60797
G1 X81.272 Y145.561 E16.64191
G1 X81.272 Y144.961 E16.71391
G1 X81.472 Y144.761 E16.74785
G1 X81.472 Y143.961 E16.84385
G1 X81.672 Y143.761 E16.87779
G1 X81.672 Y142.761 E16.99779
G1 X81.872 Y142.561 E17.03173
G1 X81.872 Y139.403 E17.41069
G1 X80.702 Y137.832 E17.64575
G1 X80.206 Y137.266 E17.73606
G1 X79.717 Y136.789 E17.81803
G1 X79.163 Y136.328 E17.90452
G1 X78.584 Y135.918 E17.98965
G1 X77.986 Y135.562 E18.07317
G1 X77.339 Y135.242 E18.15978
G1 X76.695 Y134.985 E18.24299
G1 X76.006 Y134.771 E18.32957
G1 X75.321 Y134.615 E18.41387
G1 X74.617 Y134.512 E18.49925
G1 X73.914 Y134.466 E18.58379
G1 X73.191 Y134.475 E18.67056
G1 X72.501 Y134.539 E18.75371
G1 X71.799 Y134.659 E18.83917
G1 X71.112 Y134.832 E18.92419
G1 X70.443 Y135.058 E19.00893
G1 X69.798 Y135.334 E19.09311
G1 X69.160 Y135.669 E19.17959
G1 X68.634 Y136.000 E19.25416
G1 X68.948 Y136.763 E19.35317
G0 F9000 X68.477 Y136.669
G1 F1200 X67.659 Y137.487 E19.49199
G1 X67.895 Y138.050 E19.56525
G1 X66.372 Y139.573 E19.82371
G1 X66.372 Y139.974 E19.87183
G1 X66.172 Y140.174 E19.90577
G1 X66.172 Y140.574 E19.95377
G1 X65.972 Y140.774 E19.98771
G1 X65.972 Y142.171 E20.15535
G1 X66.664 Y142.404 E20.24297
G1 X66.384 Y144.139 E20.45387
G1 X66.481 Y144.236 E20.47033
G1 X66.377 Y144.531 E20.50786
G1 X68.596 Y146.750 E20.88444
G1 X67.194 Y148.152 E21.12237
G1 X68.182 Y149.141 E21.29012
G1 X68.140 Y149.250 E21.30414
G1 X69.809 Y149.250 E21.50442
G1 X70.494 Y150.950 E21.72436
G1 X74.311 Y151.091 E22.18271
G1 X76.625 Y148.780 E22.57516
G1 X77.817 Y149.972 E22.77744
G1 X79.872 Y149.288 E23.03735
G1 X79.872 Y149.133 E23.05595
G1 X80.272 Y148.732 E23.12391
G1 X80.272 Y148.526 E23.14863
G1 X80.472 Y148.326 E23.18257
G1 X80.472 Y148.126 E23.20657
G1 X80.672 Y147.926 E23.24051
G1 X80.672 Y147.526 E23.28851
G1 X80.872 Y147.326 E23.32246
G1 X80.872 Y146.930 E23.36998
G1 X81.472 Y146.329 E23.47188
G1 X81.472 Y145.926 E23.52024
G1 X81.672 Y145.726 E23.55419
G1 X81.672 Y145.126 E23.62619
G1 X81.872 Y144.926 E23.66013
G1 X81.872 Y144.126 E23.75613
G1 X82.072 Y143.926 E23.79007
G1 X82.072 Y142.926 E23.91007
G1 X82.272 Y142.726 E23.94401
G1 X82.272 Y139.270 E24.35873
G1 X81.005 Y137.570 E24.61315
G1 X80.501 Y136.996 E24.70482
G1 X79.977 Y136.484 E24.79273
G1 X79.414 Y136.017 E24.88051
G1 X78.795 Y135.578 E24.97157
G1 X78.183 Y135.214 E25.05702
G1 X77.502 Y134.877 E25.14820
G1 X76.825 Y134.606 E25.23571
G1 X76.113 Y134.385 E25.32517
G1 X75.402 Y134.224 E25.41265
G1 X74.653 Y134.114 E25.50349
G1 X73.924 Y134.065 E25.59117
G1 X73.174 Y134.075 E25.68118
G1 X72.449 Y134.142 E25.76855
G1 X71.724 Y134.266 E25.85681
G1 X70.991 Y134.451 E25.94753
G1 X70.307 Y134.682 E26.03416
G1 X69.610 Y134.980 E26.12513
G1 X68.971 Y135.316 E26.21176
G1 X68.346 Y135.708 E26.30029
G1 X68.143 Y135.859 E26.33065
G1 X68.477 Y136.669 E26.43579
G0 F9000 X68.005 Y136.575
G1 F1200 X67.187 Y137.393 E26.57461
G1 X67.423 Y137.957 E26.64798
G1 X65.972 Y139.408 E26.89422
G1 X65.972 Y139.808 E26.94222
G1 X65.772 Y140.008 E26.97616
G1 X65.772 Y140.408 E27.02416
G1 X65.572 Y140.608 E27.05810
G1 X65.572 Y142.458 E27.28010
G1 X66.215 Y142.675 E27.36154
G1 X65.957 Y144.277 E27.55626
G1 X66.021 Y144.341 E27.56712
G1 X65.917 Y144.637 E27.60477
G1 X68.030 Y146.750 E27.96335
G1 X66.629 Y148.151 E28.20111
G1 X67.716 Y149.240 E28.38575
G1 X67.559 Y149.650 E28.43844
G1 X69.539 Y149.650 E28.67604
G1 X70.220 Y151.341 E28.89479
G1 X74.470 Y151.497 E29.40514
G1 X76.625 Y149.345 E29.77060
G1 X77.709 Y150.429 E29.95456
G1 X80.149 Y149.617 E30.26315
G1 X80.272 Y149.494 E30.28402
G1 X80.272 Y149.298 E30.30754
G1 X80.672 Y148.897 E30.37551
G1 X80.672 Y148.692 E30.40011
G1 X80.872 Y148.492 E30.43405
G1 X80.872 Y148.292 E30.45805
G1 X81.072 Y148.092 E30.49199
G1 X81.072 Y147.692 E30.53999
G1 X81.272 Y147.492 E30.57393
G1 X81.272 Y147.096 E30.62145
G1 X81.872 Y146.495 E30.72336
G1 X81.872 Y146.092 E30.77172
G1 X82.072 Y145.892 E30.80566
G1 X82.072 Y145.292 E30.87766
G1 X82.272 Y145.092 E30.91160
G1 X82.272 Y144.292 E31.00760
G1 X82.472 Y144.092 E31.04154
G1 X82.472 Y143.092 E31.16154
G1 X82.672 Y142.892 E31.19548
G1 X82.672 Y139.138 E31.64596
G1 X81.408 Y137.441 E31.89988
G1 X81.408 Y137.424 E31.90192
G1 X80.790 Y136.718 E32.01452
G1 X80.246 Y136.188 E32.10566
G1 X79.653 Y135.695 E32.19820
G1 X79.023 Y135.250 E32.29075
G1 X78.363 Y134.856 E32.38299
G1 X77.674 Y134.515 E32.47525
G1 X76.956 Y134.228 E32.56803
G1 X76.217 Y133.998 E32.66091
G1 X75.471 Y133.829 E32.75270
G1 X74.698 Y133.716 E32.84644
G1 X73.934 Y133.665 E32.93833
G1 X73.158 Y133.675 E33.03146
G1 X72.397 Y133.745 E33.12316
G1 X71.638 Y133.875 E33.21557
G1 X70.878 Y134.067 E33.30963
G1 X70.159 Y134.310 E33.40071
G1 X69.451 Y134.612 E33.49307
G1 X68.770 Y134.970 E33.58540
G1 X68.114 Y135.382 E33.67836
G1 X67.655 Y135.724 E33.74704
G1 X68.005 Y136.575 E33.85746
G0 F9000 X67.534 Y136.481
G1 F1200 X66.714 Y137.301 E33.99662
G1 X66.950 Y137.864 E34.06988
G1 X65.572 Y139.242 E34.30373
G1 X65.572 Y139.642 E34.35173
G1 X65.372 Y139.842 E34.38567
G1 X65.372 Y140.242 E34.43367
G1 X65.172 Y140.442 E34.46761
G1 X65.172 Y142.746 E34.74409
G1 X65.766 Y142.946 E34.81931
G1 X65.529 Y144.414 E34.99775
G1 X65.560 Y144.445 E35.00301
G1 X65.494 Y144.633 E35.02692
G1 X65.474 Y144.760 E35.04235
G1 X67.464 Y146.750 E35.38006
G1 X66.062 Y148.152 E35.61799
G1 X67.249 Y149.340 E35.81951
G1 X67.084 Y149.772 E35.87500
G1 X67.362 Y150.050 E35.92218
G1 X69.269 Y150.050 E36.15102
G1 X69.945 Y151.731 E36.36844
G1 X74.172 Y151.887 E36.87603
G1 X74.172 Y152.211 E36.91491
G1 X74.317 Y152.215 E36.93231
G1 X76.625 Y149.911 E37.32366
G1 X77.672 Y150.958 E37.50134
G1 X77.672 Y150.863 E37.51274
G1 X80.365 Y149.967 E37.85332
G1 X80.672 Y149.660 E37.90541
G1 X80.672 Y149.464 E37.92893
G1 X81.072 Y149.063 E37.99690
G1 X81.072 Y148.858 E38.02150
G1 X81.272 Y148.658 E38.05544
G1 X81.272 Y148.458 E38.07944
G1 X81.472 Y148.258 E38.11338
G1 X81.472 Y147.858 E38.16138
G1 X81.672 Y147.658 E38.19533
G1 X81.672 Y147.261 E38.24297
G1 X82.272 Y146.660 E38.34487
G1 X82.272 Y146.258 E38.39311
G1 X82.472 Y146.058 E38.42705
G1 X82.472 Y145.458 E38.49905
G1 X82.672 Y145.258 E38.53300
G1 X82.672 Y144.458 E38.62900
G1 X82.872 Y144.258 E38.66294
G1 X82.872 Y143.258 E38.78294
G1 X83.072 Y143.058 E38.81688
G1 X83.072 Y139.005 E39.30324
G1 X81.810 Y137.312 E39.55663
G1 X81.811 Y137.276 E39.56095
G1 X81.075 Y136.437 E39.69488
G1 X80.523 Y135.898 E39.78746
G1 X79.899 Y135.380 E39.88478
G1 X79.235 Y134.910 E39.98240
G1 X78.565 Y134.510 E40.07604
G1 X77.823 Y134.144 E40.17532
G1 X77.106 Y133.857 E40.26800
G1 X76.310 Y133.609 E40.36805
G1 X75.543 Y133.435 E40.46243
G1 X74.744 Y133.319 E40.55931
G1 X73.953 Y133.266 E40.65445
G1 X73.131 Y133.276 E40.75309
G1 X72.333 Y133.350 E40.84926
G1 X71.559 Y133.482 E40.94348
G1 X70.766 Y133.683 E41.04165
G1 X70.017 Y133.935 E41.13648
G1 X69.280 Y134.251 E41.23271
G1 X68.567 Y134.625 E41.32933
G1 X67.901 Y135.043 E41.42368
G1 X67.233 Y135.540 E41.52360
G1 X67.169 Y135.596 E41.53380
G1 X67.534 Y136.481 E41.64868
G0 F9000 X67.062 Y136.386
G1 F1200 X66.242 Y137.206 E41.78784
G1 X66.478 Y137.771 E41.86132
G1 X65.172 Y139.077 E42.08295
G1 X65.172 Y139.477 E42.13095
G1 X64.972 Y139.677 E42.16489
G1 X64.972 Y140.077 E42.21289
G1 X64.772 Y140.277 E42.24683
G1 X64.772 Y142.541 E42.51851
G1 X64.572 Y142.608 E42.54382
G1 X64.572 Y142.966 E42.58678
G1 X65.317 Y143.217 E42.68112
G1 X65.046 Y144.898 E42.88545
G1 X66.899 Y146.750 E43.19983
G1 X65.497 Y148.151 E43.43767
G1 X66.783 Y149.439 E43.65608
G1 X66.617 Y149.871 E43.71162
G1 X67.197 Y150.450 E43.80996
G1 X68.998 Y150.450 E44.02608
G1 X69.671 Y152.121 E44.24225
G1 X73.772 Y152.272 E44.73471
G1 X73.772 Y152.600 E44.77407
G1 X74.477 Y152.620 E44.85870
G1 X76.625 Y150.476 E45.22289
G1 X78.072 Y151.923 E45.46845
G1 X78.072 Y151.151 E45.56109
G1 X80.581 Y150.317 E45.87837
G1 X81.072 Y149.825 E45.96178
G1 X81.072 Y149.629 E45.98530
G1 X81.472 Y149.228 E46.05327
G1 X81.472 Y149.023 E46.07787
G1 X81.672 Y148.823 E46.11181
G1 X81.672 Y148.623 E46.13581
G1 X81.872 Y148.423 E46.16975
G1 X81.872 Y148.023 E46.21775
G1 X82.072 Y147.823 E46.25169
G1 X82.072 Y147.427 E46.29921
G1 X82.672 Y146.826 E46.40112
G1 X82.672 Y146.423 E46.44948
G1 X82.872 Y146.223 E46.48342
G1 X82.872 Y145.623 E46.55542
G1 X83.072 Y145.423 E46.58936
G1 X83.072 Y144.623 E46.68536
G1 X83.272 Y144.423 E46.71930
G1 X83.272 Y143.423 E46.83930
G1 X83.472 Y143.223 E46.87324
G1 X83.472 Y138.873 E47.39524
G1 X82.213 Y137.182 E47.64823
G1 X82.214 Y137.130 E47.65447
G1 X81.368 Y136.164 E47.80856
G1 X80.783 Y135.593 E47.90666
G1 X80.145 Y135.063 E48.00619
G1 X79.450 Y134.571 E48.10837
G1 X78.760 Y134.160 E48.20475
G1 X77.994 Y133.782 E48.30725
G1 X77.232 Y133.477 E48.40574
G1 X76.417 Y133.223 E48.50818
G1 X75.614 Y133.041 E48.60699
G1 X74.789 Y132.921 E48.70703
G1 X73.963 Y132.866 E48.80637
G1 X73.102 Y132.877 E48.90970
G1 X72.292 Y132.951 E49.00730
G1 X71.471 Y133.091 E49.10724
G1 X70.655 Y133.298 E49.20826
G1 X69.872 Y133.562 E49.30742
G1 X69.111 Y133.888 E49.40677
G1 X68.366 Y134.279 E49.50773
G1 X67.673 Y134.714 E49.60592
G1 X66.985 Y135.226 E49.70883
G1 X66.690 Y135.484 E49.75586
G1 X67.062 Y136.386 E49.87294
G0 F9000 X66.591 Y136.292
G1 F1200 X65.769 Y137.114 E50.01244
G1 X66.005 Y137.678 E50.08581
G1 X64.772 Y138.911 E50.29505
G1 X64.772 Y139.311 E50.34305
G1 X64.572 Y139.511 E50.37700
G1 X64.572 Y139.911 E50.42500
G1 X64.372 Y140.111 E50.45894
G1 X64.372 Y142.253 E50.71598
G1 X64.172 Y142.320 E50.74129
G1 X64.172 Y143.253 E50.85325
G1 X64.868 Y143.488 E50.94140
G1 X64.619 Y145.035 E51.12943
G1 X66.333 Y146.750 E51.42039
G1 X64.932 Y148.151 E51.65815
G1 X66.317 Y149.538 E51.89336
G1 X66.151 Y149.972 E51.94912
G1 X66.228 Y150.050 E51.96227
G1 X66.230 Y150.050 E51.96251
G1 X67.031 Y150.850 E52.09836
G1 X68.728 Y150.850 E52.30200
G1 X69.397 Y152.511 E52.51688
G1 X73.372 Y152.658 E52.99421
G1 X73.372 Y152.989 E53.03393
G1 X74.172 Y153.012 E53.12997
G1 X74.172 Y153.349 E53.17041
G1 X74.310 Y153.352 E53.18697
G1 X76.625 Y151.041 E53.57950
G1 X78.037 Y152.453 E53.81912
G1 X78.472 Y152.308 E53.87415
G1 X78.472 Y151.440 E53.97831
G1 X80.797 Y150.667 E54.27232
G1 X81.472 Y149.991 E54.38696
G1 X81.472 Y149.795 E54.41048
G1 X81.872 Y149.394 E54.47845
G1 X81.872 Y149.189 E54.50305
G1 X82.072 Y148.989 E54.53699
G1 X82.072 Y148.789 E54.56099
G1 X82.272 Y148.589 E54.59493
G1 X82.272 Y148.189 E54.64293
G1 X82.472 Y147.989 E54.67687
G1 X82.472 Y147.592 E54.72451
G1 X83.072 Y146.991 E54.82642
G1 X83.072 Y146.589 E54.87466
G1 X83.272 Y146.389 E54.90860
G1 X83.272 Y145.789 E54.98060
G1 X83.472 Y145.589 E55.01454
G1 X83.472 Y144.789 E55.11054
G1 X83.672 Y144.589 E55.14448
G1 X83.672 Y143.589 E55.26448
G1 X83.872 Y143.389 E55.29842
G1 X83.872 Y138.740 E55.85630
G1 X82.616 Y137.053 E56.10869
G1 X82.617 Y136.983 E56.11709
G1 X81.664 Y135.895 E56.29065
G1 X81.055 Y135.301 E56.39274
G1 X80.384 Y134.743 E56.49746
G1 X79.670 Y134.237 E56.60248
G1 X78.941 Y133.803 E56.70428
G1 X78.155 Y133.415 E56.80947
G1 X77.372 Y133.102 E56.91066
G1 X76.524 Y132.838 E57.01724
G1 X75.683 Y132.647 E57.12073
G1 X74.834 Y132.523 E57.22369
G1 X73.971 Y132.465 E57.32748
G1 X73.084 Y132.477 E57.43393
G1 X72.241 Y132.554 E57.53551
G1 X71.383 Y132.701 E57.63997
G1 X70.545 Y132.913 E57.74370
G1 X69.735 Y133.186 E57.84627
G1 X68.936 Y133.528 E57.95057
G1 X68.162 Y133.934 E58.05545
G1 X67.448 Y134.382 E58.15660
G1 X66.732 Y134.916 E58.26378
