;FLAVOR:UltiGCode
;TIME:2858
;MATERIAL:2996
;MATERIAL2:0
;NOZZLE_DIAMETER:0.400000
;NOZZLE_DIAMETER2:0.400000

;Layer count: 72
;LAYER:0
M107
G0 F9000 X105.989 Y105.991 Z0.300
G0 X106.983 Y105.152
;TYPE:SKIRT
G1 F1200 X106.983 Y105.151 E0.00012
G1 X106.925 Y105.190 E0.00851
G1 X106.554 Y105.482 E0.06516
G1 X106.447 Y105.566 E0.08149
G1 X105.989 Y105.991 E0.15646
G1 X105.570 Y106.443 E0.23042
G1 X105.335 Y106.742 E0.27606
G1 X104.849 Y107.439 E0.37802
G1 X104.555 Y107.965 E0.45033
G1 X104.299 Y108.520 E0.52368
G1 X104.167 Y108.877 E0.56935
G1 X103.920 Y109.693 E0.67166
G1 X103.847 Y110.059 E0.71645
G1 X103.731 Y110.901 E0.81844
G1 X103.707 Y111.490 E0.88918
G1 X103.731 Y112.111 E0.96375
G1 X103.803 Y112.719 E1.03722
G1 X103.922 Y113.320 E1.11074
G1 X104.087 Y113.906 E1.18380
G1 X104.299 Y114.480 E1.25723
G1 X104.560 Y115.045 E1.33191
G1 X104.853 Y115.569 E1.40395
G1 X105.152 Y116.017 E1.46859
G1 X105.151 Y116.017 E1.46871
G1 X105.190 Y116.075 E1.47709
G1 X105.475 Y116.437 E1.53238
G1 X105.566 Y116.553 E1.55007
G1 X105.990 Y117.010 E1.62488
G1 X106.442 Y117.429 E1.69884
G1 X106.920 Y117.805 E1.77182
G1 X107.424 Y118.142 E1.84458
G1 X107.961 Y118.443 E1.91845
G1 X108.518 Y118.700 E1.99206
G1 X109.094 Y118.913 E2.06575
G1 X109.680 Y119.078 E2.13881
G1 X110.279 Y119.197 E2.21209
G1 X110.890 Y119.269 E2.28592
G1 X111.500 Y119.293 E2.35918
G1 X112.111 Y119.269 E2.43255
G1 X112.721 Y119.197 E2.50626
G1 X113.087 Y119.124 E2.55105
G1 X113.928 Y118.905 E2.65533
G1 X114.483 Y118.700 E2.72633
G1 X114.482 Y118.700 E2.72645
G1 X114.881 Y118.517 E2.77913
G1 X115.231 Y118.336 E2.82641
G1 X115.574 Y118.144 E2.87358
G1 X116.017 Y117.848 E2.93751
G1 X116.017 Y117.849 E2.93763
G1 X116.075 Y117.810 E2.94602
G1 X116.446 Y117.518 E3.00268
G1 X116.553 Y117.434 E3.01900
G1 X117.011 Y117.009 E3.09398
G1 X117.430 Y116.557 E3.16794
G1 X117.665 Y116.258 E3.21357
G1 X118.151 Y115.560 E3.31564
G1 X118.445 Y115.035 E3.38784
G1 X118.447 Y115.032 E3.38828
G1 X118.701 Y114.480 E3.46119
G1 X118.833 Y114.123 E3.50687
G1 X119.080 Y113.307 E3.60917
G1 X119.153 Y112.941 E3.65396
G1 X119.269 Y112.099 E3.75595
G1 X119.293 Y111.490 E3.82909
G1 X119.269 Y110.886 E3.90163
G1 X119.197 Y110.280 E3.97486
G1 X119.077 Y109.677 E4.04864
G1 X118.913 Y109.094 E4.12131
G1 X118.700 Y108.518 E4.19501
G1 X118.440 Y107.955 E4.26942
G1 X118.147 Y107.431 E4.34147
G1 X117.848 Y106.983 E4.40610
G1 X117.849 Y106.983 E4.40622
G1 X117.810 Y106.925 E4.41461
G1 X117.518 Y106.554 E4.47126
G1 X117.430 Y106.443 E4.48826
G1 X117.010 Y105.990 E4.56239
G1 X116.558 Y105.571 E4.63635
G1 X116.080 Y105.195 E4.70933
G1 X115.576 Y104.858 E4.78208
G1 X115.037 Y104.556 E4.85623
G1 X114.482 Y104.300 E4.92957
G1 X113.906 Y104.087 E5.00326
G1 X113.320 Y103.922 E5.07632
G1 X112.721 Y103.803 E5.14960
G1 X112.110 Y103.731 E5.22343
G1 X111.500 Y103.707 E5.29669
G1 X110.889 Y103.731 E5.37006
G1 X110.279 Y103.803 E5.44377
G1 X109.913 Y103.876 E5.48856
G1 X109.072 Y104.095 E5.59284
G1 X108.518 Y104.300 E5.66373
G1 X108.119 Y104.483 E5.71640
G1 X107.779 Y104.659 E5.76235
G1 X107.426 Y104.856 E5.81086
G1 X106.983 Y105.152 E5.87479
G0 F9000 X106.761 Y104.819
G1 F1200 X106.689 Y104.867 E5.88517
G1 X106.307 Y105.168 E5.94353
G1 X106.183 Y105.265 E5.96243
G1 X105.705 Y105.707 E6.04055
G1 X105.276 Y106.171 E6.11638
G1 X105.270 Y106.178 E6.11749
G1 X105.014 Y106.502 E6.16704
G1 X104.506 Y107.232 E6.27376
G1 X104.206 Y107.769 E6.34758
G1 X104.200 Y107.780 E6.34908
G1 X103.936 Y108.352 E6.42468
G1 X103.931 Y108.362 E6.42602
G1 X103.785 Y108.759 E6.47678
G1 X103.533 Y109.591 E6.58110
G1 X103.452 Y109.995 E6.63054
G1 X103.331 Y110.871 E6.73666
G1 X103.306 Y111.500 E6.81220
G1 X103.331 Y112.135 E6.88846
G1 X103.408 Y112.782 E6.96665
G1 X103.534 Y113.415 E7.04410
G1 X103.709 Y114.037 E7.12164
G1 X103.929 Y114.634 E7.19799
G1 X104.199 Y115.219 E7.27530
G1 X104.514 Y115.783 E7.35282
G1 X104.811 Y116.227 E7.41693
G1 X104.867 Y116.311 E7.42904
G1 X105.168 Y116.693 E7.48740
G1 X105.265 Y116.817 E7.50629
G1 X105.706 Y117.294 E7.58425
G1 X106.180 Y117.732 E7.66169
G1 X106.675 Y118.122 E7.73731
G1 X107.225 Y118.489 E7.81666
G1 X107.783 Y118.802 E7.89343
G1 X108.366 Y119.071 E7.97048
G1 X108.963 Y119.291 E8.04683
G1 X109.585 Y119.466 E8.12437
G1 X110.218 Y119.592 E8.20182
G1 X110.866 Y119.669 E8.28013
G1 X111.500 Y119.694 E8.35627
G1 X112.135 Y119.669 E8.43252
G1 X112.782 Y119.592 E8.51071
G1 X113.181 Y119.513 E8.55952
G1 X114.045 Y119.288 E8.66666
G1 X114.621 Y119.075 E8.74035
G1 X114.635 Y119.070 E8.74214
G1 X115.070 Y118.869 E8.79964
G1 X115.397 Y118.701 E8.84376
G1 X115.788 Y118.483 E8.89748
G1 X116.239 Y118.181 E8.96261
G1 X116.311 Y118.133 E8.97299
G1 X116.693 Y117.832 E9.03135
G1 X116.817 Y117.735 E9.05025
G1 X117.295 Y117.293 E9.12837
G1 X117.724 Y116.829 E9.20420
G1 X117.730 Y116.822 E9.20531
G1 X117.986 Y116.498 E9.25486
G1 X118.494 Y115.768 E9.36158
G1 X118.794 Y115.231 E9.43540
G1 X118.800 Y115.220 E9.43690
G1 X119.064 Y114.648 E9.51250
G1 X119.069 Y114.638 E9.51384
G1 X119.215 Y114.241 E9.56460
G1 X119.467 Y113.409 E9.66892
G1 X119.548 Y113.005 E9.71837
G1 X119.669 Y112.129 E9.82448
G1 X119.694 Y111.500 E9.90002
G1 X119.669 Y110.865 E9.97628
G1 X119.592 Y110.218 E10.05447
G1 X119.466 Y109.585 E10.13192
G1 X119.291 Y108.963 E10.20946
G1 X119.071 Y108.366 E10.28581
G1 X118.801 Y107.781 E10.36312
G1 X118.485 Y107.216 E10.44081
G1 X118.181 Y106.761 E10.50647
G1 X118.133 Y106.689 E10.51686
G1 X117.832 Y106.307 E10.57522
G1 X117.735 Y106.183 E10.59411
G1 X117.294 Y105.706 E10.67206
G1 X116.820 Y105.268 E10.74951
G1 X116.325 Y104.878 E10.82513
G1 X115.775 Y104.511 E10.90448
G1 X115.217 Y104.198 E10.98125
G1 X114.634 Y103.929 E11.05830
G1 X114.037 Y103.709 E11.13465
G1 X113.415 Y103.534 E11.21219
G1 X112.782 Y103.408 E11.28964
G1 X112.134 Y103.331 E11.36794
G1 X111.500 Y103.306 E11.44408
G1 X110.865 Y103.331 E11.52034
G1 X110.218 Y103.408 E11.59853
G1 X109.819 Y103.487 E11.64734
G1 X108.955 Y103.712 E11.75448
G1 X108.379 Y103.925 E11.82817
G1 X108.365 Y103.930 E11.82996
G1 X107.930 Y104.131 E11.88746
G1 X107.603 Y104.299 E11.93157
G1 X107.212 Y104.517 E11.98529
G1 X106.761 Y104.819 E12.05043
G0 F9000 X106.539 Y104.487
G1 F1200 X106.452 Y104.545 E12.06297
G1 X106.059 Y104.854 E12.12297
G1 X105.920 Y104.964 E12.14424
G1 X105.429 Y105.418 E12.22448
G1 X104.983 Y105.900 E12.30329
G1 X104.968 Y105.915 E12.30583
G1 X104.694 Y106.264 E12.35908
G1 X104.165 Y107.022 E12.47000
G1 X103.857 Y107.574 E12.54585
G1 X103.841 Y107.603 E12.54983
G1 X103.573 Y108.185 E12.62672
G1 X103.555 Y108.224 E12.63187
G1 X103.409 Y108.621 E12.68263
G1 X103.145 Y109.491 E12.79173
G1 X103.058 Y109.927 E12.84508
G1 X102.933 Y110.830 E12.95448
G1 X102.907 Y111.500 E13.03494
G1 X102.933 Y112.177 E13.11624
G1 X103.012 Y112.843 E13.19672
G1 X103.143 Y113.502 E13.27734
G1 X103.328 Y114.159 E13.35925
G1 X103.560 Y114.788 E13.43970
G1 X103.844 Y115.404 E13.52110
G1 X104.167 Y115.982 E13.60055
G1 X104.487 Y116.461 E13.66968
G1 X104.545 Y116.548 E13.68223
G1 X104.847 Y116.932 E13.74085
G1 X104.964 Y117.080 E13.76349
G1 X105.423 Y117.577 E13.84467
G1 X105.923 Y118.039 E13.92637
G1 X106.446 Y118.451 E14.00626
G1 X107.005 Y118.824 E14.08690
G1 X107.604 Y119.160 E14.16932
G1 X108.212 Y119.440 E14.24964
G1 X108.841 Y119.672 E14.33009
G1 X109.498 Y119.857 E14.41200
G1 X110.144 Y119.986 E14.49105
G1 X110.828 Y120.067 E14.57370
G1 X111.501 Y120.093 E14.65452
G1 X112.185 Y120.066 E14.73667
G1 X112.834 Y119.990 E14.81508
G1 X113.272 Y119.902 E14.86869
G1 X114.169 Y119.668 E14.97993
G1 X114.759 Y119.450 E15.05541
G1 X114.798 Y119.436 E15.06038
G1 X115.233 Y119.235 E15.11789
G1 X115.598 Y119.047 E15.16716
G1 X115.987 Y118.830 E15.22061
G1 X116.461 Y118.513 E15.28904
G1 X116.548 Y118.455 E15.30158
G1 X116.941 Y118.146 E15.36157
G1 X117.080 Y118.036 E15.38285
G1 X117.571 Y117.582 E15.46309
G1 X118.017 Y117.100 E15.54190
G1 X118.032 Y117.085 E15.54444
G1 X118.306 Y116.736 E15.59769
G1 X118.835 Y115.978 E15.70861
G1 X119.143 Y115.426 E15.78446
G1 X119.159 Y115.397 E15.78843
G1 X119.427 Y114.815 E15.86532
G1 X119.445 Y114.776 E15.87048
G1 X119.591 Y114.379 E15.92124
G1 X119.855 Y113.509 E16.03034
G1 X119.942 Y113.073 E16.08369
G1 X120.067 Y112.170 E16.19308
G1 X120.093 Y111.499 E16.27366
G1 X120.066 Y110.815 E16.35581
G1 X119.988 Y110.157 E16.43532
G1 X119.857 Y109.498 E16.51595
G1 X119.672 Y108.841 E16.59785
G1 X119.440 Y108.212 E16.67830
G1 X119.156 Y107.596 E16.75970
G1 X118.833 Y107.018 E16.83916
G1 X118.513 Y106.539 E16.90828
G1 X118.455 Y106.452 E16.92083
G1 X118.146 Y106.059 E16.98082
G1 X118.036 Y105.920 E17.00209
G1 X117.577 Y105.423 E17.08328
G1 X117.077 Y104.961 E17.16497
G1 X116.554 Y104.549 E17.24486
G1 X115.995 Y104.176 E17.32551
G1 X115.396 Y103.840 E17.40792
G1 X114.788 Y103.560 E17.48825
G1 X114.159 Y103.328 E17.56870
G1 X113.502 Y103.143 E17.65060
G1 X112.856 Y103.014 E17.72965
G1 X112.172 Y102.933 E17.81231
G1 X111.499 Y102.907 E17.89313
G1 X110.815 Y102.934 E17.97527
G1 X110.166 Y103.010 E18.05368
G1 X109.728 Y103.098 E18.10730
G1 X108.831 Y103.332 E18.21854
G1 X108.241 Y103.550 E18.29402
G1 X108.202 Y103.564 E18.29899
G1 X107.767 Y103.765 E18.35649
G1 X107.402 Y103.953 E18.40576
G1 X107.013 Y104.170 E18.45921
G1 X106.539 Y104.487 E18.52764
G0 F9000 X106.327 Y104.147
G1 F1200 X106.212 Y104.224 E18.54425
G1 X105.812 Y104.539 E18.60534
G1 X105.663 Y104.657 E18.62815
G1 X105.140 Y105.141 E18.71366
G1 X104.689 Y105.628 E18.79331
G1 X104.660 Y105.658 E18.79832
G1 X104.381 Y106.013 E18.85250
G1 X103.830 Y106.804 E18.96818
G1 X103.826 Y106.810 E18.96905
G1 X103.508 Y107.378 E19.04716
G1 X103.486 Y107.418 E19.05264
G1 X103.210 Y108.017 E19.13178
G1 X103.187 Y108.066 E19.13828
G1 X103.032 Y108.488 E19.19223
G1 X102.753 Y109.408 E19.30759
G1 X102.666 Y109.846 E19.36118
G1 X102.534 Y110.800 E19.47675
G1 X102.506 Y111.492 E19.55986
G1 X102.534 Y112.210 E19.64608
G1 X102.616 Y112.905 E19.73006
G1 X102.754 Y113.598 E19.81485
G1 X102.946 Y114.279 E19.89976
G1 X103.190 Y114.941 E19.98442
G1 X103.488 Y115.588 E20.06990
G1 X103.832 Y116.202 E20.15436
G1 X104.147 Y116.673 E20.22235
G1 X104.224 Y116.788 E20.23896
G1 X104.533 Y117.180 E20.29886
G1 X104.657 Y117.337 E20.32287
G1 X105.140 Y117.860 E20.40830
G1 X105.660 Y118.340 E20.49322
G1 X106.218 Y118.780 E20.57849
G1 X106.796 Y119.166 E20.66190
G1 X107.415 Y119.513 E20.74705
G1 X108.059 Y119.810 E20.83215
G1 X108.721 Y120.054 E20.91682
G1 X109.402 Y120.246 E21.00172
G1 X110.095 Y120.384 E21.08652
G1 X110.791 Y120.466 E21.17061
G1 X111.500 Y120.494 E21.25576
G1 X112.210 Y120.466 E21.34103
G1 X112.908 Y120.383 E21.42538
G1 X113.366 Y120.292 E21.48141
G1 X114.278 Y120.054 E21.59452
G1 X114.898 Y119.825 E21.67383
G1 X114.952 Y119.805 E21.68074
G1 X115.414 Y119.592 E21.74179
G1 X115.774 Y119.407 E21.79036
G1 X116.207 Y119.165 E21.84988
G1 X116.673 Y118.853 E21.91718
G1 X116.788 Y118.776 E21.93379
G1 X117.188 Y118.461 E21.99488
G1 X117.337 Y118.343 E22.01769
G1 X117.860 Y117.859 E22.10320
G1 X118.311 Y117.372 E22.18285
G1 X118.340 Y117.342 E22.18786
G1 X118.619 Y116.987 E22.24204
G1 X119.170 Y116.196 E22.35772
G1 X119.174 Y116.190 E22.35859
G1 X119.492 Y115.622 E22.43670
G1 X119.514 Y115.582 E22.44218
G1 X119.790 Y114.983 E22.52132
G1 X119.813 Y114.934 E22.52782
G1 X119.968 Y114.512 E22.58177
G1 X120.247 Y113.592 E22.69713
G1 X120.334 Y113.154 E22.75072
G1 X120.466 Y112.200 E22.86629
G1 X120.494 Y111.492 E22.95131
G1 X120.466 Y110.790 E23.03562
G1 X120.384 Y110.095 E23.11960
G1 X120.246 Y109.402 E23.20439
G1 X120.054 Y108.721 E23.28930
G1 X119.810 Y108.059 E23.37396
G1 X119.512 Y107.412 E23.45944
G1 X119.168 Y106.798 E23.54390
G1 X118.846 Y106.316 E23.61346
G1 X118.776 Y106.212 E23.62850
G1 X118.461 Y105.812 E23.68960
G1 X118.343 Y105.663 E23.71241
G1 X117.860 Y105.140 E23.79783
G1 X117.340 Y104.660 E23.88276
G1 X116.782 Y104.220 E23.96803
G1 X116.204 Y103.834 E24.05143
G1 X115.585 Y103.487 E24.13659
G1 X114.941 Y103.190 E24.22169
G1 X114.279 Y102.946 E24.30635
G1 X113.598 Y102.754 E24.39126
G1 X112.905 Y102.616 E24.47605
G1 X112.209 Y102.534 E24.56015
G1 X111.500 Y102.506 E24.64530
G1 X110.790 Y102.534 E24.73056
G1 X110.092 Y102.617 E24.81491
G1 X109.634 Y102.708 E24.87095
G1 X108.722 Y102.946 E24.98405
G1 X108.102 Y103.175 E25.06337
G1 X108.048 Y103.195 E25.07028
G1 X107.586 Y103.408 E25.13132
G1 X107.226 Y103.593 E25.17990
G1 X106.793 Y103.835 E25.23942
G1 X106.327 Y104.147 E25.30672
G0 F9000 X106.104 Y103.815
G1 F1200 X105.975 Y103.902 E25.32539
G1 X105.564 Y104.225 E25.38812
G1 X105.398 Y104.356 E25.41349
G1 X104.863 Y104.851 E25.50096
G1 X104.396 Y105.356 E25.58350
G1 X104.353 Y105.403 E25.59114
G1 X104.060 Y105.774 E25.64787
G1 X103.483 Y106.603 E25.76907
G1 X103.159 Y107.183 E25.84880
G1 X103.131 Y107.233 E25.85567
G1 X102.847 Y107.850 E25.93718
G1 X102.817 Y107.916 E25.94588
G1 X102.652 Y108.361 E26.00283
G1 X102.366 Y109.306 E26.12131
G1 X102.268 Y109.796 E26.18128
G1 X102.135 Y110.756 E26.29758
G1 X102.134 Y110.763 E26.29843
G1 X102.106 Y111.500 E26.38693
G1 X102.134 Y112.234 E26.47507
G1 X102.221 Y112.966 E26.56353
G1 X102.366 Y113.693 E26.65249
G1 X102.566 Y114.403 E26.74101
G1 X102.821 Y115.095 E26.82950
G1 X103.131 Y115.767 E26.91831
G1 X103.494 Y116.416 E27.00755
G1 X103.815 Y116.896 E27.07684
G1 X103.902 Y117.025 E27.09551
G1 X104.219 Y117.428 E27.15704
G1 X104.356 Y117.602 E27.18361
G1 X104.857 Y118.143 E27.27210
G1 X105.396 Y118.642 E27.36024
G1 X105.976 Y119.098 E27.44877
G1 X106.591 Y119.510 E27.53760
G1 X107.235 Y119.870 E27.62614
G1 X107.905 Y120.179 E27.71468
G1 X108.597 Y120.434 E27.80318
G1 X109.307 Y120.634 E27.89169
G1 X110.033 Y120.779 E27.98053
G1 X110.767 Y120.866 E28.06923
G1 X111.500 Y120.894 E28.15725
G1 X112.234 Y120.866 E28.24540
G1 X112.969 Y120.779 E28.33421
G1 X113.460 Y120.681 E28.39429
G1 X114.395 Y120.437 E28.51025
G1 X114.400 Y120.436 E28.51086
G1 X115.036 Y120.201 E28.59223
G1 X115.093 Y120.180 E28.59952
G1 X115.586 Y119.953 E28.66465
G1 X115.996 Y119.742 E28.71998
G1 X116.411 Y119.509 E28.77709
G1 X116.896 Y119.185 E28.84708
G1 X117.025 Y119.098 E28.86576
G1 X117.436 Y118.775 E28.92848
G1 X117.602 Y118.644 E28.95386
G1 X118.137 Y118.149 E29.04132
G1 X118.604 Y117.644 E29.12386
G1 X118.647 Y117.597 E29.13151
G1 X118.940 Y117.226 E29.18824
G1 X119.517 Y116.397 E29.30944
G1 X119.841 Y115.817 E29.38916
G1 X119.869 Y115.767 E29.39604
G1 X120.153 Y115.150 E29.47755
G1 X120.183 Y115.084 E29.48625
G1 X120.349 Y114.636 E29.54358
G1 X120.634 Y113.694 E29.66168
G1 X120.732 Y113.204 E29.72164
G1 X120.865 Y112.244 E29.83795
G1 X120.866 Y112.237 E29.83879
G1 X120.894 Y111.500 E29.92730
G1 X120.866 Y110.766 E30.01544
G1 X120.779 Y110.034 E30.10390
G1 X120.634 Y109.307 E30.19286
G1 X120.434 Y108.597 E30.28137
G1 X120.179 Y107.905 E30.36987
G1 X119.869 Y107.233 E30.45868
G1 X119.506 Y106.584 E30.54791
G1 X119.185 Y106.104 E30.61721
G1 X119.098 Y105.975 E30.63588
G1 X118.775 Y105.564 E30.69861
G1 X118.644 Y105.398 E30.72398
G1 X118.143 Y104.857 E30.81246
G1 X117.604 Y104.358 E30.90061
G1 X117.024 Y103.902 E30.98914
G1 X116.409 Y103.490 E31.07797
G1 X115.765 Y103.130 E31.16651
G1 X115.095 Y102.821 E31.25504
G1 X114.403 Y102.566 E31.34354
G1 X113.693 Y102.366 E31.43206
G1 X112.967 Y102.221 E31.52090
G1 X112.233 Y102.134 E31.60960
G1 X111.500 Y102.106 E31.69762
G1 X110.766 Y102.134 E31.78576
G1 X110.031 Y102.221 E31.87458
G1 X109.540 Y102.319 E31.93466
G1 X108.605 Y102.563 E32.05062
G1 X108.600 Y102.564 E32.05123
G1 X107.964 Y102.799 E32.13259
G1 X107.907 Y102.820 E32.13988
G1 X107.414 Y103.047 E32.20501
G1 X107.004 Y103.258 E32.26035
G1 X106.589 Y103.491 E32.31746
G1 X106.104 Y103.815 E32.38745
G0 F9000 X105.872 Y103.489
G1 F1200 X105.744 Y103.575 E32.40596
G1 X105.317 Y103.911 E32.47116
G1 X105.148 Y104.044 E32.49697
G1 X104.567 Y104.581 E32.59190
G1 X104.102 Y105.084 E32.67410
G1 X104.052 Y105.139 E32.68302
G1 X103.731 Y105.546 E32.74523
G1 X103.156 Y106.371 E32.86590
G1 X103.147 Y106.384 E32.86780
G1 X102.810 Y106.987 E32.95069
G1 X102.771 Y107.057 E32.96031
G1 X102.483 Y107.682 E33.04289
G1 X102.450 Y107.754 E33.05239
G1 X102.270 Y108.241 E33.11469
G1 X101.981 Y109.196 E33.23443
