;FLAVOR:UltiGCode
;TIME:1601
;MATERIAL:2863
;MATERIAL2:0
;NOZZLE_DIAMETER:0.600000
;NOZZLE_DIAMETER2:0.600000

;Layer count: 79
;LAYER:0
M107
G0 F9000 X84.873 Y89.099 Z0.300
;TYPE:SKIRT
G1 F1200 X90.673 Y86.194 E1.16763
G1 X90.673 Y84.007 E1.56129
G1 X118.573 Y74.738 E6.85318
G1 X118.573 Y79.245 E7.66444
G1 X121.985 Y79.355 E8.27892
G1 X130.173 Y79.355 E9.75276
G1 X130.173 Y80.370 E9.93546
G1 X131.005 Y80.386 E10.08525
G1 X131.004 Y80.695 E10.14087
G1 X132.377 Y80.713 E10.38803
G1 X132.377 Y82.689 E10.74371
G1 X136.573 Y82.752 E11.49907
G1 X136.573 Y88.191 E12.47809
G1 X137.773 Y88.791 E12.71959
G1 X137.773 Y91.615 E13.22791
G1 X138.773 Y92.614 E13.48234
G1 X138.773 Y92.619 E13.48324
G1 X142.196 Y96.042 E14.35459
G1 X141.786 Y97.032 E14.54747
G1 X142.373 Y97.619 E14.69690
G1 X142.373 Y98.219 E14.80490
G1 X142.573 Y98.419 E14.85581
G1 X142.573 Y98.619 E14.89181
G1 X142.773 Y98.819 E14.94272
G1 X142.773 Y99.019 E14.97872
G1 X142.973 Y99.219 E15.02963
G1 X142.973 Y99.819 E15.13763
G1 X143.173 Y100.019 E15.18854
G1 X143.173 Y100.219 E15.22454
G1 X143.373 Y100.419 E15.27546
G1 X143.373 Y101.419 E15.45546
G1 X143.573 Y101.619 E15.50637
G1 X143.573 Y101.819 E15.54237
G1 X143.773 Y102.019 E15.59328
G1 X143.773 Y103.219 E15.80928
G1 X143.973 Y103.419 E15.86019
G1 X143.973 Y104.619 E16.07619
G1 X144.173 Y104.819 E16.12710
G1 X144.173 Y117.691 E18.44406
G1 X143.973 Y117.891 E18.49497
G1 X143.973 Y119.291 E18.74697
G1 X143.773 Y119.491 E18.79789
G1 X143.773 Y123.219 E19.46893
G1 X142.973 Y123.619 E19.62992
G1 X142.973 Y126.019 E20.06192
G1 X142.373 Y126.319 E20.18267
G1 X142.373 Y127.619 E20.41667
G1 X141.773 Y127.919 E20.53742
G1 X141.773 Y128.884 E20.71112
G1 X140.973 Y129.288 E20.87244
G1 X140.973 Y130.284 E21.05172
G1 X136.550 Y132.518 E21.94365
G1 X132.973 Y136.090 E22.85357
G1 X132.973 Y139.533 E23.47331
G1 X133.036 Y141.128 E23.76063
G1 X132.973 Y141.133 E23.77201
G1 X132.973 Y141.567 E23.85013
G1 X131.845 Y141.603 E24.05327
G1 X131.854 Y142.955 E24.29664
G1 X120.650 Y142.955 E26.31336
G1 X120.241 Y142.986 E26.38719
G1 X118.711 Y143.755 E26.69542
G1 X116.984 Y143.755 E27.00628
G1 X116.383 Y143.955 E27.12029
G1 X115.384 Y143.955 E27.30011
G1 X114.783 Y144.155 E27.41412
G1 X98.073 Y144.155 E30.42192
G1 X98.073 Y143.955 E30.45792
G1 X96.473 Y143.955 E30.74592
G1 X96.473 Y143.755 E30.78192
G1 X94.873 Y143.755 E31.06992
G1 X94.873 Y141.909 E31.40220
G1 X93.473 Y141.709 E31.65676
G1 X93.473 Y138.822 E32.17642
G1 X80.003 Y132.098 E34.88632
G1 X83.597 Y128.502 E35.80146
G1 X77.824 Y122.725 E37.27153
G1 X78.629 Y121.925 E37.47582
G1 X77.049 Y120.082 E37.91278
G1 X77.833 Y119.413 E38.09829
G1 X76.355 Y117.442 E38.54174
G1 X77.369 Y116.707 E38.76717
G1 X76.069 Y114.627 E39.20868
G1 X77.017 Y114.047 E39.40872
G1 X75.895 Y111.928 E39.84031
G1 X76.842 Y111.441 E40.03199
G1 X75.802 Y109.121 E40.48963
G1 X77.008 Y108.625 E40.72435
G1 X76.210 Y106.331 E41.16154
G1 X77.454 Y105.926 E41.39703
G1 X76.861 Y103.556 E41.83678
G1 X78.083 Y103.261 E42.06306
G1 X77.798 Y101.471 E42.38932
G1 X84.003 Y100.128 E43.53208
G1 X84.873 Y95.500 E44.37971
G1 X84.873 Y89.099 E45.53189
G0 F9000 X85.473 Y89.469
G1 F1200 X91.078 Y86.662 E46.66024
G1 X91.273 Y86.467 E46.70988
G1 X91.273 Y84.440 E47.07474
G1 X117.973 Y75.570 E52.13900
G1 X117.973 Y79.826 E52.90508
G1 X121.975 Y79.955 E53.62581
G1 X129.573 Y79.955 E54.99345
G1 X129.573 Y80.959 E55.17417
G1 X130.404 Y80.975 E55.32378
G1 X130.403 Y81.287 E55.37994
G1 X131.777 Y81.305 E55.62728
G1 X131.777 Y83.280 E55.98278
G1 X135.973 Y83.343 E56.73815
G1 X135.973 Y88.562 E57.67757
G1 X137.173 Y89.162 E57.91906
G1 X137.173 Y91.864 E58.40542
G1 X138.173 Y92.863 E58.65986
G1 X138.173 Y92.867 E58.66058
G1 X141.489 Y96.183 E59.50469
G1 X141.079 Y97.173 E59.69757
G1 X141.773 Y97.867 E59.87423
G1 X141.773 Y98.467 E59.98223
G1 X141.973 Y98.667 E60.03314
G1 X141.973 Y98.867 E60.06914
G1 X142.173 Y99.067 E60.12006
G1 X142.173 Y99.267 E60.15606
G1 X142.373 Y99.467 E60.20697
G1 X142.373 Y100.067 E60.31497
G1 X142.573 Y100.267 E60.36588
G1 X142.573 Y100.467 E60.40188
G1 X142.773 Y100.667 E60.45279
G1 X142.773 Y101.667 E60.63279
G1 X142.973 Y101.867 E60.68370
G1 X142.973 Y102.067 E60.71970
G1 X143.173 Y102.267 E60.77061
G1 X143.173 Y103.467 E60.98661
G1 X143.373 Y103.667 E61.03753
G1 X143.373 Y104.867 E61.25353
G1 X143.573 Y105.067 E61.30444
G1 X143.573 Y117.443 E63.53212
G1 X143.373 Y117.643 E63.58303
G1 X143.373 Y119.043 E63.83503
G1 X143.173 Y119.243 E63.88594
G1 X143.173 Y122.848 E64.53484
G1 X142.373 Y123.248 E64.69584
G1 X142.373 Y125.648 E65.12784
G1 X141.773 Y125.948 E65.24859
G1 X141.773 Y127.248 E65.48259
G1 X141.173 Y127.548 E65.60333
G1 X141.173 Y128.515 E65.77739
G1 X140.373 Y128.919 E65.93871
G1 X140.373 Y129.915 E66.11799
G1 X136.195 Y132.025 E66.96050
G1 X132.373 Y135.842 E67.93278
G1 X132.373 Y139.563 E68.60256
G1 X132.413 Y140.577 E68.78522
G1 X132.373 Y140.580 E68.79245
G1 X132.373 Y140.985 E68.86535
G1 X131.243 Y141.021 E69.06885
G1 X131.251 Y142.355 E69.30897
G1 X120.629 Y142.355 E71.22093
G1 X120.151 Y142.392 E71.30723
G1 X120.047 Y142.413 E71.32633
G1 X118.568 Y143.155 E71.62417
G1 X116.886 Y143.155 E71.92693
G1 X116.285 Y143.355 E72.04095
G1 X115.286 Y143.355 E72.22077
G1 X114.685 Y143.555 E72.33478
G1 X98.673 Y143.555 E75.21694
G1 X98.673 Y143.355 E75.25294
G1 X97.073 Y143.355 E75.54094
G1 X97.073 Y143.155 E75.57694
G1 X95.473 Y143.155 E75.86494
G1 X95.473 Y141.389 E76.18282
G1 X94.073 Y141.189 E76.43738
G1 X94.073 Y138.451 E76.93022
G1 X81.016 Y131.933 E79.55704
G1 X84.444 Y128.502 E80.43005
G1 X78.673 Y122.727 E81.89962
G1 X79.446 Y121.958 E82.09588
G1 X77.896 Y120.149 E82.52468
G1 X78.652 Y119.504 E82.70356
G1 X77.201 Y117.570 E83.13876
G1 X78.175 Y116.864 E83.35530
G1 X76.899 Y114.823 E83.78856
G1 X77.812 Y114.265 E83.98117
G1 X76.710 Y112.184 E84.40503
G1 X77.622 Y111.714 E84.58970
G1 X76.603 Y109.440 E85.03824
G1 X77.761 Y108.964 E85.26360
G1 X76.978 Y106.712 E85.69277
G1 X78.172 Y106.323 E85.91880
G1 X77.590 Y103.997 E86.35039
G1 X78.762 Y103.714 E86.56741
G1 X78.480 Y101.937 E86.89128
G1 X84.519 Y100.630 E88.00346
G1 X85.473 Y95.555 E88.93296
G1 X85.473 Y89.469 E90.02844
G0 F9000 X86.073 Y89.840
G1 F1200 X91.434 Y87.154 E91.10777
G1 X91.873 Y86.716 E91.21939
G1 X91.873 Y84.873 E91.55113
G1 X117.373 Y76.401 E96.38782
G1 X117.373 Y80.407 E97.10890
G1 X121.964 Y80.555 E97.93571
G1 X128.973 Y80.555 E99.19733
G1 X128.973 Y81.549 E99.37625
G1 X129.802 Y81.564 E99.52550
G1 X129.801 Y81.880 E99.58238
G1 X131.177 Y81.898 E99.83008
G1 X131.177 Y83.871 E100.18522
G1 X135.373 Y83.934 E100.94058
G1 X135.373 Y88.933 E101.84040
G1 X136.573 Y89.533 E102.08190
G1 X136.573 Y92.113 E102.54630
G1 X137.573 Y93.112 E102.80073
G1 X137.573 Y93.115 E102.80127
G1 X140.781 Y96.324 E103.61802
G1 X140.373 Y97.311 E103.81026
G1 X140.373 Y97.316 E103.81116
G1 X141.173 Y98.116 E104.01481
G1 X141.173 Y98.716 E104.12281
G1 X141.373 Y98.916 E104.17372
G1 X141.373 Y99.116 E104.20972
G1 X141.573 Y99.316 E104.26063
G1 X141.573 Y99.516 E104.29663
G1 X141.773 Y99.716 E104.34754
G1 X141.773 Y100.316 E104.45554
G1 X141.973 Y100.516 E104.50646
G1 X141.973 Y100.716 E104.54246
G1 X142.173 Y100.916 E104.59337
G1 X142.173 Y101.916 E104.77337
G1 X142.373 Y102.116 E104.82428
G1 X142.373 Y102.316 E104.86028
G1 X142.573 Y102.516 E104.91119
G1 X142.573 Y103.716 E105.12719
G1 X142.773 Y103.916 E105.17810
G1 X142.773 Y105.116 E105.39410
G1 X142.973 Y105.316 E105.44501
G1 X142.973 Y117.194 E107.58305
G1 X142.773 Y117.394 E107.63397
G1 X142.773 Y118.794 E107.88597
G1 X142.573 Y118.994 E107.93688
G1 X142.573 Y122.477 E108.56382
G1 X141.773 Y122.877 E108.72482
G1 X141.773 Y125.277 E109.15682
G1 X141.173 Y125.577 E109.27756
G1 X141.173 Y126.877 E109.51156
G1 X140.573 Y127.177 E109.63231
G1 X140.573 Y128.145 E109.80655
G1 X139.773 Y128.549 E109.96787
G1 X139.773 Y129.545 E110.14715
G1 X135.839 Y131.532 E110.94047
G1 X131.773 Y135.593 E111.97487
G1 X131.773 Y139.571 E112.69091
G1 X131.791 Y140.027 E112.77305
G1 X131.773 Y140.029 E112.77631
G1 X131.773 Y140.404 E112.84381
G1 X130.639 Y140.440 E113.04803
G1 X130.647 Y141.755 E113.28474
G1 X120.608 Y141.755 E115.09176
G1 X120.063 Y141.797 E115.19015
G1 X119.851 Y141.839 E115.22905
G1 X118.426 Y142.555 E115.51611
G1 X116.789 Y142.555 E115.81077
G1 X116.188 Y142.755 E115.92478
G1 X115.189 Y142.755 E116.10460
G1 X114.588 Y142.955 E116.21861
G1 X99.273 Y142.955 E118.97531
G1 X99.273 Y142.755 E119.01131
G1 X97.673 Y142.755 E119.29931
G1 X97.673 Y142.555 E119.33531
G1 X96.073 Y142.555 E119.62331
G1 X96.073 Y140.869 E119.92679
G1 X94.673 Y140.669 E120.18135
G1 X94.673 Y138.079 E120.64755
G1 X82.029 Y131.768 E123.19122
G1 X85.293 Y128.502 E124.02236
G1 X79.523 Y122.728 E125.49167
G1 X80.265 Y121.990 E125.68004
G1 X78.743 Y120.215 E126.10092
G1 X79.470 Y119.595 E126.27290
G1 X78.047 Y117.698 E126.69975
G1 X78.980 Y117.021 E126.90725
G1 X77.729 Y115.019 E127.33218
G1 X78.606 Y114.483 E127.51719
G1 X77.524 Y112.440 E127.93332
G1 X78.402 Y111.988 E128.11107
G1 X77.403 Y109.760 E128.55058
G1 X78.514 Y109.303 E128.76682
G1 X77.745 Y107.093 E129.18801
G1 X78.890 Y106.721 E129.40471
G1 X78.319 Y104.438 E129.82831
G1 X79.442 Y104.167 E130.03626
G1 X79.162 Y102.404 E130.35757
G1 X85.035 Y101.133 E131.43919
G1 X86.073 Y95.612 E132.45038
G1 X86.073 Y89.840 E133.48934
G0 F9000 X86.673 Y90.211
G1 F1200 X91.791 Y87.647 E134.51972
G1 X92.473 Y86.964 E134.69345
G1 X92.473 Y85.306 E134.99189
G1 X116.773 Y77.233 E139.60096
G1 X116.773 Y80.988 E140.27686
G1 X121.954 Y81.155 E141.20992
G1 X128.373 Y81.155 E142.36534
G1 X128.373 Y82.138 E142.54228
G1 X129.201 Y82.153 E142.69135
G1 X129.200 Y82.472 E142.74877
G1 X130.577 Y82.490 E142.99665
G1 X130.577 Y84.462 E143.35161
G1 X134.773 Y84.525 E144.10697
G1 X134.773 Y89.303 E144.96701
G1 X135.973 Y89.903 E145.20851
G1 X135.973 Y92.361 E145.65095
G1 X136.973 Y93.360 E145.90538
G1 X136.973 Y93.365 E145.90628
G1 X140.073 Y96.465 E146.69541
G1 X139.773 Y97.191 E146.83681
G1 X139.773 Y97.564 E146.90395
G1 X140.573 Y98.364 E147.10760
G1 X140.573 Y98.964 E147.21560
G1 X140.773 Y99.164 E147.26651
G1 X140.773 Y99.364 E147.30251
G1 X140.973 Y99.564 E147.35342
G1 X140.973 Y99.764 E147.38942
G1 X141.173 Y99.964 E147.44033
G1 X141.173 Y100.564 E147.54833
G1 X141.373 Y100.764 E147.59924
G1 X141.373 Y100.964 E147.63524
G1 X141.573 Y101.164 E147.68616
G1 X141.573 Y102.164 E147.86616
G1 X141.773 Y102.364 E147.91707
G1 X141.773 Y102.564 E147.95307
G1 X141.973 Y102.764 E148.00398
G1 X141.973 Y103.964 E148.21998
G1 X142.173 Y104.164 E148.27089
G1 X142.173 Y105.364 E148.48689
G1 X142.373 Y105.564 E148.53780
G1 X142.373 Y116.946 E150.58656
G1 X142.173 Y117.146 E150.63747
G1 X142.173 Y118.546 E150.88947
G1 X141.973 Y118.746 E150.94039
G1 X141.973 Y122.107 E151.54537
G1 X141.173 Y122.507 E151.70636
G1 X141.173 Y124.907 E152.13836
G1 X140.573 Y125.207 E152.25911
G1 X140.573 Y126.507 E152.49311
G1 X139.973 Y126.807 E152.61386
G1 X139.973 Y127.776 E152.78828
G1 X139.173 Y128.180 E152.94960
G1 X139.173 Y129.176 E153.12888
G1 X135.482 Y131.040 E153.87317
G1 X131.173 Y135.344 E154.96943
G1 X131.173 Y139.823 E155.77565
G1 X130.035 Y139.859 E155.98059
G1 X130.043 Y141.155 E156.21388
G1 X120.587 Y141.155 E157.91596
G1 X119.982 Y141.202 E158.02518
G1 X119.654 Y141.267 E158.08537
G1 X118.284 Y141.955 E158.36132
G1 X116.692 Y141.955 E158.64788
G1 X116.091 Y142.155 E158.76189
G1 X115.092 Y142.155 E158.94171
G1 X114.491 Y142.355 E159.05573
G1 X99.873 Y142.355 E161.68697
G1 X99.873 Y142.155 E161.72297
G1 X98.273 Y142.155 E162.01097
G1 X98.273 Y141.955 E162.04697
G1 X96.673 Y141.955 E162.33497
G1 X96.673 Y140.348 E162.62423
G1 X95.273 Y140.148 E162.87878
G1 X95.273 Y137.709 E163.31780
G1 X83.042 Y131.603 E165.77848
G1 X86.141 Y128.502 E166.56761
G1 X80.372 Y122.729 E168.03667
G1 X81.082 Y122.022 E168.21702
G1 X79.590 Y120.281 E168.62974
G1 X80.288 Y119.685 E168.79495
G1 X78.893 Y117.825 E169.21345
G1 X79.786 Y117.178 E169.41194
G1 X78.559 Y115.215 E169.82863
G1 X79.400 Y114.701 E170.00604
G1 X78.338 Y112.695 E170.41460
G1 X79.182 Y112.261 E170.58543
G1 X78.204 Y110.079 E171.01584
G1 X79.267 Y109.642 E171.22272
G1 X78.513 Y107.474 E171.63588
G1 X79.608 Y107.118 E171.84314
G1 X79.048 Y104.880 E172.25840
G1 X80.121 Y104.621 E172.45709
G1 X79.843 Y102.870 E172.77621
G1 X85.550 Y101.635 E173.82725
G1 X86.673 Y95.666 E174.92052
G1 X86.673 Y90.211 E175.90242
G0 F9000 X87.273 Y90.581
G1 F1200 X92.146 Y88.140 E176.88346
G1 X93.073 Y87.213 E177.11943
G1 X93.073 Y85.739 E177.38475
G1 X116.173 Y78.065 E181.76619
G1 X116.173 Y81.569 E182.39691
G1 X121.944 Y81.755 E183.43623
G1 X127.773 Y81.755 E184.48545
G1 X127.773 Y82.727 E184.66041
G1 X128.599 Y82.742 E184.80912
G1 X128.598 Y83.065 E184.86726
G1 X129.977 Y83.083 E185.11550
G1 X129.977 Y84.955 E185.45246
G1 X130.508 Y85.061 E185.54992
G1 X134.173 Y85.116 E186.20970
G1 X134.173 Y89.674 E187.03014
G1 X135.373 Y90.274 E187.27163
G1 X135.373 Y92.610 E187.69211
G1 X136.373 Y93.609 E187.94654
G1 X136.373 Y93.613 E187.94726
G1 X139.366 Y96.606 E188.70916
G1 X139.132 Y97.172 E188.81940
G1 X139.173 Y97.213 E188.82984
G1 X139.173 Y97.813 E188.93784
G1 X139.973 Y98.613 E189.14148
G1 X139.973 Y99.213 E189.24948
G1 X140.173 Y99.413 E189.30040
G1 X140.173 Y99.613 E189.33640
G1 X140.373 Y99.813 E189.38731
G1 X140.373 Y100.013 E189.42331
G1 X140.573 Y100.213 E189.47422
G1 X140.573 Y100.813 E189.58222
G1 X140.773 Y101.013 E189.63313
G1 X140.773 Y101.213 E189.66913
G1 X140.973 Y101.413 E189.72004
G1 X140.973 Y102.413 E189.90004
G1 X141.173 Y102.613 E189.95095
G1 X141.173 Y102.813 E189.98695
G1 X141.373 Y103.013 E190.03787
G1 X141.373 Y104.213 E190.25387
G1 X141.573 Y104.413 E190.30478
G1 X141.573 Y105.613 E190.52078
G1 X141.773 Y105.813 E190.57169
G1 X141.773 Y116.697 E192.53081
G1 X141.573 Y116.897 E192.58172
G1 X141.573 Y118.297 E192.83372
G1 X141.373 Y118.497 E192.88463
G1 X141.373 Y121.736 E193.46765
G1 X140.573 Y122.136 E193.62865
G1 X140.573 Y124.536 E194.06065
G1 X139.973 Y124.836 E194.18140
G1 X139.973 Y126.136 E194.41540
G1 X139.373 Y126.436 E194.53614
G1 X139.373 Y127.407 E194.71092
G1 X138.573 Y127.811 E194.87224
G1 X138.573 Y128.807 E195.05152
G1 X135.125 Y130.549 E195.74688
G1 X130.573 Y135.095 E196.90486
G1 X130.573 Y139.242 E197.65132
G1 X129.431 Y139.278 E197.85698
G1 X129.439 Y140.555 E198.08685
G1 X120.555 Y140.555 E199.68597
G1 X119.908 Y140.605 E199.80278
G1 X119.455 Y140.696 E199.88595
G1 X118.142 Y141.355 E200.15038
G1 X116.595 Y141.355 E200.42884
G1 X115.994 Y141.555 E200.54286
G1 X114.995 Y141.555 E200.72268
G1 X114.394 Y141.755 E200.83669
G1 X100.473 Y141.755 E203.34247
G1 X100.473 Y141.555 E203.37847
G1 X98.873 Y141.555 E203.66647
G1 X98.873 Y141.355 E203.70247
G1 X97.273 Y141.355 E203.99047
G1 X97.273 Y139.828 E204.26533
G1 X95.873 Y139.628 E204.51989
G1 X95.873 Y137.392 E204.92237
G1 X95.766 Y137.284 E204.94973
G1 X84.055 Y131.438 E207.30576
G1 X86.989 Y128.502 E208.05289
G1 X81.222 Y122.730 E209.52157
G1 X81.901 Y122.055 E209.69390
G1 X80.437 Y120.347 E210.09883
G1 X81.106 Y119.776 E210.25714
G1 X79.739 Y117.953 E210.66729
G1 X80.592 Y117.335 E210.85689
G1 X79.389 Y115.410 E211.26549
G1 X80.194 Y114.918 E211.43531
G1 X79.153 Y112.951 E211.83590
G1 X79.962 Y112.534 E211.99972
G1 X79.005 Y110.399 E212.42087
G1 X80.021 Y109.981 E212.61862
G1 X79.281 Y107.855 E213.02382
G1 X80.325 Y107.515 E213.22145
G1 X79.777 Y105.321 E213.62850
G1 X80.801 Y105.074 E213.81811
G1 X80.525 Y103.336 E214.13487
G1 X86.067 Y102.137 E215.15551
G1 X87.273 Y95.721 E216.33061
G1 X87.273 Y90.581 E217.25581
G0 F9000 X87.873 Y90.952
G1 F1200 X92.500 Y88.634 E218.18734
G1 X93.673 Y87.461 E218.48594
G1 X93.673 Y86.172 E218.71796
G1 X115.573 Y78.896 E222.87183
G1 X115.573 Y82.150 E223.45755
G1 X121.933 Y82.355 E224.60294
G1 X127.173 Y82.355 E225.54614
G1 X127.173 Y83.316 E225.71912
G1 X127.998 Y83.331 E225.86765
G1 X127.997 Y83.657 E225.92633
G1 X129.377 Y83.675 E226.17475
G1 X129.377 Y85.447 E226.49371
G1 X130.449 Y85.661 E226.69048
G1 X133.573 Y85.708 E227.25286
G1 X133.573 Y90.045 E228.03352
G1 X134.773 Y90.645 E228.27502
G1 X134.773 Y92.859 E228.67354
G1 X135.773 Y93.858 E228.92797
