;FLAVOR:UltiGCode
;TIME:1645
;MATERIAL:2908
;MATERIAL2:0
;NOZZLE_DIAMETER:0.600000
;NOZZLE_DIAMETER2:0.600000

;Layer count: 79
;LAYER:0
M107
G0 F9000 X86.852 Y85.891 Z0.300
;TYPE:SKIRT
G1 F1200 X91.364 Y85.139 E0.82336
G1 X91.978 Y84.525 E0.97966
G1 X92.581 Y84.323 E1.09413
G1 X95.149 Y81.761 E1.74707
G1 X95.742 Y81.761 E1.85381
G1 X96.542 Y80.961 E2.05746
G1 X98.678 Y80.961 E2.44194
G1 X98.678 Y78.761 E2.83794
G1 X114.751 Y78.761 E5.73108
G1 X117.205 Y79.068 E6.17624
G1 X130.185 Y80.916 E8.53620
G1 X130.087 Y82.260 E8.77877
G1 X130.978 Y82.483 E8.94409
G1 X130.978 Y82.561 E8.95813
G1 X136.578 Y82.561 E9.96613
G1 X136.578 Y87.883 E10.92409
G1 X137.524 Y88.354 E11.11431
G1 X137.517 Y88.460 E11.13343
G1 X141.778 Y88.609 E11.90088
G1 X141.778 Y94.360 E12.93606
G1 X143.578 Y94.540 E13.26168
G1 X143.578 Y98.625 E13.99698
G1 X144.539 Y99.586 E14.24161
G1 X143.778 Y101.670 E14.64096
G1 X143.778 Y101.825 E14.66886
G1 X143.978 Y102.025 E14.71977
G1 X143.978 Y103.225 E14.93577
G1 X144.178 Y103.425 E14.98668
G1 X144.178 Y104.825 E15.23868
G1 X144.378 Y105.025 E15.28959
G1 X144.378 Y117.697 E17.57055
G1 X144.178 Y117.897 E17.62146
G1 X144.178 Y119.297 E17.87346
G1 X143.978 Y119.497 E17.92437
G1 X143.978 Y123.225 E18.59541
G1 X143.178 Y123.625 E18.75641
G1 X143.178 Y126.025 E19.18841
G1 X141.378 Y126.925 E19.55065
G1 X141.378 Y127.297 E19.61761
G1 X140.578 Y128.097 E19.82126
G1 X140.578 Y128.297 E19.85726
G1 X140.378 Y128.497 E19.90817
G1 X140.378 Y128.697 E19.94417
G1 X140.178 Y128.897 E19.99508
G1 X140.178 Y129.097 E20.03108
G1 X139.378 Y129.897 E20.23473
G1 X139.378 Y134.232 E21.01503
G1 X133.173 Y136.301 E22.19238
G1 X132.276 Y137.196 E22.42047
G1 X131.980 Y137.295 E22.47665
G1 X129.314 Y139.961 E23.15530
G1 X129.114 Y139.961 E23.19130
G1 X128.114 Y140.961 E23.44586
G1 X127.514 Y140.961 E23.55386
G1 X126.714 Y141.761 E23.75751
G1 X126.114 Y141.761 E23.86551
G1 X125.314 Y142.561 E24.06915
G1 X122.505 Y142.561 E24.57477
G1 X122.112 Y142.659 E24.64768
G1 X120.316 Y143.561 E25.00944
G1 X119.505 Y143.561 E25.15542
G1 X118.705 Y143.961 E25.31642
G1 X116.989 Y143.961 E25.62530
G1 X116.388 Y144.161 E25.73931
G1 X115.389 Y144.161 E25.91913
G1 X114.788 Y144.361 E26.03314
G1 X98.078 Y144.361 E29.04094
G1 X98.078 Y144.161 E29.07694
G1 X96.478 Y144.161 E29.36494
G1 X96.478 Y143.961 E29.40094
G1 X94.878 Y143.961 E29.68894
G1 X94.878 Y142.115 E30.02122
G1 X93.478 Y141.915 E30.27578
G1 X93.478 Y139.025 E30.79598
G1 X80.410 Y132.491 E33.42587
G1 X83.857 Y129.045 E34.30320
G1 X77.660 Y122.844 E35.88121
G1 X78.468 Y122.045 E36.08575
G1 X76.897 Y120.212 E36.52029
G1 X77.758 Y119.477 E36.72406
G1 X76.313 Y117.506 E37.16397
G1 X77.302 Y116.786 E37.38417
G1 X76.021 Y114.684 E37.82725
G1 X76.772 Y114.223 E37.98587
G1 X75.587 Y112.041 E38.43281
G1 X76.754 Y111.445 E38.66868
G1 X75.772 Y109.178 E39.11338
G1 X76.947 Y108.690 E39.34240
G1 X76.165 Y106.345 E39.78735
G1 X76.889 Y106.109 E39.92442
G1 X76.180 Y103.698 E40.37677
G1 X77.881 Y103.290 E40.69164
G1 X77.506 Y100.934 E41.12105
G1 X78.665 Y100.744 E41.33246
G1 X78.472 Y98.232 E41.78595
G1 X84.584 Y97.749 E42.88954
G1 X85.078 Y95.180 E43.36043
G1 X85.078 Y91.425 E44.03633
G1 X85.966 Y90.537 E44.26238
G1 X86.852 Y85.891 E45.11373
G0 F9000 X87.363 Y86.415
G1 F1200 X91.651 Y85.700 E45.89623
G1 X92.302 Y85.049 E46.06195
G1 X92.906 Y84.847 E46.17658
G1 X95.397 Y82.361 E46.81005
G1 X95.990 Y82.361 E46.91679
G1 X96.790 Y81.561 E47.12044
G1 X99.278 Y81.561 E47.56828
G1 X99.278 Y79.361 E47.96428
G1 X114.714 Y79.361 E50.74276
G1 X117.126 Y79.662 E51.18029
G1 X129.546 Y81.431 E53.43845
G1 X129.452 Y82.719 E53.67091
G1 X130.378 Y82.951 E53.84274
G1 X130.378 Y83.144 E53.87748
G1 X130.448 Y83.161 E53.89044
G1 X135.978 Y83.161 E54.88584
G1 X135.978 Y88.254 E55.80258
G1 X136.898 Y88.712 E55.98757
G1 X136.875 Y89.038 E56.04640
G1 X141.178 Y89.189 E56.82141
G1 X141.178 Y94.903 E57.84993
G1 X142.978 Y95.083 E58.17555
G1 X142.978 Y98.873 E58.85775
G1 X143.844 Y99.739 E59.07820
G1 X143.149 Y101.644 E59.44320
G1 X143.178 Y101.673 E59.45059
G1 X143.178 Y102.073 E59.52259
G1 X143.378 Y102.273 E59.57350
G1 X143.378 Y103.473 E59.78950
G1 X143.578 Y103.673 E59.84041
G1 X143.578 Y105.073 E60.09241
G1 X143.778 Y105.273 E60.14332
G1 X143.778 Y117.449 E62.33500
G1 X143.578 Y117.649 E62.38591
G1 X143.578 Y119.049 E62.63791
G1 X143.378 Y119.249 E62.68882
G1 X143.378 Y122.854 E63.33772
G1 X142.578 Y123.254 E63.49872
G1 X142.578 Y125.654 E63.93072
G1 X140.778 Y126.554 E64.29296
G1 X140.778 Y127.049 E64.38206
G1 X139.978 Y127.849 E64.58571
G1 X139.978 Y128.049 E64.62171
G1 X139.778 Y128.249 E64.67262
G1 X139.778 Y128.449 E64.70862
G1 X139.578 Y128.649 E64.75953
G1 X139.578 Y128.849 E64.79553
G1 X138.778 Y129.649 E64.99918
G1 X138.778 Y133.799 E65.74618
G1 X132.850 Y135.775 E66.87094
G1 X131.952 Y136.672 E67.09941
G1 X131.656 Y136.771 E67.15559
G1 X129.066 Y139.361 E67.81489
G1 X128.866 Y139.361 E67.85089
G1 X127.866 Y140.361 E68.10545
G1 X127.266 Y140.361 E68.21345
G1 X126.466 Y141.161 E68.41710
G1 X125.866 Y141.161 E68.52510
G1 X125.066 Y141.961 E68.72875
G1 X122.430 Y141.961 E69.20323
G1 X121.904 Y142.093 E69.30084
G1 X120.174 Y142.961 E69.64924
G1 X119.363 Y142.961 E69.79522
G1 X118.563 Y143.361 E69.95622
G1 X116.891 Y143.361 E70.25718
G1 X116.290 Y143.561 E70.37119
G1 X115.291 Y143.561 E70.55101
G1 X114.690 Y143.761 E70.66502
G1 X98.678 Y143.761 E73.54718
G1 X98.678 Y143.561 E73.58318
G1 X97.078 Y143.561 E73.87118
G1 X97.078 Y143.361 E73.90718
G1 X95.478 Y143.361 E74.19518
G1 X95.478 Y141.595 E74.51306
G1 X94.078 Y141.395 E74.76762
G1 X94.078 Y138.654 E75.26100
G1 X81.423 Y132.327 E77.80773
G1 X84.705 Y129.045 E78.64319
G1 X78.510 Y122.847 E80.22056
G1 X79.287 Y122.079 E80.41721
G1 X77.744 Y120.279 E80.84396
G1 X78.572 Y119.573 E81.03982
G1 X77.152 Y117.637 E81.47199
G1 X78.103 Y116.945 E81.68370
G1 X76.845 Y114.882 E82.11863
G1 X77.570 Y114.437 E82.27175
G1 X76.408 Y112.296 E82.71023
G1 X77.529 Y111.724 E82.93676
G1 X76.565 Y109.499 E83.37324
G1 X77.693 Y109.030 E83.59313
G1 X76.926 Y106.729 E84.02971
G1 X77.629 Y106.500 E84.16280
G1 X76.933 Y104.135 E84.60655
G1 X78.561 Y103.745 E84.90788
G1 X78.192 Y101.430 E85.32984
G1 X79.306 Y101.248 E85.53302
G1 X79.116 Y98.783 E85.97803
G1 X85.087 Y98.311 E87.05617
G1 X85.678 Y95.237 E87.61962
G1 X85.678 Y91.673 E88.26114
G1 X86.521 Y90.830 E88.47573
G1 X87.363 Y86.415 E89.28476
G0 F9000 X87.874 Y86.938
G1 F1200 X91.939 Y86.260 E90.02656
G1 X92.626 Y85.574 E90.20132
G1 X93.230 Y85.372 E90.31596
G1 X95.645 Y82.961 E90.93021
G1 X96.239 Y82.961 E91.03713
G1 X97.039 Y82.161 E91.24077
G1 X99.633 Y82.161 E91.70769
G1 X99.878 Y82.038 E91.75704
G1 X99.878 Y79.961 E92.13090
G1 X114.677 Y79.961 E94.79472
G1 X117.046 Y80.257 E95.22446
G1 X128.907 Y81.946 E97.38097
G1 X128.817 Y83.179 E97.60350
G1 X129.778 Y83.420 E97.78184
G1 X129.778 Y83.612 E97.81640
G1 X130.374 Y83.761 E97.92698
G1 X135.378 Y83.761 E98.82770
G1 X135.378 Y88.627 E99.70358
G1 X136.271 Y89.071 E99.88309
G1 X136.233 Y89.616 E99.98143
G1 X140.578 Y89.768 E100.76401
G1 X140.578 Y95.446 E101.78605
G1 X142.378 Y95.626 E102.11167
G1 X142.378 Y99.122 E102.74095
G1 X143.149 Y99.893 E102.93721
G1 X142.454 Y101.798 E103.30222
G1 X142.578 Y101.922 E103.33378
G1 X142.578 Y102.322 E103.40578
G1 X142.778 Y102.522 E103.45669
G1 X142.778 Y103.722 E103.67269
G1 X142.978 Y103.922 E103.72361
G1 X142.978 Y105.322 E103.97561
G1 X143.178 Y105.522 E104.02652
G1 X143.178 Y117.200 E106.12856
G1 X142.978 Y117.400 E106.17947
G1 X142.978 Y118.800 E106.43147
G1 X142.778 Y119.000 E106.48238
G1 X142.778 Y122.483 E107.10932
G1 X141.978 Y122.883 E107.27032
G1 X141.978 Y125.283 E107.70232
G1 X140.212 Y126.166 E108.05772
G1 X140.178 Y126.200 E108.06637
G1 X140.178 Y126.800 E108.17437
G1 X139.378 Y127.600 E108.37802
G1 X139.378 Y127.800 E108.41402
G1 X139.178 Y128.000 E108.46493
G1 X139.178 Y128.200 E108.50093
G1 X138.978 Y128.400 E108.55184
G1 X138.978 Y128.600 E108.58784
G1 X138.178 Y129.400 E108.79149
G1 X138.178 Y133.367 E109.50555
G1 X132.525 Y135.251 E110.57811
G1 X131.628 Y136.147 E110.80632
G1 X131.333 Y136.246 E110.86234
G1 X128.817 Y138.761 E111.50268
G1 X128.617 Y138.761 E111.53868
G1 X127.617 Y139.761 E111.79324
G1 X127.017 Y139.761 E111.90124
G1 X126.217 Y140.561 E112.10488
G1 X125.617 Y140.561 E112.21288
G1 X124.817 Y141.361 E112.41653
G1 X122.355 Y141.361 E112.85969
G1 X121.697 Y141.526 E112.98180
G1 X120.032 Y142.361 E113.31707
G1 X119.222 Y142.361 E113.46287
G1 X118.422 Y142.761 E113.62387
G1 X116.794 Y142.761 E113.91691
G1 X116.193 Y142.961 E114.03092
G1 X115.194 Y142.961 E114.21074
G1 X114.593 Y143.161 E114.32475
G1 X99.278 Y143.161 E117.08145
G1 X99.278 Y142.961 E117.11745
G1 X97.678 Y142.961 E117.40545
G1 X97.678 Y142.761 E117.44145
G1 X96.078 Y142.761 E117.72945
G1 X96.078 Y141.075 E118.03293
G1 X94.678 Y140.875 E118.28749
G1 X94.678 Y138.283 E118.75405
G1 X82.436 Y132.162 E121.21771
G1 X85.553 Y129.045 E122.01117
G1 X79.361 Y122.849 E123.58790
G1 X80.106 Y122.112 E123.77653
G1 X78.591 Y120.345 E124.19549
G1 X79.386 Y119.667 E124.38357
G1 X77.992 Y117.767 E124.80774
G1 X78.903 Y117.104 E125.01055
G1 X77.669 Y115.080 E125.43724
G1 X78.369 Y114.650 E125.58512
G1 X77.229 Y112.550 E126.01522
G1 X78.304 Y112.001 E126.23250
G1 X77.358 Y109.819 E126.66058
G1 X78.439 Y109.370 E126.87128
G1 X77.686 Y107.112 E127.29972
G1 X78.369 Y106.890 E127.42899
G1 X77.687 Y104.571 E127.86409
G1 X79.241 Y104.199 E128.15171
G1 X78.879 Y101.925 E128.56619
G1 X79.946 Y101.750 E128.76081
G1 X79.760 Y99.334 E129.19698
G1 X85.591 Y98.873 E130.24983
G1 X86.278 Y95.297 E130.90528
G1 X86.278 Y91.922 E131.51278
G1 X87.075 Y91.124 E131.71579
G1 X87.874 Y86.938 E132.48288
G0 F9000 X88.385 Y87.461
G1 F1200 X92.228 Y86.821 E133.18414
G1 X92.950 Y86.098 E133.36806
G1 X93.554 Y85.897 E133.48265
G1 X95.894 Y83.561 E134.07780
G1 X96.487 Y83.561 E134.18454
G1 X97.287 Y82.761 E134.38819
G1 X99.771 Y82.761 E134.83531
G1 X99.778 Y82.759 E134.83662
G1 X100.403 Y82.446 E134.96244
G1 X100.478 Y82.431 E134.97621
G1 X100.478 Y80.561 E135.31281
G1 X114.639 Y80.561 E137.86179
G1 X116.967 Y80.852 E138.28409
G1 X128.267 Y82.461 E140.33860
G1 X128.181 Y83.638 E140.55103
G1 X129.178 Y83.888 E140.73604
G1 X129.178 Y84.081 E140.77078
G1 X130.301 Y84.361 E140.97911
G1 X134.778 Y84.361 E141.78497
G1 X134.778 Y88.998 E142.61963
G1 X135.645 Y89.429 E142.79391
G1 X135.592 Y90.194 E142.93194
G1 X139.978 Y90.347 E143.72190
G1 X139.978 Y95.989 E144.73746
G1 X141.778 Y96.169 E145.06308
G1 X141.778 Y99.371 E145.63944
G1 X142.454 Y100.047 E145.81152
G1 X141.778 Y101.898 E146.16622
G1 X141.778 Y101.970 E146.17918
G1 X141.978 Y102.170 E146.23010
G1 X141.978 Y102.570 E146.30210
G1 X142.178 Y102.770 E146.35301
G1 X142.178 Y103.970 E146.56901
G1 X142.378 Y104.170 E146.61992
G1 X142.378 Y105.570 E146.87192
G1 X142.578 Y105.770 E146.92283
G1 X142.578 Y116.952 E148.93559
G1 X142.378 Y117.152 E148.98650
G1 X142.378 Y118.552 E149.23850
G1 X142.178 Y118.752 E149.28941
G1 X142.178 Y122.113 E149.89439
G1 X141.378 Y122.513 E150.05539
G1 X141.378 Y124.913 E150.48739
G1 X139.856 Y125.674 E150.79369
G1 X139.578 Y125.952 E150.86445
G1 X139.578 Y126.552 E150.97245
G1 X138.778 Y127.352 E151.17610
G1 X138.778 Y127.552 E151.21210
G1 X138.578 Y127.752 E151.26301
G1 X138.578 Y127.952 E151.29901
G1 X138.378 Y128.152 E151.34993
G1 X138.378 Y128.352 E151.38593
G1 X137.578 Y129.152 E151.58957
G1 X137.578 Y132.935 E152.27051
G1 X132.200 Y134.727 E153.29088
G1 X131.304 Y135.623 E153.51896
G1 X131.007 Y135.722 E153.57531
G1 X128.569 Y138.161 E154.19605
G1 X128.369 Y138.161 E154.23205
G1 X127.369 Y139.161 E154.48661
G1 X126.769 Y139.161 E154.59461
G1 X125.969 Y139.961 E154.79826
G1 X125.369 Y139.961 E154.90626
G1 X124.569 Y140.761 E155.10991
G1 X122.284 Y140.761 E155.52121
G1 X121.482 Y140.961 E155.66999
G1 X119.890 Y141.761 E155.99069
G1 X119.080 Y141.761 E156.13649
G1 X118.280 Y142.161 E156.29749
G1 X116.697 Y142.161 E156.58243
G1 X116.096 Y142.361 E156.69644
G1 X115.097 Y142.361 E156.87626
G1 X114.496 Y142.561 E156.99028
G1 X99.878 Y142.561 E159.62152
G1 X99.878 Y142.361 E159.65752
G1 X98.278 Y142.361 E159.94552
G1 X98.278 Y142.161 E159.98152
G1 X96.678 Y142.161 E160.26952
G1 X96.678 Y140.554 E160.55878
G1 X95.278 Y140.354 E160.81333
G1 X95.278 Y137.928 E161.25001
G1 X95.249 Y137.898 E161.25753
G1 X83.449 Y131.998 E163.63223
G1 X86.402 Y129.046 E164.38381
G1 X80.212 Y122.852 E165.96004
G1 X80.925 Y122.146 E166.14065
G1 X79.438 Y120.411 E166.55196
G1 X80.199 Y119.762 E166.73199
G1 X78.832 Y117.898 E167.14806
G1 X79.703 Y117.264 E167.34198
G1 X78.492 Y115.279 E167.76052
G1 X79.168 Y114.864 E167.90330
G1 X78.050 Y112.805 E168.32503
G1 X79.078 Y112.280 E168.53281
G1 X78.150 Y110.140 E168.95267
G1 X79.184 Y109.710 E169.15424
G1 X78.446 Y107.496 E169.57431
G1 X79.109 Y107.280 E169.69983
G1 X78.441 Y105.007 E170.12627
G1 X79.921 Y104.653 E170.40019
G1 X79.565 Y102.421 E170.80702
G1 X80.586 Y102.254 E170.99325
G1 X80.404 Y99.885 E171.42092
G1 X86.094 Y99.435 E172.44832
G1 X86.878 Y95.353 E173.19651
G1 X86.878 Y92.170 E173.76945
G1 X87.630 Y91.418 E173.96088
G1 X88.385 Y87.461 E174.68599
G0 F9000 X88.896 Y87.984
G1 F1200 X92.516 Y87.381 E175.34656
G1 X93.275 Y86.622 E175.53977
G1 X93.878 Y86.421 E175.65419
G1 X96.142 Y84.161 E176.23000
G1 X96.736 Y84.161 E176.33692
G1 X97.536 Y83.361 E176.54056
G1 X99.844 Y83.361 E176.95600
G1 X99.989 Y83.325 E176.98290
G1 X100.599 Y83.019 E177.10574
G1 X101.078 Y82.923 E177.19367
G1 X101.078 Y81.161 E177.51083
G1 X114.602 Y81.161 E179.94515
G1 X116.887 Y81.447 E180.35966
G1 X127.628 Y82.976 E182.31253
G1 X127.546 Y84.098 E182.51503
G1 X128.578 Y84.356 E182.70651
G1 X128.578 Y84.550 E182.74143
G1 X130.227 Y84.961 E183.04733
G1 X134.178 Y84.961 E183.75851
G1 X134.178 Y89.369 E184.55195
G1 X135.018 Y89.787 E184.72083
G1 X134.949 Y90.772 E184.89857
G1 X139.378 Y90.927 E185.69628
G1 X139.378 Y96.532 E186.70518
G1 X141.178 Y96.712 E187.03079
G1 X141.178 Y99.619 E187.55405
G1 X141.759 Y100.200 E187.70195
G1 X141.178 Y101.792 E188.00700
G1 X141.178 Y102.219 E188.08386
G1 X141.378 Y102.419 E188.13477
G1 X141.378 Y102.819 E188.20677
G1 X141.578 Y103.019 E188.25768
G1 X141.578 Y104.219 E188.47368
G1 X141.778 Y104.419 E188.52459
G1 X141.778 Y105.819 E188.77659
G1 X141.978 Y106.019 E188.82750
G1 X141.978 Y116.703 E190.75062
G1 X141.778 Y116.903 E190.80154
G1 X141.778 Y118.303 E191.05354
G1 X141.578 Y118.503 E191.10445
G1 X141.578 Y121.742 E191.68747
G1 X140.778 Y122.142 E191.84846
G1 X140.778 Y124.542 E192.28046
G1 X139.500 Y125.181 E192.53766
G1 X138.978 Y125.703 E192.67054
G1 X138.978 Y126.303 E192.77854
G1 X138.178 Y127.103 E192.98218
G1 X138.178 Y127.303 E193.01818
G1 X137.978 Y127.503 E193.06909
G1 X137.978 Y127.703 E193.10509
G1 X137.778 Y127.903 E193.15601
G1 X137.778 Y128.103 E193.19201
G1 X136.978 Y128.903 E193.39565
G1 X136.978 Y132.502 E194.04347
G1 X131.877 Y134.202 E195.01130
G1 X130.980 Y135.099 E195.23964
G1 X130.682 Y135.199 E195.29622
G1 X128.320 Y137.561 E195.89749
G1 X128.120 Y137.561 E195.93349
G1 X127.120 Y138.561 E196.18805
G1 X126.520 Y138.561 E196.29605
G1 X125.720 Y139.361 E196.49969
G1 X125.120 Y139.361 E196.60769
G1 X124.320 Y140.161 E196.81134
G1 X122.153 Y140.161 E197.20140
G1 X122.100 Y140.188 E197.21211
G1 X121.274 Y140.394 E197.36534
G1 X119.748 Y141.161 E197.67276
G1 X118.938 Y141.161 E197.81856
G1 X118.138 Y141.561 E197.97956
G1 X116.600 Y141.561 E198.25640
G1 X115.999 Y141.761 E198.37041
G1 X115.000 Y141.761 E198.55023
G1 X114.399 Y141.961 E198.66425
G1 X100.478 Y141.961 E201.17003
G1 X100.478 Y141.761 E201.20603
G1 X98.878 Y141.761 E201.49403
G1 X98.878 Y141.561 E201.53003
G1 X97.278 Y141.561 E201.81803
G1 X97.278 Y140.034 E202.09289
G1 X95.878 Y139.834 E202.34744
G1 X95.878 Y137.680 E202.73516
G1 X95.602 Y137.404 E202.80542
G1 X84.462 Y131.834 E205.04730
G1 X87.250 Y129.046 E205.75701
G1 X81.062 Y122.854 E207.33273
G1 X81.744 Y122.179 E207.50545
G1 X80.285 Y120.477 E207.90897
G1 X81.012 Y119.857 E208.08095
G1 X79.672 Y118.029 E208.48893
G1 X80.503 Y117.424 E208.67395
G1 X79.316 Y115.477 E209.08441
G1 X79.966 Y115.078 E209.22169
G1 X78.871 Y113.060 E209.63496
