;FLAVOR:UltiGCode
;TIME:3480
;MATERIAL:3259
;MATERIAL2:0
;NOZZLE_DIAMETER:0.400000
;NOZZLE_DIAMETER2:0.400000

;Layer count: 118
;LAYER:0
M107
G0 F9000 X106.179 Y106.090 Z0.300
;TYPE:SKIRT
G1 F1200 X105.716 Y106.581 E0.08098
G1 X105.432 Y106.942 E0.13610
G1 X105.069 Y107.472 E0.21319
G1 X104.725 Y108.074 E0.29639
G1 X104.485 Y108.595 E0.36523
G1 X104.318 Y109.049 E0.42328
G1 X104.136 Y109.668 E0.50070
G1 X104.017 Y110.238 E0.57058
G1 X103.929 Y110.923 E0.65345
G1 X103.906 Y111.500 E0.72275
G1 X103.925 Y111.974 E0.77967
G1 X104.007 Y112.726 E0.87045
G1 X104.117 Y113.274 E0.93752
G1 X104.278 Y113.847 E1.00894
G1 X104.482 Y114.398 E1.07945
G1 X104.736 Y114.950 E1.15236
G1 X105.023 Y115.463 E1.22290
G1 X105.363 Y115.971 E1.29626
G1 X105.726 Y116.432 E1.36667
G1 X106.130 Y116.870 E1.43817
G1 X106.568 Y117.274 E1.50968
G1 X107.029 Y117.637 E1.58009
G1 X107.537 Y117.977 E1.65344
G1 X108.050 Y118.264 E1.72398
G1 X108.602 Y118.518 E1.79690
G1 X109.153 Y118.722 E1.86740
G1 X109.726 Y118.883 E1.93882
G1 X110.311 Y119.000 E2.01042
G1 X110.903 Y119.070 E2.08195
G1 X111.500 Y119.094 E2.15365
G1 X112.099 Y119.070 E2.22559
G1 X112.679 Y119.001 E2.29568
G1 X113.166 Y118.905 E2.35524
G1 X113.775 Y118.739 E2.43099
G1 X114.338 Y118.538 E2.50272
G1 X114.961 Y118.258 E2.58469
G1 X115.465 Y117.976 E2.65399
G1 X115.868 Y117.706 E2.71220
G1 X116.371 Y117.318 E2.78843
G1 X116.821 Y116.910 E2.86132
G1 X117.284 Y116.419 E2.94231
G1 X117.568 Y116.058 E2.99743
G1 X117.931 Y115.528 E3.07451
G1 X118.275 Y114.926 E3.15772
G1 X118.515 Y114.405 E3.22655
G1 X118.682 Y113.951 E3.28460
G1 X118.864 Y113.332 E3.36202
G1 X118.983 Y112.762 E3.43190
G1 X119.071 Y112.077 E3.51477
G1 X119.094 Y111.500 E3.58407
G1 X119.075 Y111.026 E3.64099
G1 X118.993 Y110.274 E3.73177
G1 X118.883 Y109.726 E3.79884
G1 X118.722 Y109.153 E3.87026
G1 X118.518 Y108.602 E3.94077
G1 X118.264 Y108.050 E4.01369
G1 X117.977 Y107.537 E4.08423
G1 X117.637 Y107.029 E4.15758
G1 X117.274 Y106.568 E4.22799
G1 X116.870 Y106.130 E4.29949
G1 X116.432 Y105.726 E4.37100
G1 X115.971 Y105.363 E4.44141
G1 X115.463 Y105.023 E4.51476
G1 X114.950 Y104.736 E4.58530
G1 X114.398 Y104.482 E4.65822
G1 X113.847 Y104.278 E4.72873
G1 X113.274 Y104.117 E4.80015
G1 X112.689 Y104.000 E4.87174
G1 X112.097 Y103.930 E4.94327
G1 X111.500 Y103.906 E5.01497
G1 X110.901 Y103.930 E5.08691
G1 X110.321 Y103.999 E5.15700
G1 X109.834 Y104.095 E5.21656
G1 X109.225 Y104.261 E5.29231
G1 X108.662 Y104.462 E5.36405
G1 X108.039 Y104.742 E5.44601
G1 X107.535 Y105.024 E5.51531
G1 X107.132 Y105.294 E5.57352
G1 X106.629 Y105.682 E5.64976
G1 X106.179 Y106.090 E5.72265
G0 F9000 X105.908 Y105.795
G1 F1200 X105.414 Y106.319 E5.80906
G1 X105.105 Y106.711 E5.86896
G1 X104.730 Y107.260 E5.94874
G1 X104.369 Y107.890 E6.03588
G1 X104.114 Y108.444 E6.10906
G1 X103.940 Y108.915 E6.16931
G1 X103.750 Y109.561 E6.25012
G1 X103.624 Y110.169 E6.32463
G1 X103.529 Y110.901 E6.41320
G1 X103.506 Y111.500 E6.48514
G1 X103.526 Y112.006 E6.54590
G1 X103.610 Y112.778 E6.63909
G1 X103.728 Y113.370 E6.71153
G1 X103.897 Y113.968 E6.78610
G1 X104.114 Y114.556 E6.86131
G1 X104.378 Y115.129 E6.93702
G1 X104.683 Y115.674 E7.01196
G1 X105.036 Y116.201 E7.08808
G1 X105.418 Y116.687 E7.16226
G1 X105.848 Y117.152 E7.23826
G1 X106.313 Y117.582 E7.31426
G1 X106.799 Y117.964 E7.38844
G1 X107.326 Y118.317 E7.46455
G1 X107.871 Y118.622 E7.53950
G1 X108.444 Y118.886 E7.61521
G1 X109.032 Y119.103 E7.69042
G1 X109.630 Y119.272 E7.76499
G1 X110.250 Y119.395 E7.84084
G1 X110.879 Y119.470 E7.91685
G1 X111.500 Y119.494 E7.99143
G1 X112.123 Y119.470 E8.06624
G1 X112.753 Y119.395 E8.14238
G1 X113.249 Y119.297 E8.20305
G1 X113.900 Y119.120 E8.28401
G1 X114.484 Y118.911 E8.35844
G1 X115.142 Y118.615 E8.44502
G1 X115.671 Y118.319 E8.51776
G1 X116.102 Y118.031 E8.57997
G1 X116.635 Y117.620 E8.66073
G1 X117.092 Y117.205 E8.73481
G1 X117.586 Y116.681 E8.82123
G1 X117.895 Y116.289 E8.88112
G1 X118.270 Y115.740 E8.96091
G1 X118.631 Y115.110 E9.04804
G1 X118.886 Y114.556 E9.12122
G1 X119.060 Y114.085 E9.18148
G1 X119.250 Y113.439 E9.26228
G1 X119.376 Y112.831 E9.33679
G1 X119.471 Y112.099 E9.42537
G1 X119.494 Y111.500 E9.49730
G1 X119.474 Y110.994 E9.55807
G1 X119.390 Y110.222 E9.65125
G1 X119.272 Y109.630 E9.72369
G1 X119.103 Y109.032 E9.79826
G1 X118.886 Y108.444 E9.87347
G1 X118.622 Y107.871 E9.94918
G1 X118.317 Y107.326 E10.02413
G1 X117.964 Y106.799 E10.10024
G1 X117.582 Y106.313 E10.17442
G1 X117.152 Y105.848 E10.25042
G1 X116.687 Y105.418 E10.32642
G1 X116.201 Y105.036 E10.40060
G1 X115.674 Y104.683 E10.47672
G1 X115.127 Y104.377 E10.55193
G1 X114.556 Y104.114 E10.62737
G1 X113.968 Y103.897 E10.70258
G1 X113.370 Y103.728 E10.77715
G1 X112.750 Y103.605 E10.85300
G1 X112.121 Y103.530 E10.92902
G1 X111.500 Y103.506 E11.00359
G1 X110.877 Y103.530 E11.07841
G1 X110.247 Y103.605 E11.15454
G1 X109.751 Y103.703 E11.21521
G1 X109.100 Y103.880 E11.29617
G1 X108.516 Y104.089 E11.37060
G1 X107.858 Y104.385 E11.45718
G1 X107.329 Y104.681 E11.52993
G1 X106.898 Y104.969 E11.59213
G1 X106.365 Y105.380 E11.67290
G1 X105.908 Y105.795 E11.74697
G0 F9000 X105.624 Y105.513
G1 F1200 X105.108 Y106.061 E11.83730
G1 X104.776 Y106.482 E11.90164
G1 X104.396 Y107.039 E11.98255
G1 X104.011 Y107.710 E12.07538
G1 X103.746 Y108.285 E12.15136
G1 X103.557 Y108.799 E12.21708
G1 X103.362 Y109.463 E12.30012
G1 X103.229 Y110.102 E12.37844
G1 X103.130 Y110.868 E12.47113
G1 X103.105 Y111.493 E12.54619
G1 X103.126 Y112.030 E12.61068
G1 X103.215 Y112.843 E12.70882
G1 X103.337 Y113.457 E12.78394
G1 X103.515 Y114.089 E12.86273
G1 X103.747 Y114.716 E12.94296
G1 X104.020 Y115.309 E13.02130
G1 X104.341 Y115.883 E13.10021
G1 X104.711 Y116.435 E13.17996
G1 X105.117 Y116.951 E13.25875
G1 X105.565 Y117.435 E13.33789
G1 X106.049 Y117.883 E13.41703
G1 X106.565 Y118.289 E13.49582
G1 X107.117 Y118.659 E13.57556
G1 X107.691 Y118.980 E13.65448
G1 X108.284 Y119.253 E13.73282
G1 X108.911 Y119.485 E13.81305
G1 X109.543 Y119.663 E13.89184
G1 X110.176 Y119.789 E13.96929
G1 X110.854 Y119.869 E14.05121
G1 X111.500 Y119.895 E14.12880
G1 X112.148 Y119.869 E14.20662
G1 X112.814 Y119.790 E14.28710
G1 X113.345 Y119.685 E14.35205
G1 X114.013 Y119.503 E14.43513
G1 X114.641 Y119.279 E14.51515
G1 X115.319 Y118.975 E14.60431
G1 X115.885 Y118.658 E14.68216
G1 X116.334 Y118.357 E14.74702
G1 X116.884 Y117.933 E14.83036
G1 X117.376 Y117.487 E14.91005
G1 X117.892 Y116.939 E15.00037
G1 X118.224 Y116.518 E15.06471
G1 X118.604 Y115.961 E15.14562
G1 X118.989 Y115.290 E15.23846
G1 X119.254 Y114.715 E15.31443
G1 X119.443 Y114.201 E15.38015
G1 X119.638 Y113.537 E15.46319
G1 X119.771 Y112.898 E15.54152
G1 X119.870 Y112.132 E15.63420
G1 X119.895 Y111.493 E15.71094
G1 X119.874 Y110.965 E15.77435
G1 X119.785 Y110.157 E15.87190
G1 X119.663 Y109.543 E15.94702
G1 X119.485 Y108.911 E16.02581
G1 X119.253 Y108.284 E16.10603
G1 X118.980 Y107.691 E16.18437
G1 X118.659 Y107.117 E16.26329
G1 X118.289 Y106.565 E16.34303
G1 X117.883 Y106.049 E16.42182
G1 X117.435 Y105.565 E16.50097
G1 X116.951 Y105.117 E16.58011
G1 X116.435 Y104.711 E16.65890
G1 X115.883 Y104.341 E16.73864
G1 X115.309 Y104.020 E16.81756
G1 X114.716 Y103.747 E16.89590
G1 X114.089 Y103.515 E16.97612
G1 X113.457 Y103.337 E17.05491
G1 X112.824 Y103.211 E17.13236
G1 X112.146 Y103.131 E17.21429
G1 X111.500 Y103.105 E17.29187
G1 X110.852 Y103.131 E17.36969
G1 X110.186 Y103.210 E17.45017
G1 X109.655 Y103.315 E17.51513
G1 X108.987 Y103.497 E17.59821
G1 X108.359 Y103.721 E17.67822
G1 X107.681 Y104.025 E17.76738
G1 X107.115 Y104.342 E17.84523
G1 X106.666 Y104.643 E17.91010
G1 X106.116 Y105.067 E17.99343
G1 X105.624 Y105.513 E18.07312
G0 F9000 X105.346 Y105.225
G1 F1200 X104.800 Y105.805 E18.16871
G1 X104.461 Y106.235 E18.23442
G1 X104.053 Y106.833 E18.32129
G1 X103.656 Y107.525 E18.41702
G1 X103.377 Y108.132 E18.49719
G1 X103.175 Y108.679 E18.56716
G1 X102.975 Y109.360 E18.65233
G1 X102.832 Y110.045 E18.73630
G1 X102.732 Y110.824 E18.83055
G1 X102.705 Y111.500 E18.91174
G1 X102.728 Y112.067 E18.97983
G1 X102.820 Y112.907 E19.08124
G1 X102.948 Y113.552 E19.16014
G1 X103.134 Y114.209 E19.24208
G1 X103.379 Y114.874 E19.32713
G1 X103.662 Y115.488 E19.40826
G1 X104.003 Y116.097 E19.49201
G1 X104.382 Y116.663 E19.57375
G1 X104.815 Y117.214 E19.65785
G1 X105.282 Y117.718 E19.74030
G1 X105.786 Y118.185 E19.82275
G1 X106.337 Y118.618 E19.90684
G1 X106.903 Y118.997 E19.98858
G1 X107.512 Y119.338 E20.07234
G1 X108.126 Y119.621 E20.15347
G1 X108.791 Y119.866 E20.23851
G1 X109.448 Y120.052 E20.32045
G1 X110.127 Y120.187 E20.40353
G1 X110.804 Y120.267 E20.48533
G1 X111.500 Y120.295 E20.56892
G1 X112.198 Y120.267 E20.65275
G1 X112.863 Y120.188 E20.73311
G1 X113.442 Y120.073 E20.80395
G1 X114.134 Y119.885 E20.89000
G1 X114.780 Y119.654 E20.97232
G1 X115.509 Y119.327 E21.06820
G1 X116.084 Y119.005 E21.14728
G1 X116.583 Y118.671 E21.21934
G1 X117.135 Y118.245 E21.30301
G1 X117.654 Y117.775 E21.38703
G1 X118.200 Y117.195 E21.48262
G1 X118.539 Y116.765 E21.54833
G1 X118.947 Y116.167 E21.63520
G1 X119.344 Y115.475 E21.73093
G1 X119.623 Y114.868 E21.81110
G1 X119.825 Y114.321 E21.88107
G1 X120.025 Y113.640 E21.96624
G1 X120.168 Y112.955 E22.05022
G1 X120.268 Y112.176 E22.14446
G1 X120.295 Y111.500 E22.22565
G1 X120.272 Y110.933 E22.29374
G1 X120.180 Y110.093 E22.39515
G1 X120.051 Y109.444 E22.47455
G1 X119.866 Y108.791 E22.55599
G1 X119.621 Y108.126 E22.64104
G1 X119.338 Y107.512 E22.72217
G1 X118.997 Y106.903 E22.80592
G1 X118.618 Y106.337 E22.88767
G1 X118.185 Y105.786 E22.97176
G1 X117.718 Y105.282 E23.05421
G1 X117.214 Y104.815 E23.13666
G1 X116.663 Y104.382 E23.22076
G1 X116.097 Y104.003 E23.30250
G1 X115.488 Y103.662 E23.38625
G1 X114.874 Y103.379 E23.46738
G1 X114.209 Y103.134 E23.55243
G1 X113.552 Y102.948 E23.63436
G1 X112.873 Y102.813 E23.71744
G1 X112.196 Y102.733 E23.79924
G1 X111.500 Y102.705 E23.88283
G1 X110.802 Y102.733 E23.96666
G1 X110.137 Y102.812 E24.04702
G1 X109.558 Y102.927 E24.11786
G1 X108.866 Y103.115 E24.20391
G1 X108.220 Y103.346 E24.28623
G1 X107.491 Y103.673 E24.38211
G1 X106.916 Y103.995 E24.46120
G1 X106.417 Y104.329 E24.53325
G1 X105.865 Y104.755 E24.61692
G1 X105.346 Y105.225 E24.70095
G0 F9000 X105.069 Y104.935
G1 F1200 X104.498 Y105.541 E24.80086
G1 X104.140 Y105.996 E24.87034
G1 X103.713 Y106.621 E24.96117
G1 X103.302 Y107.339 E25.06045
G1 X103.002 Y107.989 E25.14635
G1 X102.797 Y108.545 E25.21746
G1 X102.586 Y109.265 E25.30750
G1 X102.438 Y109.976 E25.39465
G1 X102.333 Y110.791 E25.49325
G1 X102.305 Y111.494 E25.57768
G1 X102.328 Y112.096 E25.64997
G1 X102.423 Y112.961 E25.75440
G1 X102.561 Y113.651 E25.83884
G1 X102.755 Y114.342 E25.92496
G1 X103.003 Y115.012 E26.01069
G1 X103.309 Y115.678 E26.09865
G1 X103.659 Y116.302 E26.18450
G1 X104.065 Y116.909 E26.27213
G1 X104.507 Y117.471 E26.35793
G1 X104.998 Y118.002 E26.44472
G1 X105.527 Y118.491 E26.53116
G1 X106.091 Y118.935 E26.61730
G1 X106.698 Y119.341 E26.70493
G1 X107.322 Y119.691 E26.79079
G1 X107.988 Y119.997 E26.87874
G1 X108.658 Y120.245 E26.96447
G1 X109.349 Y120.439 E27.05060
G1 X110.066 Y120.582 E27.13833
G1 X110.780 Y120.667 E27.22461
G1 X111.500 Y120.695 E27.31108
G1 X112.222 Y120.667 E27.39779
G1 X112.937 Y120.582 E27.48419
G1 X113.521 Y120.466 E27.55564
G1 X114.263 Y120.264 E27.64792
G1 X114.926 Y120.027 E27.73241
G1 X115.685 Y119.686 E27.83226
G1 X116.305 Y119.340 E27.91746
G1 X116.798 Y119.010 E27.98865
G1 X117.406 Y118.540 E28.08087
G1 X117.931 Y118.065 E28.16583
G1 X118.502 Y117.459 E28.26574
G1 X118.860 Y117.004 E28.33522
G1 X119.287 Y116.379 E28.42605
G1 X119.698 Y115.661 E28.52533
G1 X119.998 Y115.011 E28.61123
G1 X120.203 Y114.455 E28.68235
G1 X120.414 Y113.735 E28.77238
G1 X120.562 Y113.024 E28.85953
G1 X120.667 Y112.209 E28.95814
G1 X120.695 Y111.494 E29.04400
G1 X120.672 Y110.904 E29.11486
G1 X120.577 Y110.039 E29.21928
G1 X120.439 Y109.349 E29.30372
G1 X120.245 Y108.658 E29.38985
G1 X119.997 Y107.988 E29.47558
G1 X119.691 Y107.322 E29.56353
G1 X119.341 Y106.698 E29.64938
G1 X118.935 Y106.091 E29.73702
G1 X118.493 Y105.529 E29.82281
G1 X118.002 Y104.998 E29.90960
G1 X117.471 Y104.507 E29.99639
G1 X116.909 Y104.065 E30.08218
G1 X116.302 Y103.659 E30.16982
G1 X115.678 Y103.309 E30.25567
G1 X115.012 Y103.003 E30.34362
G1 X114.342 Y102.755 E30.42935
G1 X113.651 Y102.561 E30.51548
G1 X112.934 Y102.418 E30.60321
G1 X112.220 Y102.333 E30.68950
G1 X111.500 Y102.305 E30.77596
G1 X110.778 Y102.333 E30.86267
G1 X110.063 Y102.418 E30.94907
G1 X109.479 Y102.534 E31.02052
G1 X108.737 Y102.736 E31.11280
G1 X108.074 Y102.973 E31.19729
G1 X107.315 Y103.314 E31.29714
G1 X106.695 Y103.660 E31.38235
G1 X106.202 Y103.990 E31.45354
G1 X105.594 Y104.460 E31.54575
G1 X105.069 Y104.935 E31.63071
G0 F9000 X104.785 Y104.654
G1 F1200 X104.197 Y105.278 E31.73360
G1 X103.814 Y105.765 E31.80795
G1 X103.374 Y106.409 E31.90154
G1 X102.944 Y107.159 E32.00528
G1 X102.635 Y107.831 E32.09404
G1 X102.416 Y108.425 E32.17001
G1 X102.200 Y109.162 E32.26217
G1 X102.044 Y109.907 E32.35351
G1 X101.933 Y110.770 E32.45792
G1 X101.904 Y111.494 E32.54487
G1 X101.929 Y112.113 E32.61921
G1 X102.029 Y113.036 E32.73062
G1 X102.169 Y113.738 E32.81652
G1 X102.373 Y114.459 E32.90644
G1 X102.635 Y115.170 E32.99737
G1 X102.952 Y115.857 E33.08816
G1 X103.321 Y116.516 E33.17879
G1 X103.736 Y117.137 E33.26842
G1 X104.205 Y117.733 E33.35943
G1 X104.715 Y118.285 E33.44961
G1 X105.267 Y118.795 E33.53980
G1 X105.863 Y119.264 E33.63081
G1 X106.484 Y119.679 E33.72043
G1 X107.143 Y120.048 E33.81107
G1 X107.830 Y120.365 E33.90186
G1 X108.541 Y120.627 E33.99279
G1 X109.262 Y120.831 E34.08271
G1 X109.992 Y120.976 E34.17202
G1 X110.755 Y121.066 E34.26421
G1 X111.500 Y121.096 E34.35368
G1 X112.246 Y121.066 E34.44328
G1 X112.999 Y120.977 E34.53427
G1 X113.617 Y120.855 E34.60986
G1 X114.372 Y120.649 E34.70377
G1 X115.082 Y120.395 E34.79426
G1 X115.871 Y120.041 E34.89803
G1 X116.504 Y119.686 E34.98512
G1 X117.039 Y119.329 E35.06230
G1 X117.656 Y118.853 E35.15581
G1 X118.215 Y118.346 E35.24637
G1 X118.803 Y117.722 E35.34926
G1 X119.186 Y117.235 E35.42361
G1 X119.626 Y116.591 E35.51720
G1 X120.056 Y115.841 E35.62095
G1 X120.365 Y115.169 E35.70970
G1 X120.584 Y114.575 E35.78567
G1 X120.800 Y113.838 E35.87783
G1 X120.956 Y113.093 E35.96917
G1 X121.067 Y112.230 E36.07359
G1 X121.096 Y111.494 E36.16197
G1 X121.071 Y110.880 E36.23571
G1 X120.971 Y109.964 E36.34629
G1 X120.831 Y109.262 E36.43219
G1 X120.627 Y108.541 E36.52210
G1 X120.365 Y107.830 E36.61303
G1 X120.048 Y107.143 E36.70382
G1 X119.679 Y106.484 E36.79446
G1 X119.264 Y105.863 E36.88409
G1 X118.795 Y105.267 E36.97509
G1 X118.285 Y104.715 E37.06528
G1 X117.733 Y104.205 E37.15546
G1 X117.137 Y103.736 E37.24647
G1 X116.516 Y103.321 E37.33610
G1 X115.857 Y102.952 E37.42673
G1 X115.170 Y102.635 E37.51753
G1 X114.459 Y102.373 E37.60845
G1 X113.738 Y102.169 E37.69837
G1 X113.008 Y102.024 E37.78768
G1 X112.245 Y101.934 E37.87988
G1 X111.500 Y101.904 E37.96935
G1 X110.754 Y101.934 E38.05894
G1 X110.001 Y102.023 E38.14993
G1 X109.383 Y102.145 E38.22552
G1 X108.628 Y102.351 E38.31943
G1 X107.918 Y102.605 E38.40992
G1 X107.129 Y102.959 E38.51370
G1 X106.496 Y103.314 E38.60079
G1 X105.961 Y103.671 E38.67797
G1 X105.344 Y104.147 E38.77148
G1 X104.785 Y104.654 E38.86204
G0 F9000 X104.514 Y104.359
G1 F1200 X103.889 Y105.022 E38.97138
G1 X103.491 Y105.527 E39.04854
G1 X103.030 Y106.203 E39.14672
G1 X102.592 Y106.966 E39.25230
G1 X102.267 Y107.674 E39.34578
G1 X102.037 Y108.296 E39.42536
G1 X101.808 Y109.076 E39.52291
G1 X101.649 Y109.840 E39.61655
G1 X101.535 Y110.726 E39.72375
G1 X101.505 Y111.500 E39.81670
G1 X101.531 Y112.157 E39.89560
G1 X101.633 Y113.089 E40.00811
G1 X101.781 Y113.834 E40.09926
G1 X101.992 Y114.584 E40.19275
G1 X102.268 Y115.330 E40.28820
G1 X102.593 Y116.037 E40.38158
G1 X102.974 Y116.716 E40.47501
G1 X103.413 Y117.373 E40.56983
G1 X103.904 Y117.996 E40.66502
G1 X104.432 Y118.568 E40.75843
G1 X105.004 Y119.096 E40.85184
G1 X105.627 Y119.587 E40.94703
G1 X106.284 Y120.026 E41.04185
G1 X106.963 Y120.407 E41.13528
G1 X107.670 Y120.732 E41.22865
G1 X108.416 Y121.008 E41.32410
G1 X109.166 Y121.219 E41.41760
